{"compressionlevel":-1,"width":86,"height":48,"tilewidth":16,"tileheight":16,"infinite":false,"orientation":"orthogonal","renderorder":"right-down","nextlayerid":17,"nextobjectid":24,"tiledversion":"1.10.2","type":"map","version":"1.10","tilesets":[{"firstgid":1,"name":"sunnyside","image":"tileset-sunnyside-world.png","imagewidth":1024,"imageheight":1216,"tilewidth":16,"tileheight":16,"columns":64,"tilecount":4864,"margin":0,"spacing":0}],"layers":[{"id":1,"name":"sea","type":"tilelayer","x":0,"y":0,"width":86,"height":48,"opacity":1,"visible":true,"data":[1295,1292,1293,1294,1295,1292,1293,1294,1295,1292,1293,1294,1295,1292,1293,1294,1295,1292,1293,1294,1295,1292,1293,1294,1295,1292,1293,1294,1295,1292,1293,1294,1295,1292,1293,1294,1295,1292,1293,1294,1295,1292,1293,1294,1295,1292,1293,1294,1295,1292,1293,1294,1295,1292,1293,1294,1295,1292,1293,1294,1295,1292,1293,1294,1295,1292,1293,1294,1295,1292,1293,1294,1295,1292,1293,1294,1295,1292,1293,1294,1295,1292,1293,1294,1295,1292,1359,1356,1357,1358,1359,1356,1357,1358,1359,1356,1357,1358,1359,1356,1357,1358,1359,1356,1357,1358,1359,1356,1357,1358,1359,1356,1357,1358,1359,1356,1357,1358,1359,1356,1357,1358,1359,1356,1357,1358,1359,1356,1357,1358,1359,1356,1357,1358,1359,1356,1357,1358,1359,1356,1357,1358,1359,1356,1357,1358,1359,1356,1357,1358,1359,1356,1357,1358,1359,1356,1357,1358,1359,1356,1357,1358,1359,1356,1357,1358,1359,1356,1357,1358,1359,1356,1167,1164,1165,1166,1167,1164,1165,1166,1167,1164,1165,1166,1167,1164,1165,1166,1167,1164,1165,1166,1167,1164,1165,1166,1167,1164,1165,1166,1167,1164,1165,1166,1167,1164,1165,1166,1167,1164,1165,1166,1167,1164,1165,1166,1167,1164,1165,1166,1167,1164,1165,1166,1167,1164,1165,1166,1167,1164,1165,1166,1167,1164,1165,1166,1167,1164,1165,1166,1167,1164,1165,1166,1167,1164,1165,1166,1167,1164,1165,1166,1167,1164,1165,1166,1167,1164,1231,1228,1229,1230,1231,1228,1229,1230,1231,1228,1229,1230,1231,1228,1229,1230,1231,1228,1229,1230,1231,1228,1229,1230,1231,1228,1229,1230,1231,1228,1229,1230,1231,1228,1229,1230,1231,1228,1229,1230,1231,1228,1229,1230,1231,1228,1229,1230,1231,1228,1229,1230,1231,1228,1229,1230,1231,1228,1229,1230,1231,1228,1229,1230,1231,1228,1229,1230,1231,1228,1229,1230,1231,1228,1229,1230,1231,1228,1229,1230,1231,1228,1229,1230,1231,1228,1295,1292,1293,1294,1295,1292,1293,1294,1295,1292,1293,1294,1295,1292,1293,1294,1295,1292,1293,1294,1295,1292,1293,1294,1295,1292,1293,1294,1295,1292,1293,1294,1295,1292,1293,1294,1295,1292,1293,1294,1295,1292,1293,1294,1295,1292,1293,1294,1295,1292,1293,1294,1295,1292,1293,1294,1295,1292,1293,1294,1295,1292,1293,1294,1295,1292,1293,1294,1295,1292,1293,1294,1295,1292,1293,1294,1295,1292,1293,1294,1295,1292,1293,1294,1295,1292,1359,1356,1357,1358,1359,1356,1357,1358,1359,1356,1357,1358,1359,1356,1357,1358,1359,1356,1357,1358,1359,1356,1357,1358,1359,1356,1357,1358,1359,1356,1357,1358,1359,1356,1357,1358,1359,1356,1357,1358,1359,1356,1357,1358,1359,1356,1357,1358,1359,1356,1357,1358,1359,1356,1357,1358,1359,1356,1357,1358,1359,1356,1357,1358,1359,1356,1357,1358,1359,1356,1357,1358,1359,1356,1357,1358,1359,1356,1357,1358,1359,1356,1357,1358,1359,1356,1167,1164,1165,1166,1167,1164,1165,1166,1167,1164,1165,1166,1167,1164,1165,1166,1167,1164,1165,1166,1167,1164,1165,1166,1167,1164,1165,1166,1167,1164,1165,1166,1167,1164,1165,1166,1167,1164,1165,1166,1167,1164,1165,1166,1167,1164,1165,1166,1167,1164,1165,1166,1167,1164,1165,1166,1167,1164,1165,1166,1167,1164,1165,1166,1167,1164,1165,1166,1167,1164,1165,1166,1167,1164,1165,1166,1167,1164,1165,1166,1167,1164,1165,1166,1167,1164,1231,1228,1229,1230,1231,1228,1229,1230,1231,1228,1229,1230,1231,1228,1229,1230,1231,1228,1229,1230,1231,1228,1229,1230,1231,1228,1229,1230,1231,1228,1229,1230,1231,1228,1229,1230,1231,1228,1229,1230,1231,1228,1229,1230,1231,1228,1229,1230,1231,1228,1229,1230,1231,1228,1229,1230,1231,1228,1229,1230,1231,1228,1229,1230,1231,1228,1229,1230,1231,1228,1229,1230,1231,1228,1229,1230,1231,1228,1229,1230,1231,1228,1229,1230,1231,1228,1295,1292,1293,1294,1295,1292,1293,1294,1295,1292,1293,1294,1295,1292,1293,1294,1295,1292,1293,1294,1295,1292,1293,1294,1295,1292,1293,1294,1295,1292,1293,1294,1295,1292,1293,1294,1295,1292,1293,1294,1295,1292,1293,1294,1295,1292,1293,1294,1295,1292,1293,1294,1295,1292,1293,1294,1295,1292,1293,1294,1295,1292,1293,1294,1295,1292,1293,1294,1295,1292,1293,1294,1295,1292,1293,1294,1295,1292,1293,1294,1295,1292,1293,1294,1295,1292,1359,1356,1357,1358,1359,1356,1357,1358,1359,1356,1357,1358,1359,1356,1357,1358,1359,1356,1357,1358,1359,1356,1357,1358,1359,1356,1357,1358,1359,1356,1357,1358,1359,1356,1357,1358,1359,1356,1357,1358,1359,1356,1357,1358,1359,1356,1357,1358,1359,1356,1357,1358,1359,1356,1357,1358,1359,1356,1357,1358,1359,1356,1357,1358,1359,1356,1357,1358,1359,1356,1357,1358,1359,1356,1357,1358,1359,1356,1357,1358,1359,1356,1357,1358,1359,1356,1167,1164,1165,1166,1167,1164,1165,1166,1167,1164,1165,1166,1167,1164,1165,1166,1167,1164,1165,1166,1167,1164,1165,1166,1167,1164,1165,1166,1167,1164,1165,1166,1167,1164,1165,1166,1167,1164,1165,1166,1167,1164,1165,1166,1167,1164,1165,1166,1167,1164,1165,1166,1167,1164,1165,1166,1167,1164,1165,1166,1167,1164,1165,1166,1167,1164,1165,1166,1167,1164,1165,1166,1167,1164,1165,1166,1167,1164,1165,1166,1167,1164,1165,1166,1167,1164,1231,1228,1229,1230,1231,1228,1229,1230,1231,1228,1229,1230,1231,1228,1229,1230,1231,1228,1229,1230,1231,1228,1229,1230,1231,1228,1229,1230,1231,1228,1229,1230,1231,1228,1229,1230,1231,1228,1229,1230,1231,1228,1229,1230,1231,1228,1229,1230,1231,1228,1229,1230,1231,1228,1229,1230,1231,1228,1229,1230,1231,1228,1229,1230,1231,1228,1229,1230,1231,1228,1229,1230,1231,1228,1229,1230,1231,1228,1229,1230,1231,1228,1229,1230,1231,1228,1295,1292,1293,1294,1295,1292,1293,1294,1295,1292,1293,1294,1295,1292,1293,1294,1295,1292,1293,1294,1295,1292,1293,1294,1295,1292,1293,1294,1295,1292,1293,1294,1295,1292,1293,1294,1295,1292,1293,1294,1295,1292,1293,1294,1295,1292,1293,1294,1295,1292,1293,1294,1295,1292,1293,1294,1295,1292,1293,1294,1295,1292,1293,1294,1295,1292,1293,1294,1295,1292,1293,1294,1295,1292,1293,1294,1295,1292,1293,1294,1295,1292,1293,1294,1295,1292,1359,1356,1357,1358,1359,1356,1357,1358,1359,1356,1357,1358,1359,1356,1357,1358,1359,1356,1357,1358,1359,1356,1357,1358,1359,1356,1357,1358,1359,1356,1357,1358,1359,1356,1357,1358,1359,1356,1357,1358,1359,1356,1357,1358,1359,1356,1357,1358,1359,1356,1357,1358,1359,1356,1357,1358,1359,1356,1357,1358,1359,1356,1357,1358,1359,1356,1357,1358,1359,1356,1357,1358,1359,1356,1357,1358,1359,1356,1357,1358,1359,1356,1357,1358,1359,1356,1167,1164,1165,1166,1167,1164,1165,1166,1167,1164,1165,1166,1167,1164,1165,1166,1167,1164,1165,1166,1167,1164,1165,1166,1167,1164,1165,1166,1167,1164,1165,1166,1167,1164,1165,1166,1167,1164,1165,1166,1167,1164,1165,1166,1167,1164,1165,1166,1167,1164,1165,1166,1167,1164,1165,1166,1167,1164,1165,1166,1167,1164,1165,1166,1167,1164,1165,1166,1167,1164,1165,1166,1167,1164,1165,1166,1167,1164,1165,1166,1167,1164,1165,1166,1167,1164,1231,1228,1229,1230,1231,1228,1229,1230,1231,1228,1229,1230,1231,1228,1229,1230,1231,1228,1229,1230,1231,1228,1229,1230,1231,1228,1229,1230,1231,1228,1229,1230,1231,1228,1229,1230,1231,1228,1229,1230,1231,1228,1229,1230,1231,1228,1229,1230,1231,1228,1229,1230,1231,1228,1229,1230,1231,1228,1229,1230,1231,1228,1229,1230,1231,1228,1229,1230,1231,1228,1229,1230,1231,1228,1229,1230,1231,1228,1229,1230,1231,1228,1229,1230,1231,1228,1295,1292,1293,1294,1295,1292,1293,1294,1295,1292,1293,1294,1295,1292,1293,1294,1295,1292,1293,1294,1295,1292,1293,1294,1295,1292,1293,1294,1295,1292,1293,1294,1295,1292,1293,1294,1295,1292,1293,1294,1295,1292,1293,1294,1295,1292,1293,1294,1295,1292,1293,1294,1295,1292,1293,1294,1295,1292,1293,1294,1295,1292,1293,1294,1295,1292,1293,1294,1295,1292,1293,1294,1295,1292,1293,1294,1295,1292,1293,1294,1295,1292,1293,1294,1295,1292,1359,1356,1357,1358,1359,1356,1357,1358,1359,1356,1357,1358,1359,1356,1357,1358,1359,1356,1357,1358,1359,1356,1357,1358,1359,1356,1357,1358,1359,1356,1357,1358,1359,1356,1357,1358,1359,1356,1357,1358,1359,1356,1357,1358,1359,1356,1357,1358,1359,1356,1357,1358,1359,1356,1357,1358,1359,1356,1357,1358,1359,1356,1357,1358,1359,1356,1357,1358,1359,1356,1357,1358,1359,1356,1357,1358,1359,1356,1357,1358,1359,1356,1357,1358,1359,1356,1167,1164,1165,1166,1167,1164,1165,1166,1167,1164,1165,1166,1167,1164,1165,1166,1167,1164,1165,1166,1167,1164,1165,1166,1167,1164,1165,1166,1167,1164,1165,1166,1167,1164,1165,1166,1167,1164,1165,1166,1167,1164,1165,1166,1167,1164,1165,1166,1167,1164,1165,1166,1167,1164,1165,1166,1167,1164,1165,1166,1167,1164,1165,1166,1167,1164,1165,1166,1167,1164,1165,1166,1167,1164,1165,1166,1167,1164,1165,1166,1167,1164,1165,1166,1167,1164,1231,1228,1229,1230,1231,1228,1229,1230,1231,1228,1229,1230,1231,1228,1229,1230,1231,1228,1229,1230,1231,1228,1229,1230,1231,1228,1229,1230,1231,1228,1229,1230,1231,1228,1229,1230,1231,1228,1229,1230,1231,1228,1229,1230,1231,1228,1229,1230,1231,1228,1229,1230,1231,1228,1229,1230,1231,1228,1229,1230,1231,1228,1229,1230,1231,1228,1229,1230,1231,1228,1229,1230,1231,1228,1229,1230,1231,1228,1229,1230,1231,1228,1229,1230,1231,1228,1295,1292,1293,1294,1295,1292,1293,1294,1295,1292,1293,1294,1295,1292,1293,1294,1295,1292,1293,1294,1295,1292,1293,1294,1295,1292,1293,1294,1295,1292,1293,1294,1295,1292,1293,1294,1295,1292,1293,1294,1295,1292,1293,1294,1295,1292,1293,1294,1295,1292,1293,1294,1295,1292,1293,1294,1295,1292,1293,1294,1295,1292,1293,1294,1295,1292,1293,1294,1295,1292,1293,1294,1295,1292,1293,1294,1295,1292,1293,1294,1295,1292,1293,1294,1295,1292,1359,1356,1357,1358,1359,1356,1357,1358,1359,1356,1357,1358,1359,1356,1357,1358,1359,1356,1357,1358,1359,1356,1357,1358,1359,1356,1357,1358,1359,1356,1357,1358,1359,1356,1357,1358,1359,1356,1357,1358,1359,1356,1357,1358,1359,1356,1357,1358,1359,1356,1357,1358,1359,1356,1357,1358,1359,1356,1357,1358,1359,1356,1357,1358,1359,1356,1357,1358,1359,1356,1357,1358,1359,1356,1357,1358,1359,1356,1357,1358,1359,1356,1357,1358,1359,1356,1167,1164,1165,1166,1167,1164,1165,1166,1167,1164,1165,1166,1167,1164,1165,1166,1167,1164,1165,1166,1167,1164,1165,1166,1167,1164,1165,1166,1167,1164,1165,1166,1167,1164,1165,1166,1167,1164,1165,1166,1167,1164,1165,1166,1167,1164,1165,1166,1167,1164,1165,1166,1167,1164,1165,1166,1167,1164,1165,1166,1167,1164,1165,1166,1167,1164,1165,1166,1167,1164,1165,1166,1167,1164,1165,1166,1167,1164,1165,1166,1167,1164,1165,1166,1167,1164,1231,1228,1229,1230,1231,1228,1229,1230,1231,1228,1229,1230,1231,1228,1229,1230,1231,1228,1229,1230,1231,1228,1229,1230,1231,1228,1229,1230,1231,1228,1229,1230,1231,1228,1229,1230,1231,1228,1229,1230,1231,1228,1229,1230,1231,1228,1229,1230,1231,1228,1229,1230,1231,1228,1229,1230,1231,1228,1229,1230,1231,1228,1229,1230,1231,1228,1229,1230,1231,1228,1229,1230,1231,1228,1229,1230,1231,1228,1229,1230,1231,1228,1229,1230,1231,1228,1295,1292,1293,1294,1295,1292,1293,1294,1295,1292,1293,1294,1295,1292,1293,1294,1295,1292,1293,1294,1295,1292,1293,1294,1295,1292,1293,1294,1295,1292,1293,1294,1295,1292,1293,1294,1295,1292,1293,1294,1295,1292,1293,1294,1295,1292,1293,1294,1295,1292,1293,1294,1295,1292,1293,1294,1295,1292,1293,1294,1295,1292,1293,1294,1295,1292,1293,1294,1295,1292,1293,1294,1295,1292,1293,1294,1295,1292,1293,1294,1295,1292,1293,1294,1295,1292,1359,1356,1357,1358,1359,1356,1357,1358,1359,1356,1357,1358,1359,1356,1357,1358,1359,1356,1357,1358,1359,1356,1357,1358,1359,1356,1357,1358,1359,1356,1357,1358,1359,1356,1357,1358,1359,1356,1357,1358,1359,1356,1357,1358,1359,1356,1357,1358,1359,1356,1357,1358,1359,1356,1357,1358,1359,1356,1357,1358,1359,1356,1357,1358,1359,1356,1357,1358,1359,1356,1357,1358,1359,1356,1357,1358,1359,1356,1357,1358,1359,1356,1357,1358,1359,1356,1167,1164,1165,1166,1167,1164,1165,1166,1167,1164,1165,1166,1167,1164,1165,1166,1167,1164,1165,1166,1167,1164,1165,1166,1167,1164,1165,1166,1167,1164,1165,1166,1167,1164,1165,1166,1167,1164,1165,1166,1167,1164,1165,1166,1167,1164,1165,1166,1167,1164,1165,1166,1167,1164,1165,1166,1167,1164,1165,1166,1167,1164,1165,1166,1167,1164,1165,1166,1167,1164,1165,1166,1167,1164,1165,1166,1167,1164,1165,1166,1167,1164,1165,1166,1167,1164,1231,1228,1229,1230,1231,1228,1229,1230,1231,1228,1229,1230,1231,1228,1229,1230,1231,1228,1229,1230,1231,1228,1229,1230,1231,1228,1229,1230,1231,1228,1229,1230,1231,1228,1229,1230,1231,1228,1229,1230,1231,1228,1229,1230,1231,1228,1229,1230,1231,1228,1229,1230,1231,1228,1229,1230,1231,1228,1229,1230,1231,1228,1229,1230,1231,1228,1229,1230,1231,1228,1229,1230,1231,1228,1229,1230,1231,1228,1229,1230,1231,1228,1229,1230,1231,1228,1295,1292,1293,1294,1295,1292,1293,1294,1295,1292,1293,1294,1295,1292,1293,1294,1295,1292,1293,1294,1295,1292,1293,1294,1295,1292,1293,1294,1295,1292,1293,1294,1295,1292,1293,1294,1295,1292,1293,1294,1295,1292,1293,1294,1295,1292,1293,1294,1295,1292,1293,1294,1295,1292,1293,1294,1295,1292,1293,1294,1295,1292,1293,1294,1295,1292,1293,1294,1295,1292,1293,1294,1295,1292,1293,1294,1295,1292,1293,1294,1295,1292,1293,1294,1295,1292,1359,1356,1357,1358,1359,1356,1357,1358,1359,1356,1357,1358,1359,1356,1357,1358,1359,1356,1357,1358,1359,1356,1357,1358,1359,1356,1357,1358,1359,1356,1357,1358,1359,1356,1357,1358,1359,1356,1357,1358,1359,1356,1357,1358,1359,1356,1357,1358,1359,1356,1357,1358,1359,1356,1357,1358,1359,1356,1357,1358,1359,1356,1357,1358,1359,1356,1357,1358,1359,1356,1357,1358,1359,1356,1357,1358,1359,1356,1357,1358,1359,1356,1357,1358,1359,1356,1167,1164,1165,1166,1167,1164,1165,1166,1167,1164,1165,1166,1167,1164,1165,1166,1167,1164,1165,1166,1167,1164,1165,1166,1167,1164,1165,1166,1167,1164,1165,1166,1167,1164,1165,1166,1167,1164,1165,1166,1167,1164,1165,1166,1167,1164,1165,1166,1167,1164,1165,1166,1167,1164,1165,1166,1167,1164,1165,1166,1167,1164,1165,1166,1167,1164,1165,1166,1167,1164,1165,1166,1167,1164,1165,1166,1167,1164,1165,1166,1167,1164,1165,1166,1167,1164,1231,1228,1229,1230,1231,1228,1229,1230,1231,1228,1229,1230,1231,1228,1229,1230,1231,1228,1229,1230,1231,1228,1229,1230,1231,1228,1229,1230,1231,1228,1229,1230,1231,1228,1229,1230,1231,1228,1229,1230,1231,1228,1229,1230,1231,1228,1229,1230,1231,1228,1229,1230,1231,1228,1229,1230,1231,1228,1229,1230,1231,1228,1229,1230,1231,1228,1229,1230,1231,1228,1229,1230,1231,1228,1229,1230,1231,1228,1229,1230,1231,1228,1229,1230,1231,1228,1295,1292,1293,1294,1295,1292,1293,1294,1295,1292,1293,1294,1295,1292,1293,1294,1295,1292,1293,1294,1295,1292,1293,1294,1295,1292,1293,1294,1295,1292,1293,1294,1295,1292,1293,1294,1295,1292,1293,1294,1295,1292,1293,1294,1295,1292,1293,1294,1295,1292,1293,1294,1295,1292,1293,1294,1295,1292,1293,1294,1295,1292,1293,1294,1295,1292,1293,1294,1295,1292,1293,1294,1295,1292,1293,1294,1295,1292,1293,1294,1295,1292,1293,1294,1295,1292,1359,1356,1357,1358,1359,1356,1357,1358,1359,1356,1357,1358,1359,1356,1357,1358,1359,1356,1357,1358,1359,1356,1357,1358,1359,1356,1357,1358,1359,1356,1357,1358,1359,1356,1357,1358,1359,1356,1357,1358,1359,1356,1357,1358,1359,1356,1357,1358,1359,1356,1357,1358,1359,1356,1357,1358,1359,1356,1357,1358,1359,1356,1357,1358,1359,1356,1357,1358,1359,1356,1357,1358,1359,1356,1357,1358,1359,1356,1357,1358,1359,1356,1357,1358,1359,1356,1167,1164,1165,1166,1167,1164,1165,1166,1167,1164,1165,1166,1167,1164,1165,1166,1167,1164,1165,1166,1167,1164,1165,1166,1167,1164,1165,1166,1167,1164,1165,1166,1167,1164,1165,1166,1167,1164,1165,1166,1167,1164,1165,1166,1167,1164,1165,1166,1167,1164,1165,1166,1167,1164,1165,1166,1167,1164,1165,1166,1167,1164,1165,1166,1167,1164,1165,1166,1167,1164,1165,1166,1167,1164,1165,1166,1167,1164,1165,1166,1167,1164,1165,1166,1167,1164,1231,1228,1229,1230,1231,1228,1229,1230,1231,1228,1229,1230,1231,1228,1229,1230,1231,1228,1229,1230,1231,1228,1229,1230,1231,1228,1229,1230,1231,1228,1229,1230,1231,1228,1229,1230,1231,1228,1229,1230,1231,1228,1229,1230,1231,1228,1229,1230,1231,1228,1229,1230,1231,1228,1229,1230,1231,1228,1229,1230,1231,1228,1229,1230,1231,1228,1229,1230,1231,1228,1229,1230,1231,1228,1229,1230,1231,1228,1229,1230,1231,1228,1229,1230,1231,1228,1295,1292,1293,1294,1295,1292,1293,1294,1295,1292,1293,1294,1295,1292,1293,1294,1295,1292,1293,1294,1295,1292,1293,1294,1295,1292,1293,1294,1295,1292,1293,1294,1295,1292,1293,1294,1295,1292,1293,1294,1295,1292,1293,1294,1295,1292,1293,1294,1295,1292,1293,1294,1295,1292,1293,1294,1295,1292,1293,1294,1295,1292,1293,1294,1295,1292,1293,1294,1295,1292,1293,1294,1295,1292,1293,1294,1295,1292,1293,1294,1295,1292,1293,1294,1295,1292,1359,1356,1357,1358,1359,1356,1357,1358,1359,1356,1357,1358,1359,1356,1357,1358,1359,1356,1357,1358,1359,1356,1357,1358,1359,1356,1357,1358,1359,1356,1357,1358,1359,1356,1357,1358,1359,1356,1357,1358,1359,1356,1357,1358,1359,1356,1357,1358,1359,1356,1357,1358,1359,1356,1357,1358,1359,1356,1357,1358,1359,1356,1357,1358,1359,1356,1357,1358,1359,1356,1357,1358,1359,1356,1357,1358,1359,1356,1357,1358,1359,1356,1357,1358,1359,1356,1167,1164,1165,1166,1167,1164,1165,1166,1167,1164,1165,1166,1167,1164,1165,1166,1167,1164,1165,1166,1167,1164,1165,1166,1167,1164,1165,1166,1167,1164,1165,1166,1167,1164,1165,1166,1167,1164,1165,1166,1167,1164,1165,1166,1167,1164,1165,1166,1167,1164,1165,1166,1167,1164,1165,1166,1167,1164,1165,1166,1167,1164,1165,1166,1167,1164,1165,1166,1167,1164,1165,1166,1167,1164,1165,1166,1167,1164,1165,1166,1167,1164,1165,1166,1167,1164,1231,1228,1229,1230,1231,1228,1229,1230,1231,1228,1229,1230,1231,1228,1229,1230,1231,1228,1229,1230,1231,1228,1229,1230,1231,1228,1229,1230,1231,1228,1229,1230,1231,1228,1229,1230,1231,1228,1229,1230,1231,1228,1229,1230,1231,1228,1229,1230,1231,1228,1229,1230,1231,1228,1229,1230,1231,1228,1229,1230,1231,1228,1229,1230,1231,1228,1229,1230,1231,1228,1229,1230,1231,1228,1229,1230,1231,1228,1229,1230,1231,1228,1229,1230,1231,1228,1295,1292,1293,1294,1295,1292,1293,1294,1295,1292,1293,1294,1295,1292,1293,1294,1295,1292,1293,1294,1295,1292,1293,1294,1295,1292,1293,1294,1295,1292,1293,1294,1295,1292,1293,1294,1295,1292,1293,1294,1295,1292,1293,1294,1295,1292,1293,1294,1295,1292,1293,1294,1295,1292,1293,1294,1295,1292,1293,1294,1295,1292,1293,1294,1295,1292,1293,1294,1295,1292,1293,1294,1295,1292,1293,1294,1295,1292,1293,1294,1295,1292,1293,1294,1295,1292,1359,1356,1357,1358,1359,1356,1357,1358,1359,1356,1357,1358,1359,1356,1357,1358,1359,1356,1357,1358,1359,1356,1357,1358,1359,1356,1357,1358,1359,1356,1357,1358,1359,1356,1357,1358,1359,1356,1357,1358,1359,1356,1357,1358,1359,1356,1357,1358,1359,1356,1357,1358,1359,1356,1357,1358,1359,1356,1357,1358,1359,1356,1357,1358,1359,1356,1357,1358,1359,1356,1357,1358,1359,1356,1357,1358,1359,1356,1357,1358,1359,1356,1357,1358,1359,1356,1167,1164,1165,1166,1167,1164,1165,1166,1167,1164,1165,1166,1167,1164,1165,1166,1167,1164,1165,1166,1167,1164,1165,1166,1167,1164,1165,1166,1167,1164,1165,1166,1167,1164,1165,1166,1167,1164,1165,1166,1167,1164,1165,1166,1167,1164,1165,1166,1167,1164,1165,1166,1167,1164,1165,1166,1167,1164,1165,1166,1167,1164,1165,1166,1167,1164,1165,1166,1167,1164,1165,1166,1167,1164,1165,1166,1167,1164,1165,1166,1167,1164,1165,1166,1167,1164,1231,1228,1229,1230,1231,1228,1229,1230,1231,1228,1229,1230,1231,1228,1229,1230,1231,1228,1229,1230,1231,1228,1229,1230,1231,1228,1229,1230,1231,1228,1229,1230,1231,1228,1229,1230,1231,1228,1229,1230,1231,1228,1229,1230,1231,1228,1229,1230,1231,1228,1229,1230,1231,1228,1229,1230,1231,1228,1229,1230,1231,1228,1229,1230,1231,1228,1229,1230,1231,1228,1229,1230,1231,1228,1229,1230,1231,1228,1229,1230,1231,1228,1229,1230,1231,1228,1295,1292,1293,1294,1295,1292,1293,1294,1295,1292,1293,1294,1295,1292,1293,1294,1295,1292,1293,1294,1295,1292,1293,1294,1295,1292,1293,1294,1295,1292,1293,1294,1295,1292,1293,1294,1295,1292,1293,1294,1295,1292,1293,1294,1295,1292,1293,1294,1295,1292,1293,1294,1295,1292,1293,1294,1295,1292,1293,1294,1295,1292,1293,1294,1295,1292,1293,1294,1295,1292,1293,1294,1295,1292,1293,1294,1295,1292,1293,1294,1295,1292,1293,1294,1295,1292,1359,1356,1357,1358,1359,1356,1357,1358,1359,1356,1357,1358,1359,1356,1357,1358,1359,1356,1357,1358,1359,1356,1357,1358,1359,1356,1357,1358,1359,1356,1357,1358,1359,1356,1357,1358,1359,1356,1357,1358,1359,1356,1357,1358,1359,1356,1357,1358,1359,1356,1357,1358,1359,1356,1357,1358,1359,1356,1357,1358,1359,1356,1357,1358,1359,1356,1357,1358,1359,1356,1357,1358,1359,1356,1357,1358,1359,1356,1357,1358,1359,1356,1357,1358,1359,1356,1167,1164,1165,1166,1167,1164,1165,1166,1167,1164,1165,1166,1167,1164,1165,1166,1167,1164,1165,1166,1167,1164,1165,1166,1167,1164,1165,1166,1167,1164,1165,1166,1167,1164,1165,1166,1167,1164,1165,1166,1167,1164,1165,1166,1167,1164,1165,1166,1167,1164,1165,1166,1167,1164,1165,1166,1167,1164,1165,1166,1167,1164,1165,1166,1167,1164,1165,1166,1167,1164,1165,1166,1167,1164,1165,1166,1167,1164,1165,1166,1167,1164,1165,1166,1167,1164,1231,1228,1229,1230,1231,1228,1229,1230,1231,1228,1229,1230,1231,1228,1229,1230,1231,1228,1229,1230,1231,1228,1229,1230,1231,1228,1229,1230,1231,1228,1229,1230,1231,1228,1229,1230,1231,1228,1229,1230,1231,1228,1229,1230,1231,1228,1229,1230,1231,1228,1229,1230,1231,1228,1229,1230,1231,1228,1229,1230,1231,1228,1229,1230,1231,1228,1229,1230,1231,1228,1229,1230,1231,1228,1229,1230,1231,1228,1229,1230,1231,1228,1229,1230,1231,1228]},{"id":2,"name":"clouds_02","type":"tilelayer","x":0,"y":0,"width":86,"height":48,"opacity":1,"visible":true,"data":[0,0,0,0,0,0,0,0,0,0,0,0,0,0,1351,1346,1412,0,0,0,0,0,0,0,0,0,0,0,0,0,0,0,0,0,0,0,0,0,0,1,1,1,1,1,1,1,1,1351,1346,1346,1346,1346,1346,1346,1346,1346,1346,1346,1346,1346,1346,1412,1,1,1,1,0,0,0,0,0,1351,1346,1346,1346,1412,0,0,0,0,0,0,0,0,0,0,0,0,0,0,0,0,0,0,0,0,0,0,1353,1349,1411,1414,1416,0,0,0,0,0,0,0,0,0,0,0,0,0,0,0,0,0,0,0,0,0,1,1,1,1353,1349,1349,1349,1413,1,1351,1346,1346,1346,1410,1414,1350,1410,1414,1414,1414,1350,1346,1346,1348,1349,1413,1,1,0,0,0,0,0,1415,1350,1346,1410,1416,0,0,0,0,0,0,0,0,0,0,0,0,0,0,0,0,0,0,0,0,1353,1349,1347,1346,1412,1,1,1,1,0,0,0,0,0,0,0,0,0,0,0,0,0,0,0,0,0,0,0,1,1,1,1351,1346,1346,1346,1348,1349,1347,1346,1346,1346,1348,1349,1411,1416,0,0,0,1415,1350,1346,1346,1346,1412,1,1,0,0,0,0,0,0,1415,1414,1416,0,0,0,0,0,0,0,0,0,0,0,0,0,0,0,0,0,0,0,0,0,1351,1346,1410,1414,1416,1,1,1,1,0,0,0,0,0,0,0,0,0,0,0,0,0,0,0,0,0,0,0,1,1,1,1351,1346,1346,1346,1346,1346,1346,1346,1346,1410,1414,1414,1416,0,0,0,0,0,1351,1346,1346,1410,1416,1,0,0,0,0,0,0,1353,1349,1413,1353,1349,1413,0,0,0,0,0,0,0,0,0,0,0,0,0,0,0,0,0,0,0,1415,1414,1416,1,1,1,1,1,1,0,0,0,0,0,0,0,0,0,0,0,0,0,0,0,0,0,0,0,1,1,1,1415,1414,1414,1414,1414,1414,1414,1414,1414,1416,0,0,0,0,0,0,0,0,1415,1350,1346,1348,1349,1413,0,0,0,0,0,0,1351,1346,1412,1351,1346,1412,0,0,0,0,0,0,0,0,0,0,0,0,0,0,0,0,0,0,0,0,0,1,1,1,1,1,1,0,0,0,0,0,0,0,0,0,0,0,0,0,0,0,1353,1349,1349,1413,0,0,1,1,1,0,0,0,0,0,0,0,0,0,0,0,0,0,0,0,0,0,0,1351,1346,1346,1346,1348,1349,1413,0,0,0,0,1415,1414,1416,1351,1346,1412,0,0,0,0,0,0,0,0,0,0,0,0,0,0,0,0,0,0,0,0,0,0,0,0,0,0,0,0,0,0,0,0,0,0,0,0,0,0,0,0,0,0,1351,1346,1346,1412,0,0,0,0,0,0,0,0,0,0,0,0,0,0,0,0,0,0,0,0,0,0,0,1415,1414,1350,1346,1346,1346,1348,1413,0,0,0,0,0,0,1415,1414,1416,0,0,0,0,0,0,0,0,0,0,0,0,0,0,0,0,0,0,0,0,0,0,0,0,0,0,0,0,0,0,0,0,0,0,0,0,1353,1349,1349,1349,1349,1413,1415,1350,1346,1412,0,0,0,0,0,0,0,0,0,0,0,0,0,0,0,0,0,0,0,0,0,0,0,0,1223,1415,1350,1346,1346,1346,1412,0,0,0,0,0,0,0,0,0,0,0,0,0,0,0,0,0,0,0,0,0,0,0,0,0,0,0,0,0,0,0,0,0,0,0,0,0,0,0,0,0,0,0,0,0,1351,1346,1346,1346,1346,1412,0,1415,1414,1416,0,0,0,0,0,0,0,0,0,0,0,0,0,0,0,0,0,0,0,0,0,0,0,0,0,0,1351,1346,1410,1414,1416,0,0,0,0,0,0,0,0,0,0,0,0,0,0,0,1353,1349,1349,0,0,0,0,0,0,0,0,0,0,0,0,0,0,0,0,0,0,0,0,0,0,0,0,0,0,0,1415,1350,1346,1410,1414,1416,0,0,0,0,0,0,0,0,0,0,0,0,0,0,0,0,0,0,0,0,0,0,0,0,0,0,0,0,0,0,1415,1414,1416,0,0,0,0,0,0,0,0,0,0,0,0,0,0,0,0,1353,1347,1346,1346,0,0,0,0,0,0,0,0,0,0,0,0,0,0,0,0,0,0,0,0,0,0,0,0,0,0,0,0,1415,1414,1416,0,0,0,0,0,0,0,0,0,0,0,0,0,0,0,0,0,0,0,0,0,0,0,0,0,0,0,0,0,0,0,0,1161,1353,1349,1349,1413,0,0,0,0,0,0,0,0,0,0,0,0,0,0,1351,1346,1346,1346,1349,1349,1413,0,0,0,0,0,0,0,0,0,0,0,0,0,0,0,0,0,0,0,0,0,0,0,0,0,0,0,0,0,0,0,0,0,0,0,0,0,0,0,0,0,0,0,0,0,0,0,0,0,0,0,0,0,0,0,0,0,0,0,0,1159,1351,1346,1346,1412,0,0,0,0,0,0,0,0,0,0,0,0,0,0,1415,1350,1346,1346,1346,1346,1348,1413,0,0,0,0,0,0,0,0,0,0,0,0,0,0,0,0,0,0,0,0,0,0,0,0,0,0,0,0,0,0,0,0,0,0,0,0,0,0,0,0,0,0,0,0,0,0,0,0,0,0,0,0,0,0,0,0,0,0,0,1223,1415,1414,1414,1416,0,0,0,0,0,0,0,0,0,0,0,0,0,0,0,1415,1414,1414,1346,1346,1346,1412,0,0,0,0,0,0,0,0,0,0,0,0,0,0,0,0,0,0,0,0,0,0,0,0,0,0,0,0,0,0,0,0,0,0,0,0,0,0,0,0,0,0,0,0,0,0,0,0,0,0,0,0,0,0,0,0,0,0,0,0,0,0,0,0,0,0,0,0,0,0,0,0,0,0,0,0,0,0,0,0,0,0,1346,1346,1346,1412,0,0,0,0,0,0,0,0,0,0,0,0,0,0,0,0,0,0,0,0,0,0,0,0,0,0,0,0,0,0,0,0,0,0,0,0,0,0,0,0,0,0,0,0,0,0,0,0,0,0,0,0,0,0,0,0,0,0,0,0,0,0,0,0,0,0,0,0,0,0,0,0,0,0,0,0,0,0,0,0,0,0,1346,1410,1414,1416,0,0,0,0,0,0,0,0,0,0,0,0,0,0,0,0,0,0,0,0,0,0,0,0,0,0,0,0,0,0,0,0,0,0,0,0,0,0,0,0,0,0,0,0,0,0,0,0,0,0,0,0,0,0,0,0,0,0,0,0,0,0,0,0,0,0,0,0,0,0,0,0,0,0,0,0,0,0,0,0,0,0,1414,1416,0,0,0,0,0,0,0,0,0,0,0,0,0,0,0,0,0,0,0,0,0,0,0,0,0,0,0,0,0,0,0,0,0,0,0,0,0,0,0,0,0,0,0,0,0,0,0,0,0,0,0,0,0,0,0,0,0,0,0,0,0,0,0,0,0,0,0,0,0,0,0,0,0,0,1,1,1,1,1,1,1,1,1,1,0,0,0,0,0,0,0,0,0,0,0,0,0,0,0,0,0,0,0,0,0,0,0,0,0,0,0,0,0,0,0,0,0,0,0,0,0,0,0,0,0,0,0,0,0,0,0,0,0,0,0,0,0,0,0,0,0,0,0,0,0,0,0,0,0,0,0,0,0,0,0,0,0,0,0,0,1,1,1,1,1,1,1,1,1,1,0,0,0,0,0,0,0,0,0,0,0,0,0,0,0,0,0,0,0,0,0,0,0,0,0,0,0,0,0,0,0,0,0,0,0,0,0,0,0,0,0,0,0,0,0,0,0,0,0,0,0,0,0,0,0,0,0,0,0,0,0,0,0,0,0,0,0,0,0,0,0,0,0,0,0,0,1,1,1,1,1,1,1,1,1,1,0,0,0,0,0,0,0,0,0,0,0,0,0,0,0,0,0,0,0,0,0,0,0,0,0,0,0,0,0,0,0,0,0,0,0,0,0,0,0,0,0,0,0,0,0,0,0,0,0,0,0,0,0,0,0,0,0,0,0,0,0,0,0,0,0,0,0,0,0,0,0,0,1,1,1,1,1,1,1,1,1,1,1,1,1,1,0,0,0,0,0,0,0,0,0,0,0,0,0,0,0,0,0,0,0,0,0,0,0,0,0,0,0,0,0,0,0,0,0,0,0,0,0,0,0,0,0,0,0,0,0,0,0,0,0,0,0,0,0,0,0,0,0,0,0,0,0,0,0,0,0,0,0,0,0,0,0,0,1,1,1,1,1,1,1,1,1,1,1,1,1,1,0,0,0,0,0,0,0,0,0,0,0,0,0,0,0,0,0,0,0,0,0,0,0,0,0,0,0,0,0,0,0,0,0,0,0,0,0,0,0,0,0,0,0,0,0,0,0,0,0,0,0,0,0,0,0,0,0,0,0,0,0,0,0,0,0,0,0,0,0,0,0,0,1,1,1545,1605,1,1,1,1,1,1,1,1,1,1,0,0,0,0,0,0,0,0,0,0,0,0,0,0,0,0,0,0,0,0,0,0,0,0,0,0,0,0,0,0,0,0,0,0,0,0,0,0,0,0,0,0,0,0,0,0,0,0,0,0,0,0,0,0,0,0,0,0,0,0,0,0,0,0,0,0,0,0,0,0,0,1,1,1,1543,1540,1605,1,1,1,1,1,1,1,1,1,0,0,0,0,0,0,0,0,0,0,0,0,0,0,0,0,0,0,0,0,0,0,0,0,0,0,0,0,0,0,0,0,0,0,0,0,0,0,0,0,0,0,0,0,0,0,0,0,0,0,0,0,0,0,0,0,0,0,0,0,0,0,0,0,0,0,0,0,0,0,0,1,1,1,1607,1542,1604,1,1,1,1,1,1,1,1,1,0,0,0,0,0,0,0,0,0,0,1545,1541,1541,1605,0,0,0,0,0,0,0,0,0,0,0,0,0,0,0,0,0,0,0,0,0,0,0,0,0,0,0,0,0,0,0,0,0,0,0,0,0,0,0,0,0,0,0,0,0,0,0,0,0,0,0,0,0,0,0,0,0,1,1,1,1,1607,1608,1,1,1,1,1,1,1,1,1,0,1545,1541,1605,0,0,0,0,0,0,1543,1538,1538,1604,0,0,0,0,0,0,0,0,0,0,0,0,0,0,0,0,0,0,0,0,0,0,0,0,0,0,0,0,0,0,0,0,0,0,0,0,0,0,0,0,0,0,0,0,0,0,0,0,0,0,0,0,0,0,0,0,0,1,1,1,1,1,1,1,1,1,1,1,1,1,1,1,0,1543,1538,1604,0,0,0,0,0,0,1607,1606,1606,1608,0,0,0,0,0,0,0,0,0,0,0,0,0,0,0,0,0,0,0,0,0,0,0,0,0,0,0,0,0,0,0,0,0,0,0,0,0,0,0,0,0,0,0,0,0,0,0,0,0,0,0,0,0,0,0,0,0,0,0,0,0,1,1,1,1,1,1,1,1,1,1,1,0,1607,1606,1608,0,0,0,0,0,0,0,0,0,0,0,0,0,0,0,0,0,0,0,0,0,0,0,0,0,0,0,0,0,0,0,0,0,0,0,0,0,0,0,0,0,0,0,0,0,0,0,0,0,0,0,0,0,0,0,0,0,0,0,0,0,0,0,0,0,0,0,0,0,0,0,1,1,1,1,1545,1541,1605,1,1,1,1,0,0,0,0,0,0,0,0,0,0,0,0,0,0,0,0,0,0,0,0,1353,1349,1413,0,0,0,0,0,0,0,0,0,0,0,0,0,0,0,0,0,0,0,0,0,0,0,0,0,0,0,0,0,0,0,0,0,0,0,0,0,0,0,0,0,0,0,0,0,0,0,0,0,0,0,0,0,0,0,0,1543,1538,1604,0,0,0,0,0,0,1545,1541,1605,0,0,0,0,0,0,0,0,0,0,0,0,0,0,0,1351,1346,1412,0,0,0,0,0,0,0,0,0,0,0,0,0,0,0,0,0,0,0,0,0,0,0,0,0,0,0,0,0,0,0,0,0,0,0,0,0,0,0,0,0,0,0,0,0,0,0,0,0,0,0,0,0,0,0,0,1543,1538,1604,0,0,0,0,0,0,1543,1538,1540,1541,1605,0,0,0,0,0,0,0,0,0,0,0,0,0,1415,1414,1416,0,0,0,0,0,0,0,0,0,0,0,0,0,0,0,0,0,0,0,0,0,0,0,0,0,0,0,0,0,0,0,0,0,0,0,0,0,0,0,0,0,0,0,0,0,0,0,0,0,0,0,0,0,0,0,0,1543,1538,1540,1605,0,0,0,0,0,1543,1538,1538,1538,1604,0,0,0,0,0,0,0,0,0,0,0,0,0,0,0,0,0,0,0,0,0,0,0,0,0,0,0,0,0,0,0,0,0,0,0,0,0,0,0,0,0,0,0,0,0,0,0,0,0,0,0,0,0,0,0,0,0,0,0,0,0,0,0,0,0,0,0,0,0,0,1545,1541,1539,1538,1538,1604,0,0,0,0,0,1607,1606,1606,1606,1608,0,0,0,0,0,0,0,0,0,0,0,0,0,0,0,0,0,0,0,0,0,0,0,0,0,0,0,0,0,0,0,0,0,0,0,0,0,0,0,0,0,0,0,0,0,0,0,0,0,0,0,0,0,0,0,0,0,0,0,0,0,0,0,0,0,0,0,0,0,0,1543,1538,1538,1538,1538,1604,1,1,0,0,0,0,0,0,0,0,0,0,0,0,0,0,0,0,0,0,0,0,0,0,0,0,0,0,0,0,0,0,0,0,0,0,0,0,0,0,0,0,0,0,0,0,0,0,0,0,0,0,0,0,0,0,0,0,0,0,0,0,0,0,0,0,0,0,0,0,0,0,0,0,0,0,0,0,0,0,1543,1538,1538,1538,1538,1604,1,1,0,1,1,0,0,0,0,0,0,0,0,0,0,0,0,0,0,0,0,0,0,0,0,0,0,0,0,0,0,0,0,0,0,0,0,0,0,0,0,0,0,0,0,0,0,0,0,0,0,0,0,0,0,0,0,0,0,0,0,0,0,0,0,0,0,0,0,0,0,0,0,0,0,0,0,0,0,0,1607,1606,1542,1538,1602,1608,1,1,0,1,1,1,0,0,0,0,0,0,0,0,0,0,0,0,0,0,0,0,0,0,0,0,0,0,0,0,0,0,0,0,0,0,0,0,0,0,0,0,0,0,0,0,0,0,0,0,0,0,0,0,0,0,0,0,0,0,0,0,0,0,0,0,0,0,0,0,0,0,0,0,0,0,0,0,0,0,0,0,1543,1538,1,1,1,1,1,1,1,1,0,0,0,0,0,0,0,0,0,0,0,0,0,0,0,0,0,0,0,0,0,0,0,0,0,0,0,0,0,0,0,0,0,0,0,0,0,0,0,0,0,0,0,0,0,0,0,0,0,0,0,0,0,0,0,0,0,0,0,0,0,0,0,0,0,0,0,0,0,0,0,0,0,0,0,0,1607,1606,1,1,1,1,1353,1349,1349,1349,1413,0,0,0,0,0,0,0,0,0,0,0,0,0,0,0,0,0,0,0,0,0,0,0,0,0,0,0,0,0,0,0,0,0,0,0,0,0,0,0,0,0,0,0,0,0,0,0,0,0,0,0,0,0,0,0,0,0,0,0,0,0,0,0,0,0,0,0,0,0,0,0,0,0,0,0,0,0,1,1,1,1,1351,1414,1350,1346,1412,0,0,0,0,0,0,0,0,0,0,0,0,0,0,0,0,0,0,0,0,0,0,0,0,0,0,0,0,0,0,0,0,0,0,0,0,0,0,0,0,0,0,0,0,0,0,0,0,0,0,0,0,0,0,0,0,0,0,0,0,0,0,0,0,0,0,0,0,0,0,0,0,0,0,0,0,0,1,1,1,1353,1347,0,1415,1414,1416,0,0,0,0,0,0,0,0,0,0,0,0,0,0,0,0,0,0,0,0,0,0,0,0,0,0,0,0,0,0,0,0,0,0,0,0,0,0,0,0,0,0,0,0,0,0,0,0,0,0,0,0,0,0,0,0,0,0,0,0,0,0,0,0,0,0,0,0,0,0,0,0,0,0,0,0,0,0,1353,1349,1347,1346,0,0,0,0,0,0,0,0,0,0,0,0,0,0,0,0,0,0,0,0,0,0,0,0,0,0,0,0,0,0,0,0,0,0,0,0,0,0,0,0,0,0,0,0,0,0,0,0,0,0,0,0,0,0,0,0,0,0,0,0,0,0,0,0,0,0,0,0,0,0,0,0,0,0,0,0,0,0,0,0,0,0,1351,1346,1346,1346,1349,1413,1,1,1,0,0,0,0,0,0,0,0,0,0,0,0,0,0,0,0,0,0,0,0,0,0,0,0,0,0,0,0,0,0,0,0,0,0,0,0,0,0,0,0,0,0,0,0,0,0,0,0,0,0,0,0,0,0,0,0,0,0,0,0,0,0,0,0,0,0,0,0,0,0,0,0,0,0,0,0,0,1351,1346,1410,1414,1346,1348,1413,1,1,0,0,0,0,0,0,0,0,0,0,0,0,0,0,0,0,0,0,0,0,0,0,0,0,0,0,0,0,0,0,0,0,0,0,0,0,0,0,0,0,0,0,0,0,0,0,0,0,0,0,0,0,0,0,0,0,0,0,0,0,0,0,0,0,0,0,0,0,0,0,0,0,0,0,0,0,0,1415,1414,1416,0,1346,1346,1412,1,1,0,0,0,0,0,0,0,0,0,0,0,0,0,0,0,0,0,0,0,0,1545,1541,1541,1605,0,0,0,0,0,0,0,0,0,0,0,0,0,0,0,0,0,0,0,0,0,0,0,0,0,0,0,0,0,0,0,0,0,0,0,0,0,0,0,0,0,0,0,0,0,0,0,0,0,0,0,0,0,0,0,0,0,1410,1414,1416,1,0,0,0,0,0,0,0,0,0,0,0,0,0,0,0,0,1545,1541,1541,1541,1541,1539,1538,1538,1604,0,0,0,0,0,0,0,0,0,0,0,0,0,0,0,0,0,0,265,265,265,265,265,265,265,0,0,0,0,0,0,0,0,0,0,0,0,0,0,0,0,0,0,0,0,0,0,1545,1541,1541,1605,0,0,0,0,0,0,1348,1349,1413,1,0,0,0,0,0,0,0,0,0,0,0,0,0,1,1,1,1543,1538,1538,1538,1538,1538,1538,1538,1604,0,0,0,0,0,0,0,0,0,0,0,0,0,0,0,0,0,265,265,265,265,265,265,265,265,1413,0,0,0,0,0,0,0,0,0,0,0,0,0,0,0,0,1545,1541,1541,1605,0,1543,1538,1538,1604,0,0,0,0,0,0,1414,1414,1416,0,0,0,0,0,0,0,0,0,0,0,0,0,1,1,1,1,1607,1606,1606,1606,1606,1606,1606,1606,1608,1,1,0,0,0,0,0,0,0,0,0,0,0,0,0,1353,1349,265,265,265,265,265,265,265,265,1412,0,0,0,0,0,0,0,0,0,0,0,0,0,0,0,0,1543,1538,1538,1604,0,1607,1606,1606,1608,0,0,0,0,0,0,0,0,0,0,0,0,0,0,0,0,0,0,0,0,0,0,1,1,1,1,1,1,1,1,1,1,1,1,1,1,1,0,0,0,0,0,0,0,0,0,0,0,0,0,1351,1346,265,265,201,261,1346,1346,1346,1346,1412,0,0,0,0,0,0,0,0,0,0,0,0,0,0,0,0,1543,1538,1538,1604,0,0,0,0,0,0,0,0,0,0,0]},{"id":3,"name":"land","type":"tilelayer","x":0,"y":0,"width":86,"height":48,"opacity":1,"visible":true,"data":[0,0,0,0,0,0,0,0,0,0,0,0,0,0,0,0,0,0,0,0,0,0,0,0,0,0,0,0,0,0,0,0,0,0,0,0,0,0,0,0,0,0,0,0,0,0,0,0,0,265,265,0,0,0,0,0,0,0,0,0,0,0,0,0,1,1,1,1,1,1,1,1,1,1,0,0,0,0,0,0,0,0,0,0,0,0,0,0,0,0,0,0,0,0,0,0,0,0,0,0,0,0,0,0,0,0,3221225876,3221225813,1610613140,0,0,0,0,0,0,0,0,0,0,0,0,0,0,0,0,0,0,0,0,0,0,0,0,0,0,265,265,265,265,201,197,197,197,197,261,265,265,0,0,0,1,1,1,1,1,1,1,1,1,1,0,0,0,0,0,0,0,0,0,0,0,0,0,1,201,197,197,197,261,1,1,1,0,0,0,0,0,0,0,0,0,3221225876,3221225812,3221225544,1610613076,1610613140,0,536871316,3221225813,3221225813,2147484052,0,0,0,0,0,0,0,0,0,0,0,0,0,0,265,265,265,265,265,265,265,265,201,197,195,194,1610612866,194,194,196,261,265,265,265,0,1,1,1,1,1,1,1,1,1,1,0,0,0,536871316,3221225813,3221225813,3221225813,1610613140,0,0,0,0,0,1,199,194,194,2684354690,260,1,1,1,0,0,0,0,0,0,0,0,0,2684354964,2684354900,70,340,404,536871316,3221225812,70,70,1610613076,3221225813,2147484052,1,0,0,0,0,0,0,0,0,0,0,0,265,265,265,265,201,197,197,330,195,194,135,194,194,194,132,194,196,261,265,265,0,1,1,1,1,1,1,1,1,1,1,0,0,0,2684354901,2684354632,70,70,1610613076,1610613140,0,0,0,0,3221225876,263,262,262,262,264,2147484052,1,1,0,0,0,0,0,0,0,0,0,0,2684354964,341,404,0,2684354901,70,70,70,70,70,1610613076,2147484052,0,0,0,0,0,0,0,0,0,0,0,201,197,197,197,195,130,194,199,194,1073741955,194,194,194,194,1610612870,194,194,196,261,265,0,1,1,1,1,1,1,1,1,1,1,0,0,0,2684354901,2684354633,70,70,70,1610613076,1610613140,0,0,0,2684354709,267,2684354828,204,2684354828,1073742091,3758096533,1,1,0,0,0,0,0,0,0,0,0,0,0,0,0,0,2684354964,2684354900,72,73,70,70,340,3758096788,0,0,0,0,0,0,0,201,197,197,197,199,194,194,194,194,194,194,199,194,194,194,194,194,194,194,258,198,194,260,265,265,1,1,1,3221225876,3221225813,3221225813,3221225813,1610613140,1,1,0,0,0,1073742228,341,2684354900,70,70,70,1610613077,0,0,0,1073742228,1073741972,204,2684354828,204,148,404,1,1,0,0,0,0,0,0,0,0,0,0,0,0,0,0,0,1073742228,341,341,341,341,3758096788,0,0,0,0,0,0,0,201,195,194,194,194,263,198,130,194,194,194,194,263,262,262,262,262,198,3221225606,194,196,195,194,260,261,265,1,1,1,2684354901,2684354632,70,70,1610613076,3221225813,3221225813,3221225813,1610613140,0,1,0,2684354964,2684354900,70,70,1610613077,0,0,0,1,1073742228,149,149,149,404,1,201,197,197,197,197,197,197,197,197,197,197,261,0,0,0,0,0,0,0,0,0,0,0,0,0,0,0,201,197,197,478,474,474,474,538,267,263,262,262,262,198,194,1073742221,204,2684354828,204,2684354828,263,198,3221225607,194,194,194,260,194,261,0,0,0,2684354964,2684354900,70,70,70,70,70,70,1610613076,1610613140,1,0,0,2684354964,2684354900,2684354632,1610613077,0,0,0,0,0,0,0,201,197,197,195,194,3758096514,194,194,194,194,194,194,194,130,196,197,197,261,0,0,0,0,0,0,0,0,0,0,201,197,195,478,474,472,471,1610613280,471,473,395,267,204,2684354828,204,263,2684354695,194,194,194,194,194,1073742221,263,198,194,194,258,264,194,260,0,0,0,0,2684354964,2684354900,70,70,70,70,70,70,1610613076,1610613140,1,0,0,1073742228,341,404,0,0,0,0,0,0,0,199,131,132,194,194,194,194,194,194,194,194,194,194,194,194,194,194,260,0,0,0,0,0,0,0,0,0,201,195,194,478,472,471,471,471,471,471,471,473,395,2684354828,204,2684354828,267,199,194,194,3221225602,194,194,194,1073742221,263,262,194,264,397,194,260,0,0,0,0,0,2684354901,536870985,70,70,70,70,70,70,1610613076,1610613140,0,0,0,0,0,0,0,0,0,0,0,0,199,194,194,194,194,194,194,194,194,194,194,194,194,194,194,194,194,260,0,0,0,0,0,0,0,0,0,199,194,130,476,471,1610613280,1610613280,471,1610613279,1610613279,471,471,537,194,194,194,1073742221,263,198,194,194,2147483782,2147483783,3758096515,194,1073742221,268,271,397,194,3221225602,260,0,0,0,0,0,2684354964,2684354900,70,328,197,261,70,536870985,2684354632,1610613077,0,0,0,0,0,0,0,0,0,0,0,3221225876,263,198,194,2147483782,2147483783,194,194,194,194,194,194,194,194,194,1073741955,194,194,196,197,261,0,0,0,0,0,0,0,199,194,130,476,471,471,471,535,539,539,475,545,537,194,194,194,194,267,263,262,262,262,262,262,133,134,194,194,194,194,194,260,261,0,0,0,0,0,2684354901,328,195,194,196,197,1073742152,2684354633,1610613076,3221225813,1610613140,0,0,0,0,0,0,0,0,0,2684354709,267,263,262,198,194,1073741954,194,194,194,194,2684354690,194,194,194,194,194,194,194,194,260,0,0,0,0,0,0,0,199,194,194,540,539,539,539,541,194,194,476,543,537,194,194,135,194,1073742221,267,204,2684354828,204,2684354828,204,263,198,194,194,194,194,3221225607,260,196,261,0,0,0,0,2684354964,199,194,194,194,2684354693,260,70,70,70,1610613076,1610613140,0,0,0,0,0,0,0,0,1073742228,1073741972,267,2684354828,263,262,262,198,194,194,194,194,194,194,194,194,194,194,1073741954,1073741954,260,0,0,0,0,0,0,0,263,198,1610612868,3758096518,194,194,194,194,194,258,476,2684355420,537,198,194,194,194,194,1073742221,2684354828,204,2684354828,204,2684354828,267,263,262,194,194,194,262,264,194,260,0,0,0,0,0,263,262,198,194,133,260,70,70,70,70,1610613077,0,0,0,0,0,0,0,265,265,1073742228,1073741972,204,267,204,2684354828,199,194,194,194,194,194,194,2147483782,2147483783,194,194,258,262,264,2147484052,0,0,0,201,197,197,267,263,198,3758096519,194,194,194,135,258,264,419,479,1073742243,263,198,194,194,536871047,194,194,258,198,194,194,1073742221,267,268,272,273,274,268,1073742091,194,196,261,0,0,0,0,150,2684354828,263,262,262,264,70,70,70,340,3758096788,201,197,197,197,0,0,0,265,265,265,1073742228,149,1073741972,2684354828,204,263,262,262,262,262,262,262,198,194,258,262,264,268,1073742091,3758096533,0,0,0,199,2684354690,194,395,267,263,262,194,194,135,262,264,1073742219,419,417,1073742243,267,263,198,194,536871046,194,194,196,259,198,194,194,1073742221,1073742088,194,194,194,264,397,194,2684354690,260,0,0,0,0,2684354964,149,150,204,2684354828,1073741974,341,341,341,404,201,195,194,194,194,0,0,0,265,265,265,265,265,1073742228,149,149,267,2684354828,204,2684354828,204,2684354828,204,263,262,264,2684354828,1073742091,2684354828,148,201,197,197,197,195,194,194,67,395,267,268,272,273,274,268,1073742219,264,476,471,1610612866,1073742221,267,263,262,262,262,198,194,196,195,258,198,194,1073742221,268,271,268,397,536871047,1610612871,194,260,0,0,0,0,0,0,2684354964,149,149,3758096788,0,201,197,197,195,194,2684354691,194,2684354693,0,0,0,201,261,265,265,265,0,0,0,1073741972,204,2684354828,204,2684354828,204,2684354828,267,268,1073742091,268,148,149,404,199,194,194,194,194,194,194,194,1073741955,395,199,194,194,134,194,264,397,476,471,537,194,1073742221,267,204,2684354828,204,263,198,194,194,196,195,258,194,194,194,194,194,536871046,194,258,264,197,261,0,0,0,0,0,0,0,201,197,195,194,130,131,132,2684354691,194,194,0,0,1,263,264,1,265,265,0,0,0,1073742228,149,149,149,149,149,149,1073741972,2684354828,148,149,404,201,197,195,194,194,194,194,194,194,194,194,67,263,262,194,262,264,397,67,476,545,537,2684354691,194,1073742221,2684354828,204,2684354828,267,263,198,194,194,135,196,195,194,194,194,194,194,258,264,1073742091,2684354690,260,0,0,0,265,265,201,197,195,194,133,194,194,194,194,2684354695,194,194,0,0,0,1073741972,148,0,0,0,0,0,0,0,0,0,0,0,0,0,1073742228,149,404,0,201,195,194,194,194,194,194,194,194,194,194,194,67,395,204,271,2684354764,1073742219,67,3758096514,476,545,537,2684354694,2684354694,194,194,194,1073741954,1073742221,267,263,198,194,194,194,194,194,194,133,2147483779,258,264,1073742091,397,194,260,0,0,0,265,265,199,130,194,194,258,198,194,194,194,194,194,194,0,0,0,0,0,0,201,197,197,261,0,0,0,0,0,0,0,0,201,476,1610613596,537,67,194,194,194,194,194,194,194,194,194,194,194,194,194,194,194,194,194,194,194,476,471,537,194,194,194,194,194,194,194,1073742221,267,263,262,262,262,262,262,262,262,262,264,1073742091,397,194,194,260,3221225813,2147484052,0,265,265,263,198,3221225606,194,196,195,194,194,194,194,3221225602,194,0,0,0,0,0,0,199,194,194,196,261,0,0,0,201,197,197,197,195,476,3221226016,473,474,538,194,194,194,194,194,194,194,194,194,194,194,194,194,194,194,194,194,194,476,543,537,194,194,194,1610612868,194,194,194,194,1073742221,267,2684354828,204,2684354828,204,2684354828,204,2684354828,204,1073742091,397,194,194,194,260,70,2147483988,2147484052,0,0,267,199,194,194,194,194,194,194,3221225606,194,194,194,0,0,0,0,0,0,199,194,194,258,264,265,265,0,199,194,194,194,133,540,475,2684355103,2684355103,473,538,194,194,194,194,194,194,194,194,194,194,194,194,194,194,194,194,194,476,471,537,194,194,194,194,194,194,194,194,194,1073742221,204,2684354828,204,2684354828,204,2684354828,204,2684354828,397,194,194,194,258,264,72,70,1610613077,0,0,150,263,198,2147483778,194,135,194,194,194,194,2684354695,194,0,0,0,0,0,3221225876,263,262,262,264,1,102,102,3221225876,263,198,194,194,194,194,540,539,475,471,537,194,194,194,194,194,194,194,194,194,194,194,194,194,194,194,194,194,476,471,537,194,194,194,194,194,194,194,194,194,194,194,67,194,194,194,194,194,194,194,194,194,195,264,269,70,70,1610613077,0,0,2684354964,267,263,198,194,194,194,194,3758096514,194,194,194,0,0,0,0,0,2684354709,267,204,1073742091,148,1,265,265,2684354709,267,195,194,258,194,194,194,194,476,471,537,194,478,474,474,474,474,538,194,194,1610612866,194,133,194,194,194,130,478,472,471,537,194,194,194,194,194,194,194,194,194,194,194,130,131,133,194,194,3758096514,194,194,194,130,264,269,333,70,70,1610613076,3221225813,3221225813,265,150,267,263,198,131,194,194,1610612870,194,194,194,0,0,0,0,0,2684354964,1073741972,2684354828,148,404,265,265,265,2684354964,150,194,135,196,194,130,194,194,476,471,473,474,472,471,471,2684355105,2684355105,473,538,194,135,194,194,194,130,474,474,472,471,535,541,194,194,131,194,194,194,194,3758096514,194,194,194,194,194,194,194,194,194,194,194,194,260,269,333,70,70,70,70,70,3221225545,2147483988,2147484052,150,267,263,262,262,198,194,194,3221225605,194,0,0,0,0,0,0,1073742228,149,404,0,0,0,1,201,195,194,194,194,194,194,194,194,540,475,471,2684355106,471,535,539,539,475,471,473,538,194,2684354690,194,478,472,471,471,471,535,541,194,3758096515,194,194,194,194,194,194,194,194,194,194,194,194,194,194,194,1073741958,194,2147483782,2147483783,194,197,327,1610612808,70,70,70,70,70,70,3221225814,2147484052,150,267,204,2684354828,263,262,198,2684354690,194,0,0,0,0,0,0,0,0,0,0,0,0,0,199,3221225602,194,194,194,194,194,194,194,194,540,539,539,539,541,194,135,540,475,471,473,474,474,474,472,471,535,539,539,541,194,3758096514,194,194,194,194,194,194,194,194,194,194,194,2684354692,194,194,194,135,194,131,194,1073741956,194,194,196,327,70,74,70,70,70,74,70,2147483988,2147484052,150,2684354828,204,267,204,263,262,262,0,0,0,0,0,0,0,0,0,0,0,0,0,199,194,258,198,194,132,194,194,194,194,194,194,194,194,194,194,194,3221225605,540,475,471,471,2684355103,2684355103,471,471,537,194,194,194,194,194,3221225607,3221225606,194,194,1073741958,194,194,194,194,194,194,194,194,194,1610612871,194,194,194,194,194,194,3221225607,3221225606,260,70,70,70,70,70,70,70,70,1610613077,2684354964,149,149,150,2684354828,267,204,2684354828,0,0,0,0,0,0,0,0,0,0,0,0,0,199,194,196,195,194,194,194,3221225607,3221225606,194,194,194,194,194,194,194,194,194,194,540,539,539,539,539,475,545,537,194,194,194,194,194,194,194,194,194,194,194,194,194,194,194,194,194,194,194,1610612871,194,194,194,194,194,194,130,258,264,70,70,70,70,70,70,70,1610612808,1610613077,0,0,0,2684354964,149,150,2684354828,204,0,0,0,0,0,0,0,0,0,0,0,0,0,199,194,194,194,194,194,194,194,194,194,133,194,194,2147483778,67,194,194,194,194,194,194,194,194,194,476,471,537,194,194,194,194,194,194,194,194,194,194,194,194,194,194,194,194,194,194,194,194,194,194,194,194,194,194,194,260,1073742091,70,73,70,70,70,70,70,70,3221225814,3221225878,0,0,0,0,2684354964,149,149,0,0,0,0,0,0,0,0,0,0,0,0,1073742036,263,198,194,194,194,536871043,194,194,194,194,194,194,135,194,2147483779,194,194,194,194,194,194,194,194,194,476,471,537,194,194,194,194,194,194,194,194,194,194,194,194,194,194,194,194,194,194,194,194,194,194,194,194,194,194,194,260,397,327,70,70,72,70,70,70,70,70,1610613077,0,0,0,0,0,0,0,0,0,0,0,0,0,201,197,197,197,261,0,1073742036,267,199,194,194,194,194,194,2684354693,194,194,194,194,194,194,194,194,194,194,194,194,194,194,194,194,476,471,537,194,194,194,194,194,194,194,194,194,194,194,194,194,194,194,194,194,194,194,194,194,1073741958,194,258,194,194,262,264,199,196,327,70,70,70,70,70,70,70,1610613077,0,0,0,0,0,0,0,0,0,0,0,0,201,195,194,194,194,196,197,197,197,194,2684354694,194,194,194,194,131,194,194,194,194,194,194,194,194,194,194,194,194,194,194,194,194,476,471,473,538,194,194,194,194,194,194,194,194,2147483778,194,194,194,194,194,194,194,194,1073741955,194,194,194,258,264,272,274,204,397,195,194,260,70,70,70,70,70,70,70,1610613077,0,0,0,0,0,0,0,0,0,0,0,0,199,194,194,194,194,194,196,262,131,194,2684354695,194,194,194,194,194,194,194,194,194,194,194,194,194,194,194,194,194,194,194,3221225602,194,540,475,471,537,194,194,194,194,194,194,194,194,194,194,194,2684354691,194,194,194,194,194,1073741955,194,258,262,264,397,1610612996,1610612996,197,195,194,194,260,70,70,70,70,70,70,3758096724,3758096788,0,0,0,0,0,0,0,0,0,213,0,0,263,198,194,194,194,2684354756,264,204,263,2684354691,3221225603,194,194,194,2684354692,194,194,194,194,194,194,194,194,1073741958,194,194,194,194,194,194,194,194,194,476,543,537,194,194,194,2684354692,194,194,194,194,194,194,194,194,194,194,194,194,194,194,194,260,2684354828,269,263,198,194,194,258,198,262,264,70,70,70,70,3758096724,341,3758096788,0,0,0,0,0,0,0,0,3221225813,1610613140,0,0,0,267,263,262,262,262,264,1073742027,0,203,263,198,194,194,194,194,194,194,194,194,194,194,194,194,194,194,194,194,194,194,194,194,194,194,472,471,537,194,194,194,194,194,194,194,194,194,194,194,258,262,262,3221225669,3221225669,262,198,194,260,204,333,331,263,262,262,264,271,204,333,70,70,70,3758096724,3758096788,0,0,0,0,0,0,0,0,0,0,73,1610613076,0,0,1,150,267,204,2684354828,204,1073742091,1610612888,2147483864,1073742036,267,263,262,262,3221225669,3221225669,3221225669,262,198,194,194,3221225603,3221225603,194,194,194,258,262,3221225669,262,198,194,194,476,471,535,541,194,194,194,194,194,194,194,194,194,194,194,260,204,2684354828,204,2684354828,204,263,3221225669,264,341,342,3221225545,1073742157,2684354828,204,333,70,1610612809,70,70,70,340,3758096788,0,0,0,0,0,0,0,0,0,0,0,74,328,2684354759,2684354759,261,406,150,2684354828,204,2684354828,151,1073742230,0,1073742228,150,267,2684354828,204,2684354828,204,2684354828,204,263,262,262,198,194,194,134,135,260,204,2684354828,204,263,262,198,476,545,537,2147483778,194,194,258,262,262,198,3221225603,194,198,194,258,264,2684354828,204,2684354828,204,2684354828,267,204,1073742091,212,406,342,2684354632,70,70,70,70,70,70,70,340,404,0,0,0,0,0,0,0,0,0,0,0,0,2684354759,2125,2684356684,2684356684,2684356685,2684354759,261,149,149,149,1073742230,0,0,0,406,150,204,2684354828,204,2684354828,204,2684354828,267,204,2684354828,263,262,3221225669,3221225669,262,264,2684354828,204,2684354828,267,268,263,476,2684355420,537,262,262,262,264,204,2684354828,263,262,3221225669,195,194,260,1073742091,149,149,1,1,149,150,2684354828,1073741974,404,0,406,341,341,341,341,341,341,341,341,404,0,0,0,0,0,0,0,0,0,0,0,0,0,2684356686,1930,1804,1804,1805,2684356686,2684356685,261,213,0,0,0,0,0,0,406,149,149,149,149,149,149,150,2684354828,204,267,2684354828,204,2684354828,204,1073742091,3221225544,340,149,150,204,267,419,479,1073742243,204,2684354828,204,1073742091,2684354828,204,267,2684354828,204,198,194,260,148,265,265,265,0,0,406,149,1073742230,0,0,0,0,0,0,0,0,0,0,0,0,0,0,0,0,0,0,0,0,0,0,0,0,0,3221227531,1073743629,1868,1868,1869,1805,1610614795,2684356685,2684354759,2684354759,2684354759,2684354759,2684354759,261,1,1,1,1,1,1,0,0,406,2684354900,72,1073742157,204,2684354828,204,2684354828,333,70,1610613077,265,406,149,150,419,415,1073742243,2684354828,204,2684354828,333,70,74,1073742157,204,2684354828,199,194,196,261,265,265,265,0,0,0,0,0,0,0,0,0,0,0,0,0,0,0,0,0,0,0,0,0,0,0,0,0,0,0,0,0,0,1930,1073743693,1868,1868,1868,1869,1804,1805,2684356684,2684356684,2684356686,2684356686,2684356686,2684356685,261,1,1,1,1,1,0,0,0,2684354901,70,70,70,2684354632,70,2684354633,70,340,404,265,265,265,406,149,1,149,342,70,70,73,70,70,70,1073742166,149,263,198,194,196,261,265,0,0,0,0,0,0,0,0,0,0,0,0,0,0,0,0,0,0,0,0,0,0,0,0,0,0,0,0,0,0,0,1073743629,1931,1932,1933,1932,1932,1932,1869,1804,1804,1805,2684356620,2059,2062,2684356685,2684354759,261,1,1,1,213,0,0,2684354964,342,3221225546,70,70,70,70,340,404,265,265,265,265,265,0,0,0,1073742228,342,3221225546,70,70,2147483720,1073742166,404,0,267,199,194,194,196,261,0,201,197,197,197,197,197,261,0,0,0,0,0,0,0,0,0,0,0,0,0,0,0,0,0,0,0,0,0,0,0,1073743693,1932,1868,1996,1996,1996,1996,1868,1868,1868,1869,1804,1805,2684356619,1073743885,2684356685,3221225671,1,1,1,0,0,0,0,2684354964,341,341,341,341,341,404,0,0,0,0,0,0,0,0,0,0,1073742228,341,341,341,341,404,0,0,150,199,194,194,131,196,197,195,194,194,194,194,194,196,261,0,0,0,0,0,0,0,0,0,0,0,0,0,0,0,0,0,0,0,0,0,0,1932,1932,1932,1933,1868,1868,1931,1931,1932,1933,1933,1868,1869,1805,2061,3221227598,3221225671,1610613076,1610613140,1,0,0,0,0,0,0,0,0,0,0,0,0,0,201,197,261,0,0,0,0,0,0,0,0,0,0,0,0,0,201,195,194,194,194,194,194,194,194,194,194,194,194,194,196,261,0,0,0,0,0,0,0,0,0,0,0,0,0,0,0,0,0,0,0,0,0,1995,1932,1996,1932,1932,1932,1932,1996,1868,1868,1931,1932,1868,1869,1073743754,3221227598,3221225671,73,1610613077,1,0,0,0,0,0,0,0,0,0,0,0,0,201,195,194,260,0,265,265,265,265,201,197,197,197,197,197,197,197,195,194,194,194,194,194,194,1610612871,194,130,194,194,194,194,194,260,0,0,0,0,0,0,0,0,0,0,0,0,0,0,0,0,0,0,0,0,0,2060,536872842,536872842,1995,1996,1996,1996,1931,1932,1933,1933,1931,1932,1933,1073743754,3221227598,3221225671,74,1610613077,1,0,0,0,0,0,0,0,0,0,0,0,0,199,194,194,260,0,265,265,265,265,199,194,194,194,194,194,194,194,194,194,3221225605,194,194,194,194,194,194,194,194,194,194,194,194,260,0,0,0,0,0,0,0,0,0,0,0,0,0,0,0,0,0,0,0,0,0]},{"id":4,"name":"paths","type":"tilelayer","x":0,"y":0,"width":86,"height":48,"opacity":1,"visible":true,"data":[0,0,0,0,0,0,0,0,0,0,0,0,0,0,0,0,0,0,0,0,0,0,0,0,0,0,0,0,0,0,0,0,0,0,0,0,0,0,0,0,0,0,0,0,0,0,0,0,0,0,0,0,0,0,0,0,0,0,0,0,0,0,0,0,0,0,0,0,0,0,0,0,0,0,0,0,0,0,0,0,0,0,0,0,0,0,0,0,0,0,0,0,0,0,0,0,0,0,0,0,0,0,0,0,0,0,0,0,0,0,0,0,1,1,1,0,0,0,0,0,0,0,0,0,0,0,0,0,0,0,0,0,0,0,0,0,0,0,0,0,0,0,0,0,0,0,0,0,0,0,0,0,0,0,0,0,0,0,0,0,0,0,0,0,0,0,0,0,0,0,0,0,0,0,0,0,0,0,0,0,0,0,1,1,1,1,1,1,1,1,1,1,1,1,1,1,1,1,1,1,1,1,1,1,1,1,1,1,1,1,1,1,1,1,1,1,1,1,1,1,1,1,1,1,1,1,1,1,1,1,1,0,0,0,0,0,0,0,0,0,0,0,0,0,0,0,0,0,0,0,0,0,0,0,0,0,0,0,0,0,0,0,0,0,0,0,0,0,1,1,1,1,1,1,1,1,1,1,1,1,1,1,1,490,486,486,550,1,1,1,1,1,1,1,1,1,1,1,1,1,1,1,1,1,1,1,1,1,468,464,464,464,528,1,1,1,3221225680,3221225679,3221225678,0,0,0,0,0,0,0,0,0,0,0,0,0,0,0,0,0,0,490,486,550,0,0,0,0,0,0,0,0,0,0,0,0,0,0,1,1,1,1,1,1,1,1,1,1,1,1,1,1,1,552,487,556,485,550,1,1,1,1,1,1,1,1,1,1,1,1,1,1,1,1,1,1,1,1,466,461,461,461,463,464,528,1,206,207,208,0,0,0,0,0,0,0,0,0,0,0,0,0,0,0,0,0,0,488,483,485,550,0,0,0,0,0,0,0,0,0,0,0,0,0,1,1,1,1,1,1,1,1,1,1,1,1,1,1,1,1,552,551,551,553,1,1,1,1,1,1,1,1,1,1,1,1,1,1,1,3221225680,3221225679,3221225678,1,1,466,461,461,461,461,461,527,457,451,3221225994,452,517,0,0,0,0,0,0,0,0,0,0,0,0,0,0,0,0,0,552,487,491,549,0,0,0,0,0,0,0,0,0,0,0,0,0,1,1,1,1,1,1,1,1,1,1,1,1,1,1,1,1,1,1,1,1,1,1,1,1,1,1,1,1,1,1,1,1,1,1,1,206,207,208,1,1,530,465,461,461,525,529,531,1,458,459,460,516,0,0,0,0,0,0,0,490,486,550,1,1,0,0,0,0,0,0,552,551,553,0,0,0,0,0,0,0,0,0,0,0,457,453,453,453,453,453,453,453,453,517,1,1,1,1,1,1,1,1,1,1,1,1,1,1,1,1,1,1,1,1,1,1,1,1,1,1,1,1,1,1,1,1,1,530,529,529,531,1,1,1,3221225994,450,514,520,0,0,0,0,0,0,0,488,483,485,486,486,550,0,0,0,0,0,0,0,0,0,0,0,0,0,0,0,0,0,0,457,451,450,450,450,450,450,450,2147484170,2147484171,452,517,3221225680,3221225679,3221225678,1,1,1,1,1,1,1,1,1,1,1,1,1,1,1,1,1,1,1,1,1,1,1,1,1,1,1,1,1,1,1,1,1,1,1,1,454,523,516,1,0,0,0,0,0,0,0,552,487,2684355052,483,483,485,486,550,0,0,0,0,0,0,0,0,0,0,0,0,0,0,0,457,451,450,458,459,460,450,450,450,2147484106,2147484107,2147484108,516,206,207,208,1,1,1,1,1,1,1,1,1,1,1,1,1,1,1,1,1,1,1,1,1,1,1,1,1,1,1,1,1,1,1,1,1,1,1,1,519,518,520,0,0,0,0,0,0,0,0,0,552,487,483,483,483,547,553,0,0,0,0,0,0,0,0,0,0,0,0,0,0,0,455,1073742283,450,522,523,450,450,536871371,450,450,450,450,452,517,1,1,1,1,1,1,1,1,1,1,1,1,1,1,1,1,1,1,1,1,1,1,1,1,1,1,1,1,1,1,1,1,1,1,1,1,1,1,1,0,457,453,517,0,0,0,0,0,0,0,0,1,1,1,1,1,1,1,1,1,1,0,0,0,0,0,0,0,0,0,0,0,519,518,518,454,450,458,459,460,450,450,450,1073742283,450,516,1,1,1,1,1,1,1,1,1,1,1,1,1,1,1,1,1,1,1,457,453,453,295,1,295,453,517,1,1,1,1,1,1,1,1,1,1,1,1,457,451,450,516,0,0,0,0,0,0,0,0,552,1,487,1,1,1,490,550,1,1,0,0,0,0,0,0,0,0,0,0,0,744,745,746,455,2147484107,522,523,450,450,450,1073742284,1073742283,1073742282,452,517,1,1,1,1,1,1,1,1,1,1,1,1,1,1,1,1,457,453,451,458,459,359,359,359,450,452,517,1,1,1,1,1,1,1,1,1,1,1,455,458,514,520,0,3221225679,0,0,0,0,0,0,1,1,552,551,1,1,488,485,486,550,0,0,0,0,0,0,0,0,0,0,0,808,2684355369,810,519,518,454,1073742283,450,450,450,450,1073742347,1073742346,450,452,517,1,1,1,1,1,1,1,1,1,1,1,1,1,1,457,451,450,514,518,518,423,1,423,454,3221225931,452,517,1,1,1,1,1,1,1,1,1,1,519,518,520,0,0,143,1610612943,0,0,0,0,0,0,0,1,1,1,1,552,487,483,549,0,0,0,0,0,0,0,0,0,0,0,808,2684355369,810,0,1,455,450,458,450,514,518,518,454,450,450,516,1,1,1,1,1,1,1,1,1,1,1,1,1,1,455,2147484108,514,520,1,1,1,1,1,519,454,523,516,1,457,453,517,1,1,1,1,1,1,0,0,0,0,0,143,3221225679,0,0,0,0,0,0,0,0,1,1,1,0,552,551,553,0,0,0,0,0,0,0,0,0,0,0,808,2684355369,810,0,1,519,518,518,518,520,1,1,455,1073742283,514,520,1,1,1,1,1,1,1,3221225680,3221225679,3221225678,1,1,1,1,519,518,520,1,1,1,1,1,1,1,519,454,452,517,455,3221225930,452,517,1,1,1,1,1,0,0,0,1,0,2684354704,143,1610612943,0,0,0,0,0,0,0,0,0,0,0,0,0,0,0,0,0,0,0,0,0,0,0,0,0,808,2684355369,810,0,1,1,1,1,1,1,1,1,519,518,520,1,1,1,1,468,464,464,464,464,464,528,1,1,1,1,1,1,1,1,1,1,1,1,1,1,1,519,518,520,519,454,2147484108,452,453,517,3221225680,3221225679,3221225678,1,1,1,0,3221225616,143,207,208,0,0,0,0,0,0,0,0,0,0,0,0,0,0,0,0,0,0,0,0,0,0,0,0,0,808,2684355369,810,0,1,1,1,1,1,1,1,1,1,1,1,1,1,1,1,530,465,461,469,470,461,463,528,1,1,519,454,450,516,1,1,1,1,1,1,1,1,1,1,1,1,519,518,454,3221225995,516,206,207,208,451,450,516,0,206,207,1073742030,0,0,0,0,0,0,0,0,1,1,468,528,0,0,0,0,0,0,0,0,0,0,0,0,0,0,808,2684355369,810,0,1,1,1,1,1,1,1,1,1,1,1,1,1,1,1,1,530,529,465,3221225942,3221225941,3221225941,463,464,528,1,519,518,520,1,1,1,1,1,1,1,1,1,1,1,1,1,1,519,518,456,453,453,451,459,514,520,0,0,0,0,0,0,0,0,0,0,0,0,1,468,462,527,0,0,0,0,0,0,0,0,0,0,0,0,0,0,1073742634,2684355369,810,0,1,1,1,1,1,1,1,1,1,1,1,1,1,1,1,1,1,1,530,529,465,3221225942,3221225941,3221225941,527,1,1,1,1,1,1,1,1,1,1,1,1,1,1,1,1,1,1,1,1610612869,519,454,2147484108,514,518,520,3221225680,3221225679,3221225678,0,0,0,0,0,0,0,0,0,0,468,462,461,463,464,464,528,0,0,0,0,0,0,0,0,0,0,0,3221226218,3221226217,3221226216,1,1,1,1,1,1,1,1,1,1,1,1,1,398,399,400,1,1,1,1,1,530,529,529,529,531,1,457,453,517,1,457,453,1,295,1,517,1,1,1,1,1,1,1,1,1,1,519,518,520,1,1,206,207,208,0,0,0,0,1,1,1,1,1,0,530,465,469,470,470,461,527,0,0,0,0,0,0,0,0,0,0,0,1,3758096721,3221225873,744,745,1073742569,745,1073742569,1073742568,1,1,1,1,1,1,1,1,1,2684354958,1610613136,1,1,1,3221225680,3221225679,3221225678,1,1,1,1,455,3221225994,516,457,451,450,359,359,359,452,517,1,1,1,1,1,1,1,1,1,1,1,1,0,0,0,0,0,0,0,0,1,1,1,1,1,1,0,0,466,533,534,469,470,527,0,0,0,0,0,0,0,0,0,0,0,2684354959,335,3221225809,808,809,1073742633,809,1073742633,1073742632,3221225872,3221225871,3221225870,1,1,1,1,1,1,2684354959,1610613135,1,1,1,206,207,208,3221225870,1,1,1,455,523,452,451,2147484106,514,1,423,1,3221225994,516,1,3221225680,3221225679,3221225678,1,1,1,1,139,140,140,141,0,0,0,0,0,0,0,0,1,1,1,1,1,1,1,0,530,465,461,533,534,527,0,0,0,0,0,0,0,0,0,0,0,398,1610613134,1,872,873,1073742697,873,1073742697,1073742696,398,399,457,453,517,1,1,1,1,2684354960,1610613134,1,2684354961,2684354897,1,398,399,400,1,1,1,519,454,2147484107,514,518,520,1,1,1,1073742284,516,1,206,207,208,1,1,1,1,1073742224,399,399,400,0,0,0,0,0,0,0,0,1,1,1,1,1,1,1,0,0,530,529,529,529,531,453,453,517,0,0,0,0,0,0,0,0,0,0,1,1,1,358,358,1,1,527,1,455,1073742347,516,1,1,1,1,1,1,1,1610613073,1610613137,1,1,1,1,1,1,1,1,519,518,520,1,1,1,1,1,450,516,1,1,1,3221225680,3221225679,3221225678,1,1,1,1,1,1,0,0,0,457,453,517,0,0,1,1,490,486,550,1,1,0,0,0,1,1,455,522,459,458,516,0,0,0,0,0,0,0,0,0,0,1,1,1,166,166,1,1,527,1,519,454,452,517,1,1,1,1,1,1,1,1,1,1,1,1,1,1,1,1,1,1,1,1,1,1,1,455,3221225995,452,517,1,1,206,207,208,1,1,1,1,1,1,0,0,0,455,450,452,517,0,0,0,488,2684355115,485,550,1,1,1,0,1,1,519,518,454,523,452,453,453,0,0,0,0,0,0,0,0,0,0,1,1,1,1,529,1,1,1,455,450,452,517,1,1,1,1,1,1,1,1,1,1,1,1,1,1,1,1,1,1,1,1,1,1,519,454,1073742283,452,517,1,1,1,1,1,1,1,1,1,1,0,0,0,519,454,450,516,0,0,490,484,483,483,485,550,1,1,0,0,0,0,811,519,518,454,458,459,0,0,0,0,0,0,0,0,0,0,1,1,1,1,1,1,1,1,455,1073742282,459,516,1,1,1,1,1,1,1,1,1,1,1,1,1,1,1,1,1,1,1,1,1,1,1,519,454,1073742284,516,1,1,1,1,1,1,1,1,1,1,0,1,1,1,455,450,516,0,1,552,487,483,483,483,485,550,1,0,0,0,0,811,0,0,519,518,518,0,0,0,0,0,0,0,0,0,0,1,1,1,1,1,1,1,1,455,1073742347,1073742284,516,1,1,1,1,1,1,1,1,1,1,1,1,1,1,1,1,1,1,1,1,1,1,1,1,519,518,520,1,1,1,1,1,1,1,1,1,468,1,1,457,1,519,518,520,0,1,1,488,2684355051,483,483,483,485,550,0,0,0,1,425,1,0,0,0,0,0,0,0,0,0,0,0,0,0,0,1,1,1,1,1,1,1,1,519,454,1073742346,452,517,1,1,1,1,1,1,1,1,1,1,1,1,1,1,1,1,1,1,1,1,1,1,1,468,464,464,464,464,464,464,464,464,464,464,464,3221225680,3221225679,2147483855,2147483856,464,464,464,464,1,1,1,488,2684355052,483,483,555,2684355116,549,0,0,0,360,361,362,0,0,0,0,0,0,0,0,0,0,0,0,0,0,1,1,1,1,1,1,457,453,453,451,450,1073742283,516,1,1,1,1,1,1,468,464,464,464,464,464,464,464,528,1,1,468,464,464,464,464,464,462,536871381,461,2684355093,2147484181,469,461,2684355093,461,461,469,2684355029,461,461,461,461,460,523,522,458,452,1,0,552,551,487,491,483,483,485,486,550,0,360,361,362,0,0,0,0,0,0,0,0,0,0,0,0,1,1,1,1,1,1,457,453,451,450,1073742347,1073742284,514,518,520,464,464,464,464,464,464,462,2684355094,461,536871381,469,461,3221225941,461,809,809,809,461,470,469,533,533,461,2684355093,461,2684355093,2684355093,525,529,529,529,529,529,529,529,529,529,529,529,529,454,460,450,514,520,0,0,0,552,551,487,2684355051,483,2684355116,549,295,295,425,295,0,0,0,0,0,0,0,0,0,1,457,453,453,453,517,1,1,1,455,450,450,450,514,518,520,464,462,461,2684355030,461,2684355093,2684355029,533,461,461,461,536871445,536871381,461,470,533,809,809,809,533,534,461,461,1610613205,2684355093,461,525,529,3221225680,3221225679,3221225678,1,1,1,1,1,1,1,0,0,0,0,455,450,450,516,0,0,0,1,1,490,484,2684355052,483,483,549,359,359,359,359,0,0,0,0,0,0,0,0,0,457,451,450,450,3221225994,452,453,453,453,451,450,3221225994,450,516,462,2147484118,461,461,533,533,534,461,461,533,534,525,529,529,529,529,529,529,529,528,1,1,530,529,529,529,529,529,531,1,206,207,208,3221225680,3221225679,3221225678,1,1,1,1,0,0,0,0,1,1,1,1,457,453,517,1,1,488,3758096875,483,483,556,549,423,423,361,423,0,0,0,0,0,0,0,0,0,455,2147484170,450,458,459,460,450,522,450,458,459,460,514,520,529,529,529,529,529,529,529,1,529,529,529,517,466,469,470,461,469,470,463,1,1,1,1,1,1,1,1,1,3221225679,3221225679,3221225679,3221225679,1610612944,206,207,208,1,1,1,1,0,0,0,0,0,457,453,453,451,460,516,1,490,484,3758096876,547,551,551,553,0,360,361,362,0,0,0,0,0,0,0,0,0,519,454,1073742284,450,523,514,518,518,518,518,518,518,520,1,1,1,1,1,1,1,1,1,1,455,523,516,466,533,534,533,533,534,461,527,1,1,1,1,1,1,1,469,470,534,534,533,1610612943,1,1,1,1,1,1,1,0,0,0,0,0,519,454,3221225995,514,518,520,1,488,2684355116,492,549,0,0,0,0,0,425,0,0,0,0,0,0,0,0,0,0,0,519,518,518,518,520,1,1,1,1,1,1,1,1,1,1,1,1,1,1,1,1,457,451,1073742283,452,517,529,465,461,461,461,525,1,1,1,1,1,1,1,1,533,534,533,144,207,208,1,1,1,1,1,1,1,0,0,0,0,0,1,519,518,520,1,1,490,484,483,547,553,0,0,0,0,0,0,0,0,0,0,0,0,0,0,0,0,0,0,0,0,0,1,1,1,1,1,1,1,1,1,1,1,1,1,1,1,1,1,455,459,460,514,520,1,530,465,461,461,527,1,1,1,1,1,1,1,1,207,207,207,208,1,1,1,1,1,1,1,1,1,0,0,0,0,0,1,1,1,1,1,1,488,1073742315,547,553,0,0,0,0,0,0,0,0,0,0,0,0,0,0,0,0,0,0,0,0,0,0,1,1,1,1,1,1,1,1,1,1,1,1,1,1,1,398,399,400,458,514,520,1,1,1,530,529,529,1,1,1,1,1,1,1,1,1,1,1,1,1,1,1,1,1,136,137,137,138,1,0,0,0,0,0,0,0,0,1,1,1,552,551,553,0,0,0,0,0,0,0,0,0,0,0,0,0,0,0,0,0,0,0,0,0,0,0,1,1,1,1,1,1,1,1,1,1,1,1,1,1,1,1,1,519,518,520,1,1,1,1,1,1,1,1,1,1,1,1,1,1,1,1,1,1,1,468,464,528,1,1,1,1,1,1,1,0,0,0,0,0,0,0,0,1,1,1,0,0,0,0,0,0,0,0,0,0,0,0,0,0,0,0,0,0,0,0,0,0,0,0,0,0,1,1,1,1,1,1,1,1,1,1,1,1,1,1,1,1,1,1,1,1,1,1,1,1,1,1,1,1,1,1,1,1,1,1,140,140,1,1,1,466,461,527,1,1,1,1,1,1,1,1,1,1,1,1,0,0,0,1,1,1,0,0,0,0,0,0,0,0,0,0,0,0,0,0,0,0,0,0,0,0,0,0,0,0,0,0,1,1,1,1,1,1,1,1,1,1,1,1,1,1,1,1,1,1,1,1,1,1,1,1,1,1,1,1,1,1,1,1,1,1,399,399,1,1,1,466,461,463,528,1,1,1,1,1,1,1,1,1,1,1,0,0,0,0,0,0,0,0,0,0,0,0,0,0,0,0,0,0,0,0,0,0,0,0,207,207,208,0,0,0,0,0,1,1,1,1,1,1,1,1,1,1,1,1,1,1,1,1,1,1,1,1,1,1,1,1,1,1,1,1,1,1,1,1,1,1,1,1,1,1,1,530,465,470,463,528,1,1,1,1,1,1,1,1,1,1,0,1,1,1,0,0,0,0,0,0,0,0,0,0,0,0,0,0,0,0,0,0,0,536871120,536871056,1610612944,1,0,0,0,0,0,1,1,1,1,1,1,1,1,1,1,1,1,1,1,1,1,1,1,1,1,1,1,1,1,1,1,1,1,1,1,1,1,1,1,1,1,1,1,1,1,530,529,465,463,528,1,468,464,464,464,528,1,1,1,1,1,1,1,0,0,0,0,0,0,0,0,0,0,0,0,0,0,0,0,0,0,0,536871119,536871055,1610612943,1,0,0,1,1,1,1,1,1,1,1,1,1,1,1,1,1,1,1,1,1,1,1,1,1,1,1,1,1,1,1,1,1,1,1,1,1,1,1,1,1,1,1,1,1,1,1,1,530,529,531,1,466,461,470,2684355030,463,464,528,1,1,1,1,1,0,0,0,0,0,0,0,0,0,0,0,0,0,0,0,0,0,0,0,2684354768,2684354704,1610612942,1,0,0,0,0,0,1,1,1,1,1,1,1,1,1,1,1,1,1,1,1,1,1,1,1,1,1,1,1,1,1,1,1,1,1,1,1,1,1,1,1,1,1,1,1,468,528,1,468,464,464,528,530,529,529,465,461,461,463,464,528,1,1,1,0,0,0,0,0,0,0,0,0,0,0,0,0,0,0,0,0,0,0,0,0,0,0,0,0,0,0,536871120,536871056,1610612944,1,1,1,1,1,1,1,1,1,1,1,1,1,1,1,1,1,1,1,1,1,468,464,528,745,1073742569,1073742569,745,1073742569,1073742568,1,1,1,468,464,464,464,526,531,1,1610613200,534,461,463,464,464,464,462,2684355030,461,461,525,531,1,1,0,0,0,0,0,0,0,0,0,0,0,0,0,0,0,0,0,0,0,0,0,0,0,0,206,207,208,0,536871119,536871055,1610612943,1,1,1,1,1,1,1,1,1,1,1,1,1,1,1,1,1,1,1,1,1,466,461,527,2684355211,2684355211,2684355211,2684355211,2684355211,1073742632,1,1,468,462,461,2684355094,461,2684355024,1,1,1610613200,461,2684355094,461,461,3221225942,461,2684355030,3221225942,461,2684355030,527,1,1,1,0,0,0,0,0,0,0,0,0,0,0,0,0,0,0,0,0,0,0]},{"id":5,"name":"shadows","type":"tilelayer","x":0,"y":0,"width":86,"height":48,"opacity":1,"visible":true,"data":[0,0,0,0,0,0,0,0,0,0,0,0,0,0,0,0,0,0,0,0,0,0,0,0,0,0,0,0,0,0,0,0,0,0,0,0,0,0,0,0,0,1,1,1,1,1,1,1,1,1,1,1,1,1,1,1,1,1,1,1,1,1,0,0,0,0,0,0,0,0,0,0,0,0,0,0,0,0,0,0,0,0,0,0,0,0,0,0,0,0,0,0,0,0,0,0,0,0,0,0,0,0,0,0,0,0,0,0,0,0,0,0,0,0,0,0,0,0,0,0,0,0,0,0,0,0,0,1,1,1,1,1,1,1,1,1,1,1,1,1,1,1,1,1,1,1,1,1,0,0,0,0,0,0,0,0,0,0,0,0,0,0,0,0,0,0,0,0,0,0,0,0,0,0,0,0,0,0,0,0,0,0,0,0,0,0,0,0,0,0,0,0,0,0,0,0,0,0,0,0,0,0,0,0,0,0,0,0,0,265,265,265,265,1,1,1,1,1,1,1,1,1,1,1,1,1,1,1,1,1,1,1,1,1,0,0,0,0,0,0,0,0,0,0,0,0,0,0,0,0,0,0,0,0,0,0,0,0,0,0,0,0,0,0,0,0,0,0,0,0,0,0,0,0,0,0,0,0,0,0,0,0,0,0,0,0,0,0,0,0,0,0,0,0,265,265,265,265,265,1,1,1,1,1,1,1,1,1,1,1,1,1,1,1,1,1,1,1,1,1,0,0,0,0,0,0,0,0,0,0,0,0,0,0,0,0,0,0,0,0,0,0,0,0,0,0,0,0,0,0,0,0,0,0,0,0,0,0,0,0,0,0,0,0,0,0,0,0,0,0,0,0,0,0,0,0,0,0,0,265,265,265,265,265,265,1,1,1,1,1,1,1,1,1,1,1,1,1,79,77,77,77,1073741903,1,1,1,0,0,0,0,0,0,0,0,0,0,0,0,0,0,0,0,0,0,0,0,0,0,0,0,0,0,0,0,0,0,0,0,0,0,0,0,0,0,0,0,0,0,0,0,0,0,0,0,0,0,0,0,0,0,0,0,265,265,265,265,265,265,265,265,265,1,1,1,1,1,1,1,1,1,1,1,1,1,1,1,1,1,1,1,1,1,0,0,0,0,0,0,0,0,0,0,0,0,0,0,0,0,0,0,0,0,0,0,0,0,0,0,3221225550,0,0,0,2147483726,0,0,0,0,0,0,0,0,0,0,0,0,0,0,0,0,0,0,0,0,0,0,0,0,265,265,1,1,1,1,1,265,265,265,1,1,1,77,77,1073741907,1,1,1,1,1,1,1,1,1,1,1,1,1,1,1,265,0,0,0,0,0,0,0,0,0,0,0,0,0,0,0,0,0,0,0,0,0,0,0,0,1,77,77,77,77,77,0,0,0,0,0,0,0,0,0,0,0,0,0,0,0,0,0,0,0,0,0,0,0,265,265,265,1,1,1,1,1,265,1,1,1,1,1,77,1073741905,1073741904,1,1,1,3221225550,1,1,1,1,1,1,1,1,1,1,1,265,265,265,0,0,0,0,0,0,0,0,0,0,0,0,0,0,0,0,0,0,0,0,0,0,1,78,77,77,1610612814,1,0,0,0,0,0,0,0,0,0,0,0,0,0,0,0,0,0,0,0,0,0,0,265,265,265,265,1,1,1,1,1,265,265,265,265,265,3221225550,78,265,1,1,1,1,78,77,77,77,77,3221225550,1,1,1,1,1,1,265,265,265,265,0,0,0,0,0,0,0,0,0,0,0,0,0,0,0,0,0,0,0,0,0,0,0,0,0,0,0,0,0,0,0,0,0,0,0,0,0,0,0,0,0,0,0,0,0,0,0,0,265,265,265,265,265,1,1,1,1,1,265,265,265,265,265,77,3221225550,265,1,1,1,1,1,1,1,1,1,78,3221225550,1,1,1,1,2147483726,1,265,265,265,0,0,0,0,0,0,0,0,0,0,0,0,0,0,0,0,0,0,0,0,0,0,0,0,0,0,0,0,0,0,0,0,0,0,0,0,0,0,0,0,0,0,0,0,0,0,0,265,265,265,265,265,265,1,1,1,1,1,265,265,265,265,265,78,77,77,77,77,3221225550,1,1,79,77,77,77,1073741903,78,3221225550,1,1,2147483726,1073741902,265,265,265,265,265,0,0,0,0,0,0,0,0,0,0,0,0,0,0,0,0,0,0,0,0,0,0,0,0,0,0,0,0,0,0,0,0,0,0,0,0,0,0,0,0,0,0,0,0,0,0,265,265,265,265,265,265,265,265,265,265,265,265,265,265,265,265,265,78,77,77,77,77,1,1,1,1,1,1,1,1,78,77,77,1073741902,1,265,265,265,265,265,265,0,0,0,0,0,0,0,0,0,0,0,0,0,0,0,0,0,0,0,0,0,0,0,0,0,0,0,0,0,0,0,0,0,0,0,0,0,0,0,0,0,0,0,0,0,265,265,265,77,77,265,265,265,265,265,265,265,265,265,265,265,265,265,265,265,265,78,3221225550,265,265,265,265,1,1,1,1,1,1,1,1,265,265,265,265,265,265,265,0,0,0,83,77,0,0,0,0,0,0,0,0,0,0,0,0,0,0,0,0,0,3221225550,0,0,0,0,0,0,0,0,0,0,0,0,0,0,0,0,0,0,0,0,0,265,265,265,77,77,265,77,77,1073741903,265,265,265,265,265,265,265,1610612815,265,265,265,265,265,77,3221225550,265,265,265,265,1,1,1,1,1,1,1,265,265,265,265,265,265,265,265,265,0,83,77,77,1073741907,0,0,0,0,0,0,0,0,0,0,0,0,0,0,0,77,3221225551,1,0,0,0,0,0,0,0,0,0,0,0,0,0,0,0,0,0,0,0,265,265,2684354638,77,77,77,265,265,265,265,265,265,265,265,265,265,265,265,265,265,265,265,78,77,77,77,77,77,77,3221225550,265,265,265,265,265,265,265,265,265,265,265,265,265,265,3221225550,83,77,77,1073741907,0,0,0,0,0,0,0,0,0,0,0,0,0,0,0,78,3221225551,1,1,0,0,0,0,0,0,0,0,0,0,0,0,0,0,0,0,0,0,265,265,77,77,77,77,265,265,265,265,265,265,265,265,2684354638,265,265,265,265,265,265,265,265,78,77,77,77,77,77,77,3221225550,1,1,1,1,1,2147483726,2684354767,265,265,265,265,265,265,78,77,77,77,1073741907,2684354638,0,0,0,0,0,0,0,0,0,0,0,0,0,0,0,78,1,79,77,77,0,0,0,0,0,0,0,0,0,0,0,0,0,2147483726,0,0,265,265,78,77,77,77,3758096462,265,265,265,265,265,265,2684354638,1610612814,77,77,77,3758096462,265,265,265,265,265,265,265,79,77,77,77,77,3221225550,265,265,265,2147483726,1073741902,265,265,265,265,265,265,265,0,83,77,77,77,1610612814,0,0,0,0,0,0,0,0,0,0,0,0,0,0,0,0,1,79,77,77,3221225550,0,0,0,0,0,0,0,0,0,0,2147483726,77,77,0,0,0,265,265,265,265,78,77,3758096462,77,77,77,77,77,1610612814,2684354638,77,77,77,77,3758096462,265,265,265,265,265,265,265,265,265,265,1,78,77,77,77,1073741902,265,265,265,265,265,265,265,265,0,80,81,1073741905,1073741904,0,0,0,0,0,0,0,0,0,0,0,0,0,0,0,0,0,0,0,0,0,77,77,77,77,77,77,77,3221225550,0,2147483726,77,77,1073741902,0,0,0,0,265,265,265,265,265,78,77,265,265,265,265,265,2684354638,1073741902,265,265,265,78,77,3758096462,265,265,265,265,265,265,265,265,265,265,265,265,265,265,265,265,265,265,265,265,265,1,1,1,1,1,1,1,1,1,1,1,1,1,1,0,0,0,0,0,0,3221225550,2147483726,0,0,0,0,0,0,78,77,77,77,77,77,77,77,77,77,77,1073741902,0,0,0,0,0,0,0,265,265,265,265,78,3758096462,265,265,265,2684354638,1073741902,265,265,0,0,0,78,77,77,77,77,3758096462,265,265,265,265,265,265,265,265,265,265,265,265,265,265,2147483726,265,265,1,1,1,1,1,1,1,1,1,1,1,1,1,1,0,0,0,0,0,0,78,1073741902,0,0,0,0,0,0,0,0,0,0,0,0,0,1,0,0,0,79,77,1073741903,0,0,0,0,0,0,0,0,0,0,78,77,77,77,1073741902,83,77,1073741907,0,0,0,265,78,77,77,77,77,3758096462,265,265,265,265,265,265,265,265,265,265,265,265,2147483726,77,265,265,1,1,1,1,1,1,1,79,77,77,77,1,1,1,0,0,0,0,0,0,0,0,0,0,0,0,0,0,0,0,0,0,0,0,0,0,0,0,0,0,84,0,0,0,0,0,0,0,0,0,0,0,0,0,0,0,0,83,77,1073741907,0,0,0,0,265,265,265,265,78,77,3758096462,265,265,265,265,265,265,265,265,265,265,2147483726,77,1073741902,265,265,1,1,1,1,1,1,1,1,1,1,1,1,1,1,265,265,0,0,0,0,0,0,0,0,0,0,0,0,0,0,0,0,0,0,0,0,0,0,0,0,0,0,0,0,0,0,0,0,0,0,0,0,0,0,0,0,0,79,77,1073741903,1610612815,0,0,0,0,265,265,265,265,78,77,3758096462,265,265,265,265,265,265,265,265,2147483726,77,1073741902,265,265,265,1,1,1,1,1,3221225550,1,1,1,1,1,1,1,1,265,265,265,0,0,0,0,0,0,0,0,1,0,0,2684354643,3758096467,0,0,0,0,0,0,0,0,0,0,0,0,0,0,0,0,0,0,0,0,0,0,0,0,0,0,0,0,84,0,0,0,0,0,0,0,265,265,265,265,78,77,77,77,77,77,77,77,77,77,77,1073741902,265,265,265,265,1,1,1,1,1,77,1,1,1,1,1,1,1,1,265,265,265,0,0,0,0,0,0,0,0,0,2147483726,0,0,0,0,0,0,0,0,0,0,0,0,0,0,0,0,0,0,0,0,0,0,79,77,77,77,1073741903,0,0,0,0,0,0,0,0,0,0,0,0,0,0,0,0,265,78,77,77,77,77,77,77,77,77,1073741902,265,1,1,265,2684354638,1,1,1,1,1,78,3221225550,1,1,1,79,77,77,77,77,265,265,0,0,0,0,0,0,3221225550,0,2147483726,77,77,77,77,77,3221225550,0,0,0,0,0,0,0,0,0,0,0,0,0,0,0,0,0,0,0,0,0,0,0,0,0,0,0,0,0,0,0,0,0,0,0,0,0,265,265,265,265,265,265,265,265,265,265,79,77,77,1073741903,265,2684354638,77,1,1,1,1,1,1,77,3221225550,1,1,1,1,1,1,79,77,77,0,0,0,0,0,0,77,77,77,1073741902,0,0,0,0,0,0,0,0,0,0,0,0,0,0,0,0,0,0,0,0,0,0,0,0,0,0,0,0,0,0,0,0,0,0,0,0,0,0,0,0,0,265,265,265,265,265,265,265,265,265,265,265,265,265,265,265,265,536870990,1073741902,1,1,1,1,1,1,78,77,3221225550,1,1,1,1,1,265,265,265,0,0,0,0,0,0,78,77,1073741902,0,0,0,0,0,0,0,0,0,0,0,0,0,0,0,0,0,0,0,0,0,0,0,0,0,0,0,0,0,0,0,0,0,0,0,0,0,0,0,0,0,265,265,265,265,265,265,265,265,265,265,265,265,265,265,265,265,265,265,265,1,1,1,1,1,1,1,78,77,3221225550,1,1,1,1,265,265,265,0,0,0,0,0,0,0,0,0,0,0,0,0,0,0,0,0,0,0,0,0,0,0,0,0,0,0,0,0,0,0,0,0,0,0,0,0,0,0,0,0,0,0,0,0,0,0,0,0,265,265,265,265,265,265,265,265,77,77,1073741903,265,265,265,265,265,265,265,265,265,1,2147483727,1,1,3221225551,1,1,1,78,77,77,77,3221225550,1,265,265,265,0,0,0,0,0,0,0,0,0,0,0,0,0,0,0,0,0,0,0,0,0,79,77,77,1073741903,0,0,0,0,0,0,0,0,0,0,0,0,0,0,0,0,0,0,0,77,1073741903,0,0,265,265,79,77,77,1073741903,79,77,77,1073741903,265,265,265,265,265,265,265,265,265,265,265,265,79,77,77,1073741903,265,265,265,265,78,77,77,77,77,3221225550,265,265,0,0,0,0,0,0,0,0,0,0,0,0,0,0,0,0,0,0,0,0,0,0,0,0,0,0,0,0,0,0,79,77,77,1073741903,0,0,1,1,1,83,77,77,77,77,77,1073741907,0,265,265,265,265,265,265,265,265,265,265,265,265,265,265,265,265,265,265,265,265,265,1,265,265,265,265,265,265,265,265,265,265,265,265,78,77,77,77,77,0,0,0,0,0,0,0,0,0,0,0,0,0,79,77,0,0,77,1073741903,0,0,0,0,0,0,0,0,0,0,0,0,0,0,0,0,1,1,1,1,80,81,82,77,1073741906,1073741905,1073741904,0,265,265,265,265,265,265,265,265,265,265,265,265,265,265,265,265,265,265,265,265,265,2147483726,3758096462,265,265,265,265,265,265,265,265,265,265,265,265,265,78,77,77,0,0,0,0,0,0,0,0,0,0,0,0,0,0,79,77,77,1073741903,0,0,0,0,0,0,0,0,0,0,0,0,1,0,0,0,0,1,1,1,1,1,1,0,0,0,0,0,0,1,1,1,1,1,265,265,265,265,265,265,265,265,265,265,265,265,265,265,265,265,1073741902,265,265,265,265,265,265,265,265,265,265,265,265,265,265,265,265,265,0,0,0,0,0,0,0,0,0,0,0,0,0,0,0,84,84,0,0,0,0,0,0,0,0,0,0,0,0,0,1,0,0,0,0,0,1,1,1610612815,1,1,1,0,0,0,0,0,1,1,1,1,1,265,265,265,265,265,265,265,265,265,265,265,265,265,265,265,2147483726,1,265,265,265,265,265,265,265,265,265,265,265,265,265,265,265,265,265,0,0,0,0,0,0,0,77,77,0,0,0,0,0,0,0,0,0,0,0,0,0,0,0,0,0,0,0,0,0,1,1,0,0,0,0,0,0,0,0,0,0,0,0,0,0,0,1,1,1,1,1,265,265,265,265,265,265,265,265,265,265,265,2147483726,77,77,77,1073741902,265,265,265,265,265,265,265,265,265,265,265,265,265,265,265,265,265,265,0,0,0,0,0,0,0,78,1073741902,0,0,0,0,0,0,0,0,0,0,0,0,0,0,0,0,0,0,0,0,0,1,1,0,0,0,0,0,0,0,0,0,0,0,0,0,0,0,1,1,1,1,1,265,265,265,79,77,77,77,77,1073741903,265,265,1073741902,265,265,265,265,265,265,265,265,265,265,265,265,265,265,265,265,265,265,265,265,265,265,0,0,0,0,0,0,0,0,0,0,0,0,0,0,0,0,0,0,0,0,0,0,77,77,0,0,0,0,0,0,1,3221225551,1,0,0,0,0,0,0,0,0,0,0,0,0,0,0,1,1,1,1,1,1,536870991,536870991,536870991,536870991,536870991,265,265,265,265,2684354638,3221225550,265,265,265,265,265,265,2684354638,265,265,265,265,265,265,265,265,265,265,265,265,265,265,265,0,0,0,0,0,3221225550,1,1,0,0,2684354638,77,77,77,3758096462,0,0,79,77,77,77,77,1073741903,79,77,0,0,0,0,1,1,536870991,1610612815,1073741903,1,1,1,0,0,0,0,0,0,0,0,0,0,265,265,265,265,77,1,265,265,265,265,265,265,265,265,77,1610612814,78,3221225550,265,265,2684354638,77,77,1073741902,265,265,265,265,265,265,265,265,265,265,265,265,265,265,265,0,0,0,0,0,77,3221225550,1,0,0,1073741901,77,77,77,77,0,0,0,0,0,0,0,0,0,79,77,77,1073741903,0,0,0,0,0,0,1,1,1,1,0,0,79,77,77,77,1073741903,0,0,265,265,265,265,77,1,265,265,265,265,265,265,265,265,77,265,265,78,77,77,1073741902,265,265,265,265,265,265,265,265,265,265,265,265,265,265,265,265,265,265,0,0,0,0,0,1,78,77,77,77,77,1073741902,0,78,77,3221225550,0,0,0,0,0,0,0,0,0,0,0,0,0,0,0,0,0,0,0,1,1,1,0,0,0,0,0,0,0,0,0,536870991,536870991,536870991,536870991,536870991,1,77,77,77,77,77,3758096462,265,2684354638,1073741902,265,265,265,265,265,265,265,265,265,265,265,265,265,265,265,265,265,265,265,265,265,265,265,265,0,0,0,0,0,0,1,78,77,77,1073741902,0,0,0,78,77,77,77,77,77,77,77,3221225550,0,0,0,0,0,0,0,0,77,77,77,3758096462,0,0,0,0,0,0,0,0,0,0,0,0,0,0,0,0,1,2147483726,77,77,77,77,77,77,77,77,265,265,265,265,265,265,265,265,265,265,265,265,265,265,265,265,265,265,265,265,265,265,265,265,265,0,0,77,77,3221225550,0,0,0,0,0,0,0,0,0,0,78,77,77,77,77,77,77,77,77,77,3221225550,0,0,0,0,2147483726,77,77,77,77,77,3758096462,0,0,0,0,0,0,2684354638,77,77,3221225550,0,0,0,0,1,78,1073741902,0,0,0,0,536870990,77,1073741902,265,265,265,265,265,265,265,265,265,265,265,265,265,265,265,265,265,265,265,265,265,265,265,265,265,0,2147483726,0,0,78,3221225550,0,0,0,0,0,0,0,0,0,0,0,0,0,0,0,0,78,77,77,77,77,77,77,77,77,1073741902,0,0,536870990,77,77,77,77,77,77,77,77,77,77,77,77,77,77,1,1,1,1,0,0,0,0,0,0,0,0,0,0,0,265,265,265,265,265,265,265,265,265,265,265,265,265,265,265,265,265,265,265,265,265,265,0,1073741902,0,0,0,78,77,3221225550,0,0,0,0,0,0,0,0,0,0,0,0,0,0,0,0,0,78,77,77,77,77,1073741902,0,0,0,0,0,536870990,77,77,77,77,77,77,1610612814,0,0,78,77,77,1,1,1,0,0,0,0,0,0,0,0,0,0,0,0,0,0,0,0,0,0,0,265,265,265,265,265,265,265,265,265,265,265,265,265,265,265,2147483726,0,0,0,0,0,0,78,77,77,3221225550,0,0,0,0,0,0,0,0,0,0,0,0,0,0,0,0,0,0,0,0,0,0,0,0,0,0,0,0,0,0,0,0,0,0,0,0,0,0,3221225550,1,0,0,0,0,0,0,0,0,0,0,0,0,0,0,0,0,0,0,0,0,0,0,0,0,0,265,265,265,265,265,265,265,265,265,265,0,0,0,0,0,0,0,0,0,0,78,77,3221225550,0,0,0,0,0,0,0,0,0,0,0,0,0,0,0,0,0,0,0,0,0,0,0,0,0,0,0,0,0,0,0,0,0,0,0,0,1610612814,0,0,0,0,0,0,0,0,0,0,0,0,0,0,0,0,0,0,0,0,0,0,0,0,0,0,0,0,0,0,0,0,0,0,0,0,0,0,0,0,0,0,0,0,0,0,0,0,78,3221225550,0,0,0,0,0,0,0,0,0,0,0,0,0,0,0,0,0,0,0,0,0,0,0,0,0,0,0,0,0,0,0,0,0,0,0,0,0,0,0,0,0,0,0,0,0,0,0,0,0,0,0,0,0,0,0,0,0,0,0,0,0,0,0,0,0,0,0,0,0,0,0,0,0,0,0,0,0,0,0,0,0,0,0,0,0,78,0,0,0,0,0,0,0,0,0,0,0,0,0,0,0,0,0,0,0,0,0,0,0,0,0,0,0,0,0,0,0,0,0,0,0,0,0,0,0,0,0,0,0,0,0,0,0,0,0,0,0,0,0,0,0,0,0,0,0,0,0,0,0,0,0,0,0,0,0,0,0,0]},{"id":6,"name":"decoration_01","type":"tilelayer","x":0,"y":0,"width":86,"height":48,"opacity":1,"visible":true,"data":[0,0,0,0,0,0,0,0,0,0,0,0,0,0,0,0,0,0,0,0,0,0,0,0,0,0,0,0,0,0,0,0,0,0,0,0,0,0,0,0,0,0,0,0,0,0,0,0,0,0,0,0,0,1,309,0,0,0,0,0,0,0,0,0,0,0,0,0,0,0,0,0,0,0,0,0,0,0,0,0,0,0,0,0,0,0,0,0,0,0,0,0,0,0,0,0,0,0,0,0,0,0,0,0,0,0,0,0,0,0,0,0,0,0,0,0,0,0,0,0,0,0,0,0,0,0,0,0,0,0,0,0,0,0,0,0,0,0,0,1,373,0,0,0,436,437,245,0,0,0,0,0,0,0,0,0,0,0,0,0,0,0,0,0,0,0,0,0,0,0,0,0,0,0,0,0,436,437,0,0,0,0,0,0,0,0,0,0,0,0,0,0,0,0,0,0,0,0,0,0,0,0,0,0,1,1,1,1,1,1,1,1,1,1,1,1,1,1,1,1,1,1,1,562,167,171,1,1,1,1,500,501,309,1,1,1,0,0,0,0,0,0,0,0,0,0,0,0,0,0,0,0,0,0,0,0,0,0,0,0,0,308,500,501,96,0,0,0,0,0,0,0,0,0,0,0,0,0,0,1275,0,0,0,0,0,0,0,0,0,0,1,1,1,1,1,1,1,1,1,1,1,1,1,1,1,1,1,1,1,222,1,1,1,1,1,1,564,565,373,1,1,1,0,0,0,0,0,0,0,0,0,0,0,0,0,0,0,0,0,0,0,0,0,0,0,0,0,0,564,565,0,0,0,0,0,0,0,0,0,0,0,0,0,0,0,0,0,0,0,1276,0,0,0,0,0,0,1,1,1,1,1,1,1,1,1,1,1,114,115,1,167,1073741991,1,1,224,1011,1139,1139,1,401,399,3221225809,227,1,352,1331,1,1,0,0,0,0,0,0,0,0,0,0,0,0,0,0,0,0,1278,0,0,0,0,0,0,0,0,0,0,0,0,0,0,0,0,0,0,0,0,0,0,0,245,0,0,0,0,0,0,0,0,0,0,0,0,0,1,1,1,1,1,1,1,1,1005,1,1,178,179,1,308,1,1,1,227,1011,819,819,1011,1139,1,1,1,1,1,1073742049,1,1,0,0,0,0,0,0,0,0,0,0,0,0,0,0,0,0,0,0,0,0,0,0,0,0,0,0,0,0,0,436,437,0,0,0,0,0,0,0,0,0,309,0,0,0,1421,0,0,0,0,0,0,0,0,0,1,1,1,1,1,1,1,1004,1,1007,308,401,399,3221225809,1,1,1,1,1,1,1,1,1,1,1,1,1,1,1,95,1,1,0,0,0,0,0,0,1073743097,0,0,0,0,0,0,0,0,0,0,1275,0,0,0,0,0,0,0,0,0,0,0,500,501,1,1,1,1,1,1,1,1,1,373,0,0,0,0,0,0,0,0,0,0,0,0,0,1,1,1,1,226,228,227,1073742056,234,228,1,1,1,1,747,1,1,157,1064,1,1,1,1,1,1,1,1,1,156,1,1073741991,1004,1,1,1,0,0,1073743098,0,0,0,0,0,0,0,0,0,0,0,0,0,0,0,0,0,0,0,0,0,0,0,564,565,819,819,819,819,819,819,819,1,0,436,437,0,114,115,0,0,0,0,0,0,0,0,0,1,1,1,1,1,1073742056,1,1910,1911,1,1,1073742386,1,1,811,1,1,1,1,1,1,156,1,1,1,1,1,1,1,1,1006,1,1,1,1,0,0,0,0,0,1276,0,0,0,0,0,0,0,0,0,0,0,0,0,0,0,0,0,0,0,1073741986,0,0,0,1011,819,819,1011,819,883,883,0,500,501,308,178,179,0,0,0,0,0,0,0,265,265,1,92,1,562,1,1422,1,1974,1975,1420,1,1,1,1,811,1,1,1,1,1,1,1,1,1,1,1,1,1,1,1,308,1,1,1,1,0,0,0,0,0,0,0,0,0,0,0,0,0,0,0,0,0,0,0,0,0,0,0,0,0,0,0,0,0,883,1011,1011,1011,819,883,883,0,564,565,0,0,0,0,0,0,0,0,0,0,265,265,163,1,1,1073742113,1,1073742115,1,1,1421,1,1,1,227,156,875,288,1,1,1,1,401,399,3221225809,1,1073742114,1073742386,1,1,105,1,1,1,1,1,1,0,0,0,0,0,2684354766,0,0,0,0,0,0,0,0,0,0,0,0,0,0,0,0,0,0,0,0,0,0,0,819,819,819,1011,1011,1011,819,1,1,0,0,0,0,0,0,0,0,0,0,0,265,265,1,1,1,1,288,1,1,1,1,227,1,1,225,1,1,94,290,1,1,156,1,1,1,1,1,1,1,1,233,1,1,1,1,1,1,0,0,0,0,0,2684354767,0,0,3758096590,0,0,0,0,0,0,0,1421,0,0,0,0,0,0,0,0,105,0,105,0,0,0,0,819,819,819,1139,1139,1,0,114,115,305,1073742195,1073742194,0,0,0,0,0,1073742182,230,1,1,1,1062,1,1,1,1,1,1,1,1,1,1,1,1,1,1,1,1,1,1,1,1,1,1,1,1,104,168,168,171,1778,1779,1,0,0,0,0,0,289,207,208,3758096591,0,0,0,0,0,0,0,245,0,0,0,0,0,0,0,0,233,0,233,0,0,0,0,1139,819,1139,0,0,0,0,178,179,702,1073742259,1073742258,0,0,0,0,0,358,230,230,401,399,3221225809,1,1,1,1,1,1,224,1,1,1,1,1,1,177,1073743093,1073743092,242,243,1,1,1,1,287,1,1,1,1,1,1842,1843,1,0,234,0,1073742056,0,291,206,207,3758096592,284,0,0,0,0,0,0,309,436,437,0,0,0,0,0,0,233,0,233,0,0,0,0,0,0,0,1073741918,0,308,1,1,308,0,221,0,0,0,0,0,702,1073742182,294,230,1,1,1,1,1,1,1,1,1,1,1,1,1,227,1,1,1,1073743157,1073743156,306,307,95,1,1,1,1,1,1,1,1,1,1,1780,1781,0,0,0,0,0,0,0,747,222,0,0,0,1276,0,436,437,373,500,501,0,0,0,0,0,0,233,0,233,0,0,0,167,171,232,0,1073741995,1073741991,0,1,1,0,0,0,0,245,0,0,0,0,166,0,294,1,1,1,1,1,1,1,1,156,1,1,1,1,1,1,1,1,1,1,1,1266,1,1,1,1,1,156,1,1,291,1073743607,1073743606,1844,1845,0,0,0,0,0,234,0,811,0,0,436,437,0,0,500,501,0,564,565,0,0,0,0,0,0,233,0,233,0,0,0,0,0,0,0,0,0,0,1,1,0,0,0,245,309,1073742176,0,0,206,207,208,1,436,437,0,0,0,0,0,224,265,224,2147484059,308,1,1,1,1,1,1,1,1,1,401,399,3221225809,114,115,1,1,1,1,1073743671,1073743670,1610612943,288,0,0,0,0,0,0,0,875,234,0,500,501,0,0,564,565,0,0,0,0,0,0,0,0,0,233,0,233,0,0,0,0,0,0,0,0,0,0,0,0,0,0,0,309,373,0,308,0,0,0,0,1,500,501,0,0,0,0,227,0,265,1,1,226,114,115,1,1,1,1,1,1,1,1,1,290,178,179,1,1,1073742193,308,1,1,1,1,308,0,0,0,0,0,0,0,309,0,564,565,0,0,0,0,0,0,0,0,0,1,98,0,0,233,0,233,0,0,0,0,0,0,0,0,0,436,437,0,0,0,0,373,0,0,0,0,0,0,0,0,564,565,0,0,0,0,0,0,265,227,1,1073742065,178,179,1,1,1,1,1,1,1,1,1,1,1,1,1,1,288,1,1908,1909,1,0,242,243,0,0,0,0,0,0,373,1063,0,0,0,0,0,0,0,0,0,0,0,0,0,0,0,233,0,233,0,0,0,0,0,0,0,0,0,500,501,0,0,0,0,2229,0,0,0,0,0,0,0,0,0,0,0,0,0,0,562,308,0,1,1,1,1,242,243,1,1,1,1,1,1,1,1,1,1,1,1,1,1,290,1972,1973,0,0,306,307,0,0,0,0,0,0,0,1063,0,0,0,0,0,0,0,0,0,0,0,0,0,0,0,297,0,297,1,1,1,1,1,1,1,1,1526,1527,565,0,0,0,221,114,115,0,0,114,115,0,0,114,115,288,0,0,0,0,0,401,399,3221225809,1,1,177,306,307,1,1,1,1,1,1,1,167,168,1073741991,167,1073741992,1073741991,289,1,1,0,0,290,226,177,0,0,0,0,0,0,1062,0,1,1,1,0,1,1,0,0,0,0,0,0,0,0,0,228,0,1,1073741995,168,168,168,168,168,168,171,1590,1591,0,245,0,0,308,178,179,0,0,178,179,353,0,114,115,0,0,0,0,0,0,0,0,245,0,0,0,241,308,0,0,0,0,0,0,0,0,0,0,0,0,0,0,0,0,0,1073742115,1073742115,0,0,156,0,0,0,0,0,0,1011,1011,1011,0,0,1,1,0,0,0,0,1,1,1,1,0,0,0,1,1,1,1,1,1,1,1,1,1,1,0,309,0,0,0,0,0,0,0,0,0,156,649,178,179,0,0,0,0,0,0,0,0,309,0,224,0,114,115,0,0,0,0,0,220,370,371,0,1,114,115,0,0,617,617,0,436,437,1073742046,0,0,158,0,0,0,0,0,0,1011,1011,0,1,1,1,0,0,0,0,1,1,1,1,0,0,227,39,40,40,40,40,40,40,1073741863,1,1,1,0,373,0,0,0,0,0,308,0,0,1,0,649,2164,649,0,0,0,0,0,0,245,0,373,436,437,0,178,179,0,0,0,0,0,0,434,435,156,1,178,179,0,0,681,681,0,500,501,0,0,0,0,0,1073742056,1073742056,0,0,0,167,168,168,1,1,1,0,0,0,0,1,102,1,1,0,0,0,1,1,1,1,1,1,1,1524,1525,1,1,0,0,0,0,0,227,352,0,285,0,0,0,649,401,399,3221225809,0,0,0,0,0,309,0,0,500,501,0,0,0,0,0,0,0,0,0,242,243,0,0,0,0,0,0,741,0,0,564,565,0,0,0,880,0,0,0,0,0,0,1,1,1,206,207,208,0,0,0,0,1,2147484006,1,1,0,0,0,1,1,1,1,1,1,1,1588,1589,1,1,0,0,0,0,0,0,0,0,245,0,0,1423,226,94,0,2684354961,2684354897,0,352,0,0,373,0,0,564,565,0,0,0,242,243,0,0,0,0,306,307,0,0,0,3221225679,536871056,536871056,3221225678,399,3221225809,0,0,2164,2165,0,0,0,220,1073742115,0,0,0,1,1,1,1,1,0,0,0,0,0,1,166,1,1,0,0,0,1,1,1,1,1,1,1592,1,1522,1523,1,0,0,0,0,0,0,0,1421,309,226,227,309,0,0,226,536871313,536871249,156,0,0,0,0,0,0,0,0,0,0,0,306,307,0,0,0,0,0,0,0,0,0,1,1610612879,461,1610612943,1,0,1268,1269,0,0,0,0,0,0,0,617,0,0,1,1,1,1,1,0,0,0,0,0,0,0,0,745,746,0,0,0,1,1,1,1,1,1,1,1586,1587,0,0,0,0,0,0,114,115,0,373,0,0,373,0,0,225,227,0,0,0,1422,0,0,0,0,0,0,0,0,0,1610613135,177,1266,0,0,0,308,0,0,0,0,3221225615,1610612879,2684354703,2684354703,2147483792,1,1332,1333,114,115,265,680,265,265,265,681,680,0,0,1,1,1,1,0,0,0,0,0,0,0,0,651,937,746,0,0,1,1,1,1,1,1,1,1,1,0,0,0,0,0,288,178,179,0,0,0,0,2280,0,1073742049,0,0,0,0,0,0,0,0,0,0,0,0,1064,0,399,400,0,1266,0,3758096782,1065,536871312,0,3758096782,0,2684354767,461,461,461,2684354703,2147483792,1,1,1,178,179,615,741,1,1,1,741,741,0,0,1,1,1,1,0,0,0,0,0,0,1,1,809,809,810,0,0,0,1423,0,0,1592,0,0,0,0,1064,0,0,0,401,399,3221225809,0,0,0,114,115,2344,0,0,1063,1,1,160,0,0,0,0,0,0,0,0,0,880,1,1,1,536871311,3758096719,3758096783,0,536871311,3758096719,3758096783,0,206,3758096528,1073742031,2684354704,207,1073742030,1,1,1,1,1,679,1,1,1,1,265,616,234,0,232,0,0,0,0,0,0,0,0,0,1,230,873,873,874,0,0,0,0,0,0,0,0,0,0,0,1063,0,0,0,1,1,1,0,0,0,178,179,232,398,399,1610613137,1,1,981,920,921,1073742744,1073742805,401,399,3221225809,0,0,0,1,3221225872,3221225870,1,1,1,1,1,1,1,0,1,1,1,2684354959,1,1,1,1,1,1,1,743,616,616,1,1,265,741,0,0,291,0,0,0,0,0,0,0,0,0,1,294,1,0,0,1197,1198,1,0,0,0,0,0,0,0,0,0,0,0,0,0,0,0,0,0,0,0,0,0,0,0,2684354958,3221225870,0,2684354959,1,1,1,3758096783,0,0,0,0,0,0,0,2684354960,1610613134,0,167,168,168,168,168,168,1073741991,0,1,1,1,1,1,1,1,1,1,1,1,741,741,1,1,265,0,0,2231,0,0,0,0,0,0,0,0,0,0,0,0,0,0,0,1261,1262,1267,1331,0,0,0,0,401,399,3221225809,0,0,0,227,0,0,0,0,0,0,0,0,0,1,1,2684354960,400,0,401,920,921,1073742744,1073742225,0,0,0,0,0,436,437,0,0,0,0,0,0,1073742195,1073742194,0,0,0,0,0,1,1,1,1,1,1073742108,1,227,92,1,1,1,1,265,0,0,0,0,0,0,0,0,0,0,0,0,0,0,0,0,0,1,1325,1326,1,167,686,686,1073741991,0,0,0,0,0,0,0,0,436,437,0,0,0,0,0,0,0,107,168,168,168,168,168,171,1,0,0,0,0,0,0,0,500,501,0,0,0,0,0,0,1073742259,1073742258,0,0,0,0,308,223,1,1,1,1,1,1,228,1,1073742050,157,1,1,265,0,0,1274,0,0,0,0,0,0,0,0,0,0,0,0,0,228,0,1389,1390,1,0,0,0,0,0,436,437,0,0,0,1,1,500,501,168,168,1073741991,0,222,3221225871,92,301,0,0,0,0,0,1,1,0,0,0,0,0,114,115,564,565,0,0,242,243,0,0,0,562,0,0,0,0,1063,227,1,1073742046,1,1,1,1,1,224,1331,1,1,1,265,286,234,0,0,0,0,0,0,0,0,0,0,0,0,0,0,0,0,0,0,0,0,0,0,0,1073742112,500,501,0,0,0,0,0,564,565,0,0,0,0,337,225,222,237,0,0,0,0,0,1,0,0,0,0,0,0,178,179,0,0,0,0,306,307,174,111,109,110,111,112,0,562,1073742050,1,1,1,1,1,1,1,1,1,1,1,1,1,265,0,0,0,0,0,0,0,0,0,0,0,0,0,245,0,0,0,0,1,1,879,1,0,0,0,0,564,565,1064,1,1,1,1,614,615,0,0,0,0,401,0,1073742050,302,175,176,1,1,1,308,1073742049,0,308,0,0,0,0,0,114,115,0,0,177,174,1073742113,0,288,0,1073742386,0,0,702,0,1,1,1,1,1073742049,1,1,1,1,1,1,1,1,0,234,288,0,0,0,0,0,0,0,0,0,1,0,309,0,0,0,0,1,1,1,1,0,0,0,0,1,227,1063,1,0,1064,97,678,679,0,0,0,337,0,0,0,227,1,237,1,114,115,1073742049,0,157,0,0,0,0,1064,0,178,179,353,0,290,301,0,0,0,0,0,0,0,290,0,1,1073742115,1073742112,1,1,1,1,1,1,1,1,1,1,234,0,291,0,0,0,0,0,0,0,0,0,115,0,373,308,0,0,0,0,0,0,0,0,0,0,0,0,0,0,0,0,0,0,742,743,0,228,0,401,0,224,308,0,0,0,0,178,179,226,0,286,0,114,115,0,1331,0,288,109,110,111,175,1073742126,0,0,0,0,0,0,0,0,0,1,1,1,1,1,1,1,1,1,1,1,1,234,0,0,0,0,0,0,0,0,0,0,0,0,179,0,0,0,0,0,0,0,245,0,0,0,245,0,0,0,0,0,0,0,0,0,0,1,1,0,227,747,0,220,0,0,0,0,0,0,227,220,1421,1073742115,0,178,179,0,0,0,0,702,0,290,0,562,0,0,0,0,0,0,0,0,0,1,1,1,1,1,1,1,1,1,1,1,1,1,0,0,0,0,0,0,0,0,0,0,0,0,0,0,0,0,0,0,0,1073742386,309,0,114,115,309,0,0,0,0,0,0,0,0,0,0,0,0,0,0,811,0,0,0,1073742112,0,0,0,0,0,0,0,0,0,0,0,0,0,0,0,0,0,0,2684355118,0,0,0,0,291,0,0,0,0,0,0,0,0,1,1,1,0,0,0,0,0,0,0,0,0,0,0,0,0,0,0,0,0,0,0,0,0,1,1,1,0,0,0,373,94,178,179,373,0,0,0,0,0,0,0,0,0,234,0,0,0,0,811,0,0,0,1278,0,0,0,0,0,0,1422,0,0,0,0,0,0,1073743093,1073743092,0,0,0,2684355056,0,0,288,0,0,0,0,0,0,0,0,0,0,1,1,1,0,0,0,0,0,0,0,0,0,0,0,0,0,0,0,0,0,0,0,0,1,0,0,1,1073742387,0,1,0,0,0,0,0,0,0,436,437,0,0,0,0,0,0,0,1276,0,0,875,0,1275,0,0,0,0,0,0,0,1423,3221225885,0,0,0,0,0,0,1073743157,1073743156,0,0,0,2684355056,0,0,0,0,0,0,0,0,0,1,1910,1911,0,1,1,1,0,0,0,0,0,0,0,0,0,0,0,0,0,0,0,0,0,0,0,0,1,1778,1779,0,1,1,1,0,0,0,0,0,0,0,500,501,0,1420,0,0,0,0,0,0,0,0,0,0,0,0,0,0,0,0,0,0,0,0,0,0,0,1273,0,0,0,0,0,0,0,3221225969,497,0,0,93,0,0,289,0,0,290,1974,1975,0,0,0,0,0,0,1421,0,0,0,0,0,0,0,0,0,0,0,0,0,0,0,0,1,0,1842,1843,2684355118,429,429,1,1,1,499,0,0,0,0,564,565,1422,0,0,1073742114,295,1,295,1,295,361,362,0,234,0,0,0,1,1,1,0,1,1,1,1,0,0,0,0,0,0,0,0,1910,1911,3221225969,497,0,0,0,0,0,0,0,1,1,0,0,0,0,0,0,0,0,0,0,1,0,0,0,0,102,102,0,0,0,0,0,0,0,1073741902,0,288,0,3221226033,493,493,291,0,0,1,1,1,0,0,0,228,0,0,1,1,359,359,359,359,359,425,362,1073742113,0,0,0,0,1,1073741995,171,0,1,1,1,1,0,0,0,0,0,0,0,1422,1974,1975,1610613233,559,496,496,1610613297,496,1610613297,496,496,496,496,1073742382,291,0,0,0,0,0,0,0,0,102,230,0,0,0,166,166,0,0,0,0,0,0,0,0,0,1073742323,0,3221225969,496,496,497,290,1780,1781,0,1,563,0,0,94,0,0,1,1,423,1,423,423,423,423,0,0,0,1073742115,0,1,1073741986,1,1,1073741995,168,168,168,171,1,1,1073741917,1,1,0,1420,1073742113,0,1073742319,1073742318,3221226033,0,0,0,0,163,0,0,0,1910,1911,0,0,0,0,0,0,0,0,0,166,294,0,0,0,0,0,0,0,0,0,0,0,0,0,0,0,0,0,0,0,561,0,1844,1845,0,289,1,0,0,436,437,0,1,1,1,1,1073742115,1,1,0,0,0,0,0,0,159,1610613233,2684355121,496,496,2684355121,2684355121,496,496,496,2684355121,2684355121,496,496,496,2684355121,496,496,2684355057,0,3221226033,288,0,0,0,0,0,290,0,1974,1975,0,0,0,0,0,0,0,0,0,0,0,0,0,0,0,0,0,0,0,0,0,0,0]},{"id":7,"name":"forest","type":"tilelayer","x":0,"y":0,"width":86,"height":48,"opacity":1,"visible":true,"data":[0,0,0,0,0,0,0,0,0,0,0,0,0,0,0,0,0,0,0,0,0,0,0,0,0,0,0,0,0,0,0,0,0,0,0,0,0,0,4097,4098,4097,4098,4097,4098,0,0,0,0,0,0,0,0,0,0,0,0,0,0,0,0,0,0,0,0,0,0,0,0,0,0,0,0,0,0,0,0,0,0,0,0,0,0,0,0,0,0,0,0,0,0,0,0,0,0,0,0,0,0,0,0,0,0,0,0,0,0,0,0,0,0,0,0,0,0,0,0,0,0,0,0,0,0,0,0,4099,4100,4099,4100,4099,4100,0,0,0,0,0,0,0,0,0,0,0,0,0,0,0,0,0,0,0,0,0,0,0,0,0,0,0,0,0,0,0,0,0,0,0,0,0,0,0,0,0,0,0,0,0,0,0,0,0,0,0,0,0,0,4097,4098,4097,4098,4097,4098,4097,4098,4097,4098,4097,4098,0,0,0,0,0,0,0,0,0,0,0,0,0,0,4097,4098,4097,4098,4097,4098,0,0,0,0,0,0,0,0,0,0,0,0,0,0,0,0,0,0,0,0,0,0,0,0,0,0,0,0,0,0,0,0,0,0,0,0,0,0,0,0,0,0,0,0,0,0,0,0,0,0,0,0,0,0,4099,4100,4099,4100,4099,4100,4099,4100,4099,4100,4099,4100,0,0,0,0,0,0,0,0,0,0,0,0,0,0,4099,4100,4099,4100,4099,4100,0,0,0,0,0,0,0,0,0,0,0,0,0,0,0,0,0,0,0,0,0,0,0,0,0,0,0,0,0,0,0,0,0,0,0,0,0,0,0,0,0,0,0,0,0,0,0,0,0,0,0,0,4097,4098,4097,4098,4097,4098,4097,4098,4097,4098,4097,4098,4097,4098,4097,4098,4097,4098,0,0,0,0,0,0,0,0,0,0,4097,4098,4097,4098,4097,4098,0,0,0,0,0,0,0,0,0,0,0,0,0,0,0,0,0,0,0,0,0,0,0,0,0,0,0,0,0,0,0,0,0,0,0,0,0,0,0,0,0,0,0,0,0,0,0,0,0,0,0,0,4099,4100,4099,4100,4099,4100,4099,4100,4099,4100,4099,4100,4099,4100,4099,4100,4099,4100,0,0,0,0,0,0,0,0,0,0,4099,4100,4099,4100,4099,4100,0,0,0,0,0,0,0,0,0,0,0,0,0,0,0,0,0,0,0,0,0,0,0,0,0,0,0,0,0,0,0,0,0,0,0,0,0,0,0,0,0,0,0,0,0,0,0,0,0,0,0,0,4097,4098,4097,4098,4097,4098,4097,4098,4169,4170,4193,4194,4097,4098,4097,4098,4097,4098,0,0,0,0,0,0,0,0,0,0,4097,4098,4097,4098,4097,4098,0,0,0,0,0,0,0,0,0,0,0,0,0,0,0,0,0,0,0,0,0,0,0,0,0,0,0,0,0,0,0,0,0,0,0,0,0,0,0,0,0,0,0,0,0,0,0,0,0,0,0,0,4099,4100,4099,4100,4099,4100,4099,4100,4171,4172,4195,4196,4099,4100,4099,4100,4099,4100,0,0,0,0,0,0,0,0,0,0,4099,4100,4099,4100,4099,4100,0,0,0,0,0,0,0,0,0,0,0,0,0,0,0,0,0,0,0,0,0,0,0,0,0,0,0,0,0,0,0,0,0,0,0,0,0,0,0,0,0,0,0,0,0,0,0,0,0,0,0,0,4097,4098,4097,4098,4097,4098,4097,4098,4161,4162,4149,4150,4193,4194,4097,4098,4097,4098,0,0,0,0,0,0,0,0,0,0,4097,4098,4097,4098,4097,4098,0,0,0,0,0,0,0,0,0,0,0,0,0,0,0,0,0,0,0,0,0,0,0,0,0,0,0,0,0,0,0,0,0,0,0,0,0,0,0,0,0,0,0,0,0,0,0,0,0,0,0,0,4099,4100,4099,4100,4099,4100,4099,4100,4163,4164,4151,4152,4195,4196,4099,4100,4099,4100,0,0,0,0,0,0,0,0,0,0,4099,4100,4099,4100,4099,4100,0,0,0,0,0,0,0,0,0,0,0,0,0,0,0,0,0,0,0,0,0,0,0,0,0,0,0,0,0,0,0,0,0,0,0,0,0,0,0,0,0,0,0,0,0,0,0,0,0,0,0,0,4097,4098,4097,4098,4097,4098,4097,4098,4161,4162,4141,4142,4189,4190,4097,4098,4097,4098,4097,4098,4097,4098,4097,4098,4097,4098,0,0,0,0,0,0,0,0,0,0,0,0,0,0,0,0,0,0,0,0,0,0,0,0,0,0,0,0,0,0,0,0,0,0,0,0,0,0,0,0,0,0,0,0,0,0,0,0,0,0,0,0,0,0,0,0,0,0,0,0,4099,4100,4099,4100,4099,4100,4099,4100,4163,4164,4143,4144,4191,4192,4099,4100,4099,4100,4099,4100,4099,4100,4099,4100,4099,4100,0,0,0,0,0,0,0,0,0,0,0,0,0,0,0,0,0,0,0,0,0,0,0,0,0,0,0,0,0,0,0,0,0,0,0,0,0,0,0,0,0,0,0,0,0,0,0,0,0,0,0,0,0,0,0,0,0,0,0,0,0,0,4097,4098,4097,4098,4097,4098,4201,4202,4197,4198,4205,4206,4097,4098,4097,4098,4097,4098,4097,4098,4097,4098,4097,4098,4097,4098,0,0,0,0,0,0,0,0,0,0,0,0,0,0,0,0,0,0,0,0,0,0,0,0,0,0,0,0,0,0,0,0,0,0,0,0,0,0,0,0,0,0,0,0,0,0,0,0,0,0,0,0,0,0,0,0,0,0,0,0,4099,4100,4099,4100,4099,4100,4203,4204,4199,4200,4207,4208,4099,4100,4099,4100,4099,4100,4099,4100,4099,4100,4099,4100,4099,4100,0,0,0,0,0,0,0,0,0,0,0,0,0,0,0,0,0,0,0,0,0,0,0,0,0,0,0,0,0,0,0,0,0,0,0,0,0,0,0,0,0,0,0,0,0,0,0,0,0,0,0,0,0,0,0,0,0,0,0,0,0,0,0,0,0,0,0,0,4097,4098,4097,4098,4097,4098,4097,4098,4097,4098,4097,4098,4097,4098,4097,4098,4097,4098,0,0,0,0,0,0,0,0,0,0,0,0,0,0,0,0,0,0,0,0,0,0,0,0,0,0,0,0,0,0,0,0,0,0,0,0,0,0,0,0,0,0,0,0,0,0,0,0,0,0,0,0,0,0,0,0,0,0,0,0,0,0,0,0,0,0,0,0,4099,4100,4099,4100,4099,4100,4099,4100,4099,4100,4099,4100,4099,4100,4099,4100,4099,4100,0,0,0,0,0,0,0,0,0,0,0,0,0,0,0,0,0,0,0,0,0,0,0,0,0,0,0,0,0,0,0,0,0,0,0,0,0,0,0,0,0,0,0,0,0,0,0,0,0,0,0,0,0,0,0,0,0,0,0,0,0,0,0,0,0,0,0,0,0,0,4097,4098,4169,4170,4153,4154,4193,4194,4097,4098,4097,4098,4097,4098,4097,4098,0,0,0,0,0,0,0,0,0,0,0,0,0,0,0,0,0,0,0,0,0,0,0,0,0,0,0,0,0,0,0,0,0,0,0,0,0,0,0,0,0,0,0,0,0,0,0,0,0,0,0,0,0,0,0,0,0,0,0,0,0,0,0,0,0,0,0,0,0,0,4099,4100,4171,4172,4155,4156,4195,4196,4099,4100,4099,4100,4099,4100,4099,4100,0,0,0,0,0,0,0,0,0,0,0,0,0,0,0,0,0,0,0,0,0,0,0,0,0,0,0,0,0,0,0,0,0,0,0,0,0,0,0,0,0,0,0,0,0,0,0,0,0,0,0,0,0,0,0,0,0,0,0,0,0,0,0,0,0,0,0,0,0,0,0,0,4161,4162,4249,4250,4149,4150,4153,4154,4193,4194,4097,4098,0,0,0,0,0,0,0,0,0,0,4169,4170,4153,4154,4153,4154,4193,4194,4097,4098,4097,4098,4097,4098,4097,4098,0,0,0,0,0,0,0,0,0,0,0,0,0,0,0,0,0,0,0,0,0,0,0,0,0,0,0,0,0,0,0,0,0,0,0,0,0,0,0,0,0,0,0,0,0,0,0,0,4163,4164,4251,4252,4151,4152,4155,4156,4195,4196,4099,4100,0,0,0,0,0,0,0,0,0,0,4171,4172,4155,4156,4155,4156,4195,4196,4099,4100,4099,4100,4099,4100,4099,4100,0,0,0,0,0,0,0,0,0,0,0,0,0,0,0,0,0,0,0,0,0,0,0,0,0,0,0,0,0,0,0,0,0,0,0,0,0,0,0,0,0,0,0,0,0,0,0,0,4161,4162,4209,4210,4181,4182,4197,4198,4205,4206,4097,4098,4097,4098,4097,4098,0,0,0,0,0,0,4161,4162,4209,4210,4141,4142,4149,4150,4193,4194,4097,4098,4097,4098,4097,4098,0,0,0,0,0,0,0,0,0,0,0,0,0,0,0,0,0,0,0,0,0,0,0,0,0,0,0,0,0,0,0,0,0,0,0,0,0,0,0,0,0,0,0,0,0,0,0,0,4163,4164,4211,4212,4183,4184,4199,4200,4207,4208,4099,4100,4099,4100,4099,4100,0,0,0,0,0,0,4163,4164,4211,4212,4143,4144,4151,4152,4195,4196,4099,4100,4099,4100,4099,4100,0,0,0,0,0,0,0,0,0,0,0,0,0,0,0,0,0,0,0,0,0,0,0,0,0,0,0,0,0,0,0,0,0,0,0,0,0,0,0,0,0,0,4169,4170,4153,4154,4193,4194,4201,4202,4197,4198,4205,4206,4097,4098,4097,4098,4097,4098,4097,4098,4097,4098,4097,4098,4097,4098,0,0,4161,4162,4209,4210,4249,4250,4141,4142,4149,4150,4193,4194,4097,4098,4097,4098,4097,4098,0,0,0,0,0,0,0,0,0,0,0,0,0,0,0,0,0,0,0,0,0,0,0,0,0,0,0,0,0,0,0,0,0,0,0,0,0,0,0,0,4171,4172,4155,4156,4195,4196,4203,4204,4199,4200,4207,4208,4099,4100,4099,4100,4099,4100,4099,4100,4099,4100,4099,4100,4099,4100,0,0,4163,4164,4211,4212,4251,4252,4143,4144,4151,4152,4195,4196,4099,4100,4099,4100,4099,4100,0,0,0,0,0,0,0,0,0,0,0,0,0,0,0,0,0,0,0,0,0,0,0,0,0,0,0,0,0,0,0,0,0,0,0,0,0,0,4097,4098,4201,4202,4157,4158,4189,4190,0,0,4097,4098,4097,4098,4097,4098,4097,4098,4097,4098,4097,4098,4097,4098,4097,4098,4097,4098,0,0,4201,4202,4197,4198,4157,4158,4209,4210,4181,4182,4205,4206,4097,4098,4097,4098,4097,4098,0,0,0,0,0,0,0,0,0,0,0,0,0,0,0,0,0,0,0,0,0,0,0,0,0,0,0,0,0,0,0,0,0,0,0,0,0,0,4099,4100,4203,4204,4159,4160,4191,4192,0,0,4099,4100,4099,4100,4099,4100,4099,4100,4099,4100,4099,4100,4099,4100,4099,4100,4099,4100,0,0,4203,4204,4199,4200,4159,4160,4211,4212,4183,4184,4207,4208,4099,4100,4099,4100,4099,4100,0,0,0,0,0,0,0,0,0,0,0,0,0,0,0,0,0,0,0,0,0,0,0,0,0,0,0,0,0,0,0,0,0,0,0,0,0,0,4097,4098,4097,4098,4201,4202,4205,4206,4169,4170,4153,4154,4193,4194,4097,4098,4097,4098,4097,4098,4097,4098,4097,4098,4097,4098,4097,4098,0,0,0,0,0,0,4201,4202,4197,4198,4205,4206,4097,4098,4097,4098,4097,4098,4097,4098,0,0,0,0,0,0,0,0,0,0,0,0,0,0,0,0,0,0,0,0,0,0,0,0,0,0,0,0,0,0,0,0,0,0,0,0,0,0,4099,4100,4099,4100,4203,4204,4207,4208,4171,4172,4155,4156,4195,4196,4099,4100,4099,4100,4099,4100,4099,4100,4099,4100,4099,4100,4099,4100,0,0,0,0,0,0,4203,4204,4199,4200,4207,4208,4099,4100,4099,4100,4099,4100,4099,4100,0,0,0,0,0,0,0,0,0,0,0,0,0,0,0,0,0,0,0,0,0,0,0,0,0,0,0,0,0,0,0,0,0,0,0,0,0,0,4097,4098,4097,4098,4097,4098,0,0,4161,4162,4209,4210,4189,4190,4097,4098,4097,4098,4097,4098,4097,4098,4097,4098,4097,4098,0,0,0,0,0,0,0,0,0,0,0,0,4097,4098,4097,4098,4097,4098,4097,4098,0,0,0,0,0,0,0,0,0,0,0,0,0,0,0,0,0,0,0,0,0,0,0,0,0,0,0,0,0,0,0,0,0,0,0,0,0,0,0,0,4099,4100,4099,4100,4099,4100,0,0,4163,4164,4211,4212,4191,4192,4099,4100,4099,4100,4099,4100,4099,4100,4099,4100,4099,4100,0,0,0,0,0,0,0,0,0,0,0,0,4099,4100,4099,4100,4099,4100,4099,4100,0,0,0,0,0,0,0,0,0,0,0,0,0,0,0,0,0,0,0,0,0,0,0,0,0,0,0,0,0,0,0,0,0,0,0,0,0,0,0,0,0,0,0,0,0,0,0,0,4201,4202,4197,4198,4205,4206,4097,4098,4097,4098,4097,4098,4097,4098,0,0,0,0,0,0,0,0,4169,4170,4153,4154,4153,4154,4153,4154,4193,4194,4097,4098,4097,4098,0,0,0,0,0,0,0,0,0,0,0,0,0,0,0,0,0,0,0,0,0,0,0,0,0,0,0,0,0,0,0,0,0,0,0,0,0,0,0,0,0,0,0,0,0,0,0,0,0,0,4203,4204,4199,4200,4207,4208,4099,4100,4099,4100,4099,4100,4099,4100,0,0,0,0,0,0,0,0,4171,4172,4155,4156,4155,4156,4155,4156,4195,4196,4099,4100,4099,4100,0,0,0,0,0,0,0,0,0,0,0,0,0,0,0,0,0,0,0,0,0,0,0,0,0,0,0,0,0,0,0,0,0,0,0,0,0,0,0,0,0,0,0,0,0,0,0,0,0,0,0,0,0,0,4097,4098,4097,4098,4097,4098,4097,4098,4097,4098,0,0,0,0,0,0,4169,4170,4145,4146,4209,4210,4249,4250,4209,4210,4189,4190,0,0,0,0,0,0,0,0,0,0,0,0,0,0,0,0,0,0,0,0,0,0,0,0,0,0,0,0,0,0,0,0,0,0,0,0,0,0,0,0,0,0,0,0,0,0,0,0,0,0,0,0,0,0,0,0,0,0,4099,4100,4099,4100,4099,4100,4099,4100,4099,4100,0,0,0,0,0,0,4171,4172,4147,4148,4211,4212,4251,4252,4211,4212,4191,4192,0,0,0,0,0,0,0,0,0,0,0,0,0,0,0,0,0,0,0,0,0,0,0,0,0,0,0,0,0,0,0,0,0,0,0,0,0,0,0,0,0,0,0,0,0,0,0,0,0,0,0,0,0,0,0,0,0,0,0,0,0,0,0,0,0,0,0,0,0,0,0,0,0,0,4161,4162,4249,4250,4249,4250,4181,4182,4197,4198,4205,4206,0,0,0,0,0,0,0,0,0,0,0,0,0,0,0,0,0,0,0,0,0,0,0,0,0,0,0,0,0,0,0,0,0,0,0,0,0,0,0,0,0,0,0,0,0,0,0,0,0,0,0,0,0,0,0,0,0,0,0,0,0,0,0,0,0,0,0,0,0,0,0,0,0,0,4163,4164,4251,4252,4251,4252,4183,4184,4199,4200,4207,4208,0,0,0,0,0,0,0,0,0,0,0,0,0,0,0,0,0,0,0,0,0,0,0,0,0,0,0,0,0,0,0,0,0,0,0,0,0,0,0,0,0,0,0,0,0,0,0,0,0,0,0,0,0,0,0,0,0,0,0,0,0,0,0,0,0,0,0,0,0,0,0,0,0,0,4201,4202,4197,4198,4197,4198,4205,4206,4097,4098,4097,4098,0,0,0,0,0,0,0,0,0,0,0,0,0,0,0,0,0,0,0,0,0,0,0,0,0,0,0,0,0,0,0,0,0,0,0,0,0,0,0,0,0,0,0,0,0,0,0,0,0,0,0,0,0,0,0,0,0,0,0,0,0,0,0,0,0,0,0,0,0,0,0,0,0,0,4203,4204,4199,4200,4199,4200,4207,4208,4099,4100,4099,4100,0,0,0,0,0,0,0,0,0,0,0,0,0,0,0,0,0,0,0,0,0,0,0,0,0,0,0,0,0,0,0,0,0,0,0,0,0,0,0,0,0,0,0,0,0,0,0,0,0,0,0,0,0,0,0,0,0,0,0,0,0,0,0,0,0,0,0,0,0,0,0,0,0,0,0,0,4097,4098,4097,4098,4097,4098,4097,4098,4097,4098,0,0,0,0,0,0,0,0,0,0,0,0,0,0,0,0,0,0,0,0,0,0,0,0,0,0,0,0,0,0,0,0,0,0,0,0,0,0,0,0,0,0,0,0,0,0,0,0,0,0,0,0,0,0,0,0,0,0,0,0,0,0,0,0,0,0,0,0,0,0,0,0,0,0,0,0,4099,4100,4099,4100,4099,4100,4099,4100,4099,4100,0,0,0,0,0,0,0,0,0,0,0,0,0,0,0,0,0,0,0,0,0,0,0,0,0,0,0,0,0,0,0,0,0,0,0,0,0,0,0,0,0,0,0,0,0,0,0,0,0,0,0,0,0,0,0,0,0,0,0,0,0,0,0,0,0,0,0,0,0,0,0,0,0,0,0,0,4097,4098,4097,4098,4097,4098,4097,4098,4097,4098,0,0,0,0,0,0,0,0,0,0,0,0,0,0,0,0,0,0,0,0,0,0,0,0,0,0,0,0,0,0,0,0,0,0,0,0,0,0,0,0,0,0,0,0,0,0,0,0,0,0,0,0,0,0,0,0,0,0,0,0,0,0,0,0,0,0,0,0,0,0,0,0,0,0,0,0,4099,4100,4099,4100,4099,4100,4099,4100,4099,4100,0,0,0,0,0,0,0,0,0,0,0,0,0,0,0,0,0,0,0,0,0,0,0,0,0,0,0,0,0,0,0,0,0,0,0,0,0,0,0,0,0,0,0,0,0,0,0,0,0,0,0,0,0,0,0,0,0,0,0,0,0,0,0,0,0,0,0,0,0,0,0,0,0,0,0,0,0,0,0,0,0,0,0,0,0,0,0,0,0,0,0,0,0,0,0,0,0,0,0,0,0,0,0,0,0,0,0,0,0,0,0,0,0,0,0,0,0,0,0,0,0,0,0,0,0,0,0,0,0,0,0,0,0,0,0,0,0,0,0,0,0,0,0,0,0,0,0,0,0,0,0,0,0,0,0,0,0,0,0,0,0,0,0,0,0,0,0,0,0,0,0,0,0,0,0,0,0,0,0,0,0,0,0,0,0,0,0,0,0,0,0,0,0,0,0,0,0,0,0,0,0,0,0,0,0,0,0,0,0,0,0,0,0,0,0,0,0,0,0,0,0,0,0,0,0,0,0,0,0,0,0,0,0,0,0,0,0,0,0,0,0,0,0,0,0,0,0,0,0,0,0,0,0,0,0,0,0,0,0,0,0,0,0,0,0,0,0,0,0,0,0,0,0,0,0,0,0,0,0,0,0,0,0,0,0,0,0,0,0,0,0,0,0,0,0,0,0,0,0,0,0,0,0,0,0,0,0,0,0,0,0,0,0,0,0,0,0,0,0,0,0,0,0,0,0,0,0,0,0,0,0,0,0,0,0,0,0,0,0,0,0,0,0,0,0,0,0,0,0,0,0,0,0,0,0,0,0,0,0,0,0,0,0,0,0,0,0,0,0,0,0,0,0,0,0,0,0,0,0,0,0,0,0,0,0,0,0,0,0,0,0,0,0,0,0,0,0,0,0,0,0,0,0,0,0,0,0,0,0,0,0,0,0,0,0,0,0,0,0,0,0,0,0,0,0,0,0,0,0,0,0,0,0,0,0,0,0,0,0,0,0,0,0,0,0,0,0,0,0,0,0,0,0,0,0,0,0,0,0,0,0,0,0,0,0,0,0,0,0,0,0,0,0,0,0,0,0,0,0,0,0,0,0,0,0,0,0,0,0,0,0,0,0,0,0,0,0,0,0,0,0,0,0,0,0,0,0,0,0,0,0,0,0,0,0,0,0,0,0,0,0,0,0,0,0,0,0,0,0,0,0,0,0,0,0,0,0,0,0,0,0,0,0,0,0,0]},{"id":8,"name":"building","type":"tilelayer","x":0,"y":0,"width":86,"height":48,"opacity":1,"visible":true,"data":[0,0,0,0,0,0,0,0,0,0,0,0,0,0,0,0,0,0,0,0,0,0,0,0,0,0,0,0,0,0,0,0,0,0,0,0,0,0,0,0,0,0,0,0,0,0,0,0,0,0,0,0,0,0,1073742813,1073742492,985,668,989,0,0,0,0,0,0,0,0,0,0,0,0,0,0,0,0,0,0,0,0,0,0,0,0,0,0,0,0,0,0,0,0,0,0,0,0,0,0,0,0,0,0,0,0,0,0,0,0,1,1,1,0,0,0,0,0,0,0,0,0,0,0,0,0,0,0,0,0,0,0,592,593,594,0,0,0,0,0,0,0,0,1073742557,1073742556,657,1073742429,733,0,0,0,0,0,0,0,0,0,0,0,0,0,0,0,0,0,0,0,0,0,0,0,0,0,0,0,0,0,0,0,0,0,0,0,0,0,0,0,0,0,0,0,0,0,0,0,0,1,1,1,0,0,0,0,1616,1617,1617,1618,0,1,1,1,1,1,0,0,0,0,0,784,785,786,1,1,0,0,0,0,0,0,789,1073742620,793,796,797,0,0,0,0,0,0,1,1,1,1,1,1,1,1,1,0,0,0,0,0,0,0,0,0,0,0,0,0,0,0,0,0,0,0,0,0,0,0,0,0,0,0,0,0,0,0,0,0,1,1,1,0,0,0,0,1744,1683,1683,1073743568,0,1,1,1,1,1,1,0,0,0,0,848,913,674,675,1,0,0,0,0,0,0,853,866,1073742734,866,861,0,0,0,0,0,0,1,1,1,1,1,1,1,1073743954,2129,2129,2130,0,0,0,0,0,0,0,0,0,0,0,0,0,0,0,0,0,0,0,0,0,0,0,0,0,0,0,0,0,0,0,1,1,1,1,1,0,0,1808,1809,1073743633,1073743632,0,1,1,1,1,1,1,0,0,0,0,912,866,802,803,1,0,0,0,0,0,0,0,0,0,0,0,0,0,0,0,0,0,1,1,1,1,1,1,1,2320,2321,2197,2322,0,0,0,0,0,0,0,0,0,0,0,0,0,0,0,0,0,1,1,1,1,1,1,1,1,1,1,0,0,0,0,0,0,0,0,0,1,1,1872,1937,1937,1073743696,0,1,1,1,1,1,1,0,0,0,0,912,977,866,867,1,0,0,0,0,0,0,0,0,0,0,0,0,0,0,0,0,0,1,1,1,1,1,1,1,2320,2321,2321,2322,0,0,0,0,0,0,0,0,0,0,0,0,0,0,0,0,1,1,1,1,1,1,1,1,1,1,1,0,0,0,0,0,0,0,1,1,1,0,0,1616,1617,1617,1617,1617,1617,1618,1,1,1,0,0,0,436,437,0,0,0,0,0,0,0,592,593,593,593,594,0,0,0,0,0,0,0,0,0,0,1,1,1,1,1,1,1073742797,1033,1033,973,0,0,0,0,0,0,0,0,0,0,0,0,0,0,0,0,1,1,1,1,1,1,1,1,1,1,1,0,0,0,0,0,0,0,1,1,1,0,0,1680,1683,1683,1683,1683,1683,1682,0,0,0,0,0,0,500,501,245,0,0,0,0,0,649,720,659,659,659,722,0,0,0,0,0,0,0,0,0,0,1,1,1,1,1,0,1073742797,974,1037,973,1,1,1,649,649,649,0,0,0,0,0,0,0,0,0,0,1,1,1,1,1,1,1,1,1,1,1,0,0,0,0,0,0,0,1,1,1,0,0,1073743570,1683,1683,1683,1683,1683,1746,0,0,0,0,0,0,564,565,309,0,0,0,0,0,649,784,1073742485,1073742609,785,1073742608,0,0,0,0,0,649,649,649,0,0,1,1,1,1,1,0,1073742797,1073742862,1037,973,1,1,1,649,649,649,0,0,0,0,0,0,0,0,0,0,1,1,1,1,1,1,1,1,1,1,1,0,0,0,0,0,0,0,0,0,0,0,0,1073743634,1809,1809,1809,1809,1809,1810,649,0,0,0,0,0,0,0,373,0,0,0,0,0,649,848,913,977,913,1073742672,0,0,0,0,0,649,649,649,0,0,1,1,1,1,1,1,1073744210,1037,1033,2386,1,1,1,1,1,1,1,1,0,0,0,0,0,0,0,0,1,1,1,1,1,1,1,1,1,1,1,0,0,0,0,0,0,0,0,0,0,0,0,1808,1809,1809,1809,1809,1809,1810,649,0,0,0,0,0,0,0,0,0,0,0,0,0,0,0,0,0,0,0,0,0,0,0,0,649,649,649,0,0,1,1,1,1,1,1,2448,975,975,2450,1,1,1,1,1,1,1,1,0,0,0,0,0,0,0,0,1,1,1,1,1,1,1,1,1,1,1,0,0,0,0,0,0,0,0,0,0,0,0,1872,1937,1937,1809,1809,1809,1810,649,0,0,0,0,0,0,0,0,0,0,0,0,0,0,649,649,649,649,0,0,0,0,0,0,0,0,0,0,0,1,1,1,1,1,1,1073744210,1038,1039,2386,1,1,1,1,1,1,1,1,0,0,0,0,0,0,0,0,0,0,0,1,1,1,1,1,1,1,1,0,0,0,0,0,0,0,0,0,0,0,0,1073742749,986,1942,578,2001,2001,1874,649,0,0,0,0,0,0,0,0,0,0,0,0,0,0,649,1,1073742930,1105,1105,1106,0,0,0,0,0,0,0,1,1,1,0,0,0,0,1,1,1,1,1,1,1,1,1,1,1,1,1,1,1,0,0,0,0,0,0,0,0,0,0,0,1,1,1,1,1,1,0,0,0,0,0,0,0,0,0,0,0,0,0,0,1936,866,1073743760,649,649,649,0,0,0,0,0,0,0,0,0,0,0,0,0,649,649,1,1232,1171,1171,1170,0,0,0,0,0,0,0,1,1,1,0,0,0,0,1,1,1,1,1,1,1,1,1,1,1,1,1,1,1,0,0,0,0,0,0,0,0,0,0,0,0,0,0,0,0,0,0,0,0,0,0,0,0,0,0,0,0,0,0,0,1073742749,986,925,649,649,649,0,0,0,2145,2146,2147,0,0,0,0,0,0,0,649,649,1,1296,1297,1297,1298,0,0,0,0,0,0,0,1,1,1,0,0,0,0,1,1,1,1,1,1,1,1,1,1,1,1,1,1,1,0,0,0,0,0,0,0,0,0,0,0,0,0,0,0,0,0,0,0,0,0,0,0,0,0,0,0,0,0,0,0,0,0,0,0,0,0,0,0,0,2337,2338,2339,0,0,436,437,0,0,0,649,649,649,1360,1425,1489,1362,0,0,0,0,0,0,0,1,1,1,0,0,0,0,1,1,1,1,1,1,1,585,581,581,581,581,581,581,581,0,0,0,0,0,0,0,0,0,0,0,0,0,0,0,0,0,0,0,0,0,0,0,0,0,0,0,0,0,0,0,0,0,0,0,0,0,0,0,0,2401,2402,2403,0,0,500,501,245,0,0,0,0,0,0,0,0,0,0,0,0,0,0,0,0,1,1,1,0,0,0,0,1,1,1,1,1,585,581,579,578,587,578,578,578,578,578,0,0,0,0,0,0,0,0,0,0,0,0,0,0,0,0,0,0,0,0,0,0,1121,1122,1123,0,0,0,0,0,0,0,0,0,0,0,0,0,649,649,1073744210,2402,2386,0,0,564,565,309,436,437,0,0,0,0,0,0,0,0,0,0,0,0,0,0,0,0,0,0,0,0,0,1,1,1,1,1,583,578,578,578,587,578,578,578,578,578,0,0,0,0,0,0,0,0,0,0,0,0,0,0,0,0,0,0,0,0,0,0,1313,1314,1315,0,0,0,0,0,0,0,0,0,0,0,0,0,649,649,1073744210,2402,2386,0,0,0,0,373,500,501,0,0,0,0,0,0,0,0,0,0,0,0,0,0,0,0,0,0,0,0,0,1,1,1,1,1,583,578,578,578,578,578,578,578,578,578,0,0,0,0,0,0,0,0,0,0,0,0,0,0,0,0,0,0,0,0,0,0,1377,846,1379,0,0,0,0,0,0,0,1073743954,2129,2129,2129,2130,0,649,649,2448,910,2450,0,0,0,0,0,564,565,0,0,0,0,0,0,0,0,0,0,0,0,0,0,1,0,0,0,0,0,0,0,649,649,1,1,647,646,646,582,578,578,578,578,578,578,0,1,1,1,0,0,0,0,0,0,0,0,0,0,0,0,0,0,0,0,0,0,0,0,0,0,0,0,0,0,0,0,2320,2321,2197,2321,2322,0,0,0,0,0,0,0,0,0,0,0,0,0,0,0,0,0,0,0,0,0,0,0,0,0,0,1943,1691,1693,1,0,0,0,0,0,0,0,649,649,649,649,649,583,578,578,578,578,578,578,0,673,674,675,0,0,0,0,0,0,0,0,0,0,0,0,0,0,0,0,0,0,0,0,0,0,0,0,0,0,0,0,2320,2321,2321,2321,2322,0,0,0,0,0,0,0,0,0,0,0,0,0,0,0,0,0,0,0,0,0,0,0,0,0,1073743517,2007,1750,1757,1,0,0,0,0,0,0,0,649,649,649,649,649,583,578,578,578,578,578,578,0,801,802,803,0,0,0,0,0,0,0,0,0,0,0,0,0,0,0,0,0,0,0,0,0,0,0,0,0,0,0,0,2384,2449,2449,2449,2386,0,0,0,0,0,0,0,0,0,0,0,0,0,0,0,0,0,0,0,0,0,0,0,0,0,1749,1750,1751,1821,1,0,0,0,0,0,0,0,0,0,0,0,649,583,578,578,578,578,578,578,0,865,866,867,0,0,0,0,0,0,0,0,0,0,0,0,0,0,0,0,0,0,0,0,0,0,0,0,0,0,0,0,2448,781,2402,2402,1073744272,0,0,0,0,0,0,0,0,0,0,0,0,0,0,0,0,649,649,649,0,0,0,0,0,0,1813,1814,1815,1,1,0,0,0,0,0,0,0,0,0,0,0,0,647,646,717,646,582,578,578,0,1073742749,986,925,0,0,0,0,0,0,0,0,0,0,0,0,0,0,0,0,0,0,0,0,0,0,0,0,0,0,0,0,0,0,0,0,0,0,0,0,918,919,1432,1073742743,1073742742,0,0,0,0,0,0,0,0,649,1616,1617,1617,1617,1617,1618,649,649,1877,1073742605,1890,1938,0,0,0,0,0,0,0,0,0,0,0,0,0,0,649,649,649,647,646,646,0,0,2657,2658,2659,0,0,0,0,0,0,0,0,0,0,0,0,0,0,0,0,1073742930,1105,1105,1106,0,0,0,0,0,0,0,0,0,0,0,0,0,0,1073743325,982,983,595,1073742807,1073742806,1501,649,649,0,0,1073742930,1073742929,1073742929,1106,1073743506,1683,1683,1683,1683,1682,649,649,649,649,0,0,0,0,0,0,0,0,0,0,0,0,0,0,0,0,649,649,649,649,0,0,0,0,2849,2850,2851,0,0,0,0,0,0,0,0,2640,2641,2641,2641,1073744465,1073744464,0,0,1232,1171,1171,1170,0,0,0,0,1,1073742930,2129,2129,1106,0,0,0,0,0,1073742557,726,605,595,1073742429,1073742550,733,649,649,0,0,1073742994,1073742995,1073742995,1073743056,1808,1809,1809,1809,1685,1810,649,649,649,649,0,0,0,0,0,0,1121,1122,1122,1123,0,0,0,0,0,0,0,0,0,0,0,0,0,0,2913,2914,2915,0,0,0,0,0,0,0,0,2768,2707,2707,2707,2707,2706,0,1,1296,1297,1297,1298,0,0,0,0,1,1232,2195,2195,1170,0,0,0,0,0,1073742557,605,727,729,1073742551,1073742550,733,649,649,0,0,1073743122,1073743121,1073743121,1073743120,1808,1809,1809,1873,1937,1874,1,649,649,649,0,0,0,0,0,0,1313,1314,1314,1315,0,0,0,0,0,0,0,0,0,0,0,0,0,0,2960,781,1073744784,0,0,0,0,0,0,0,0,1073744658,2833,2833,2833,2833,2834,0,1,1360,1425,1489,1362,0,0,0,0,1,1296,1073744145,1073744021,1298,0,0,0,0,0,789,790,1303,785,1073743127,1073742614,1073742613,649,649,0,0,1073743186,1073743313,1073743249,1073743184,1872,2001,1937,1874,1,1,1,1,0,0,0,0,0,0,0,0,1377,846,846,1379,0,0,0,0,0,0,0,0,0,0,0,0,0,0,808,651,651,651,0,0,0,0,0,0,0,2832,2833,2833,2833,2833,1073744656,0,1,1,1,1,0,0,0,0,0,1,1360,2449,2513,1362,0,0,0,0,0,1365,1378,1378,849,1378,1378,1373,0,0,0,0,0,0,0,0,0,0,0,1,1,1,1,1,0,0,0,0,0,0,0,0,1,1,1,1,0,0,0,0,0,0,0,0,0,0,0,0,0,0,872,873,873,0,0,1,1,1,1,1,0,2896,2897,2833,2833,2897,1073744720,0,1,1,1,1,0,0,0,0,0,0,0,0,0,0,0,0,0,0,0,0,0,0,0,0,0,0,0,0,0,0,0,0,0,0,0,0,0,0,0,1,1,1,0,0,0,0,0,0,0,0,0,0,0,0,0,0,0,0,0,0,0,0,0,0,0,0,610,611,0,0,0,0,0,1,1,1,1,1,0,0,647,2961,3025,648,0,0,0,0,0,0,0,0,0,0,0,0,0,0,0,0,0,0,0,0,0,0,0,0,0,0,0,0,0,0,0,0,0,0,0,0,0,0,1073743771,1691,1692,1947,0,0,0,0,0,0,0,0,0,0,0,0,0,0,0,0,0,0,0,0,0,0,0,0,0,0,738,739,0,0,0,0,0,1,1,1,1,1,0,0,0,0,0,0,0,0,0,0,0,0,0,0,0,0,0,0,0,0,0,0,0,0,0,0,0,0,0,0,0,0,0,0,0,0,0,0,0,0,0,0,0,1073743517,1073743835,1625,1626,2011,1693,0,0,0,0,0,0,0,0,0,0,0,0,0,0,0,0,0,0,0,0,0,0,0,0,0,802,803,0,0,0,0,0,1,1,1,1,1,0,0,0,0,0,2128,2129,2129,2129,1073743953,1073743952,1073744349,1073744028,2520,2204,2525,0,0,0,0,0,0,0,0,0,0,0,0,1073743325,1073743004,1171,1180,1501,0,0,0,0,0,0,0,0,0,0,1813,1814,1815,1073743639,1073743638,1073743637,0,0,0,0,0,0,0,0,0,0,0,0,0,0,0,0,0,0,0,0,0,0,0,0,0,866,867,0,0,0,0,0,1,1,1,1,1,0,0,0,0,0,2256,2195,2195,2195,2195,1073744080,2261,2262,2195,1073744086,1073744085,0,1,1,1,1,1,1,1,1,1,0,0,1073743069,1238,1171,1073743062,1245,0,0,0,0,0,0,0,0,0,0,1877,1890,1890,1890,1890,1073743701,0,0,0,0,0,0,0,0,0,0,0,0,0,0,0,0,0,0,0,0,0,0,0,0,0,986,925,0,0,0,0,0,0,1,1,1,1,0,0,0,0,0,2320,2321,2321,2321,2321,1073744144,2261,2262,2195,1073744086,1073744085,0,1,1,1,1,1,1,1,1,1,0,0,1073743069,1073743068,1171,1244,1245,0,0,0,0,0,0,0,0,0,0,0,0,0,0,0,0,0,0,0,0,0,0,0,0,0,0,0,0,0,0,0,0,0,0,0,0,0,0,0,0,0,0,0,0,0,0,0,1,1,1,1,1,1,1,1,1,1,1,2384,2385,2385,2385,2385,1073744208,2325,2326,2329,1073744150,1073744149,0,1,1,1,1,1,1,1,1,1,0,0,1073743133,1073743132,1369,1308,1309,0,0,0,0,0,0,0,0,0,0,0,0,0,0,0,0,0,0,0,0,0,0,0,0,0,0,0,0,0,0,0,0,0,0,0,0,0,0,0,0,0,0,0,0,0,0,0,1,1,1,1,1,1,1,1,1,1,1,649,649,649,649,649,1,2389,2402,866,2402,1073744213,0,0,0,1,1,1,1,1,1,1,0,0,1073743197,1378,1378,1378,1373,0,0,0,0,0,0,0,0,0,0,0,0,0,0,0,0,0,0,0,0,0,0,0,0,0,0,0,0,0,0,0,0,0,0,0,0,0,0,0,0,0,0,0,0,0,0,0,1,1,1,1,1,1,1,1,1,1,1,649,649,649,649,649,1,0,0,0,0,0,0,0,0,1,1,1,1,1,1,1,0,0,0,0,0,0,0,0,0,0,0,0,0,0,0,0,0,0,0,0,0,0,0,0,0,0,0,0,0,0,0,0,0,0,0,0,0,0,0,0,0,0,0,0,0,0,0,0,0,0,0,0,0,0,1,1,1,1,1,1,1,1,1,1,1,1,1,1,1,1,1,1,1,1,1,1,1,1,1,1,1,1,1,1,1,1,1,1,1,1,1,1,0,0,0,0,0,0,0,0,0,0,0,0,0,0,0,0,0,0,0,0,0,0,0,0,0,0,0,0,0,0,0,0,2128,2129,1073743953,1073743952,0,0,0,0,0,0,0,0,0,0,0,0,1,1,1,1,1,1,1,1,1,1,1,1,1,1,1,1,1,1,1,1,1,1,1,1,1,1,1,1,1,1,1,1,1,1,1,1,1,1,0,0,0,0,0,0,0,0,0,0,0,0,0,0,0,0,0,0,0,0,0,0,0,0,0,0,0,0,1,1,0,0,2256,2195,2195,1073744080,0,0,0,0,0,0,0,0,0,0,0,0,1,1,1,1,1,1,1,1,1,1,1,1,1,1,1,1,1,1,1,1,1,1,1,1,1,1,1,1,1,1,1,1,1,1,1,1,1,1,0,0,0,0,0,0,0,0,0,0,0,0,0,0,0,0,0,0,0,0,0,0,0,0,0,0,0,1073744349,1073744028,2204,2525,0,2320,2321,2321,2322,0,0,0,0,0,0,0,0,0,0,0,0,1,1,1,1,1,1,1,1,1,1,1,1,1,1,1,1,1,1,1,1,1,1,1,1,1,1,1,1,1,1,1,1,1,1,1,1,1,1,0,0,0,0,0,0,0,0,0,0,0,0,0,0,0,0,0,0,0,0,0,0,0,0,0,0,0,1073744093,2262,1073744086,2269,0,2384,2449,2449,2386,0,0,0,0,0,0,0,0,0,0,0,0,0,0,0,0,0,0,0,0,0,0,0,0,0,0,0,0,1,1,1,1,1,1,1,1,1,1,1,1,1,1,1,1,1,1,1,1,1,1,0,0,0,0,0,0,0,0,0,0,0,0,0,0,0,0,0,0,0,0,0,0,0,0,0,0,0,1073744157,1073744156,2332,2333,0,2448,2449,2449,1073744272,0,0,0,0,0,0,0,0,0,0,0,0,0,0,0,0,0,0,0,0,0,0,0,0,0,0,0,0,1,1,1,1,1,1,1,1,1,1,1,1,1,1,1,1,1,1,1,1,1,1,0,0,0,0,0,0,0,0,0,0,0,0,0,0,0,0,0,0,0,0,0,0,0,0,0,0,0,2389,2402,2402,1073744213,0,1073742749,986,986,925,0,0,0,0,0,0,0,0,0,0,0,0,0,0,0,0,0,0,0,0,0,0,0,0,0,0,0,0,1,1,1,1,1,1,1,1,1,1,1,1,1,1,1,1,1,1,1,1,1,1,0,0,0,0,0,0,0,0,0,0,0,0,0,0,0,0,0,0,0,0,0,0,0,0,0,0,0,1073742749,986,986,925,0,0,0,0,0,0,0,0,0,0,0,0,0,0,0,0,0,0,0,0,0,0,0,0,0,0,0,0,0,0,0,0,0,0,0,0,0,0,0,0,0,0,0,0,0,0,0,0,0,0,0,0,0,0,0,0,0,0,0,0,0,0,0,0,0,0,0,0,0,0,0,0,0,0,0,0,0,0,0,0,0,0,0,0,0,0,0,0,0,0,0,0,0,0,0,0,0,0,0,0,0,0,0,0,0,0,0,0,0,0,0,0,0,0,0,0,0,0,0,0,0,0,0,0,0,0,0,0,0,0,0,0,0,0,0,0,0,0,0,0,0,0,0,0,0,0,0,0,0,0,0,0,0,0,0,0,0,0,0,0,0,0,0,0,0,0,0,0,0,0,0,0,0,0,0,0,0,0,0,0,0,0,0]},{"id":9,"name":"fences","type":"tilelayer","x":0,"y":0,"width":86,"height":48,"opacity":1,"visible":true,"data":[0,0,0,0,0,0,0,0,0,0,0,0,0,0,0,0,0,0,0,0,0,0,0,0,0,0,0,0,0,0,0,0,0,0,0,0,0,0,0,0,0,0,0,0,0,0,0,0,0,0,0,0,0,0,0,0,0,0,0,0,0,0,0,0,0,0,0,0,0,0,0,0,0,0,0,0,0,0,0,0,0,0,0,0,0,0,0,0,0,0,0,0,0,0,0,0,0,0,0,0,0,0,0,0,0,0,0,0,0,0,0,0,0,0,0,0,0,0,0,0,0,0,0,0,0,0,0,0,0,0,0,0,0,0,0,0,0,0,0,0,0,0,0,0,0,0,0,0,0,0,0,0,0,0,0,0,0,0,0,0,0,0,0,0,0,0,0,0,0,0,0,0,0,0,0,0,0,0,0,0,0,0,0,0,0,0,0,0,0,0,0,0,0,0,0,0,0,0,0,0,0,0,0,0,0,0,0,0,0,0,0,0,0,0,0,0,0,0,0,0,0,0,0,0,0,0,0,0,0,0,0,0,0,0,0,0,0,0,0,0,0,0,0,0,0,0,0,0,0,0,0,0,0,0,0,0,0,0,0,0,0,0,0,0,0,0,0,0,0,0,0,0,0,0,0,0,0,0,0,0,0,0,0,0,0,0,0,0,0,0,0,0,0,0,0,0,0,0,0,0,0,0,0,0,0,0,0,0,0,0,0,0,0,0,0,0,0,0,0,0,0,0,0,0,0,0,0,0,0,0,0,0,0,0,0,0,0,0,0,0,0,0,0,0,0,0,0,0,0,0,0,0,0,0,0,0,0,0,0,0,0,0,0,0,0,0,0,0,0,0,0,0,0,0,0,0,0,0,0,0,0,0,0,0,0,0,0,0,0,0,0,0,0,0,0,0,0,0,0,0,0,0,0,0,0,0,0,0,0,0,0,0,0,0,0,0,0,0,0,0,0,0,0,0,0,0,0,0,0,0,0,0,0,0,0,0,0,0,0,0,0,0,0,0,0,0,0,0,0,0,0,0,0,0,0,0,0,0,0,0,0,0,0,0,0,0,0,0,0,0,0,0,0,0,0,0,0,0,0,0,0,0,0,0,0,0,0,0,0,0,0,0,0,0,0,0,0,0,0,0,0,0,0,0,0,0,0,0,0,0,0,0,0,0,0,0,0,0,0,0,0,0,0,0,0,0,0,0,0,0,0,0,0,0,0,0,0,0,0,0,0,0,0,0,0,0,0,0,0,0,0,0,0,0,0,0,0,0,0,0,0,0,0,0,0,0,0,0,0,0,0,0,0,0,0,0,0,0,0,0,0,0,0,0,0,0,0,0,1073744352,2527,2527,2528,0,0,0,0,0,0,0,0,0,0,0,0,0,0,0,0,0,0,0,0,0,0,0,0,0,0,0,0,0,0,0,0,0,0,0,0,0,0,0,0,0,0,0,0,0,0,0,0,0,0,0,0,0,0,0,0,0,0,0,0,0,0,0,0,0,0,0,0,0,0,0,0,0,0,0,0,0,0,0,0,0,0,0,0,0,0,0,0,0,0,0,0,0,0,0,0,0,0,0,0,0,0,0,0,0,0,0,0,0,0,0,0,0,0,0,0,0,0,0,0,0,0,0,0,0,0,0,0,0,0,0,0,0,0,0,0,0,0,0,0,0,0,0,0,0,0,0,0,0,0,0,0,0,0,0,0,0,0,0,0,0,0,0,0,0,0,1,1,1,1,1,1,1,0,0,0,0,0,0,0,0,0,0,0,0,0,0,0,0,0,0,0,0,0,0,0,0,0,0,0,0,0,0,0,0,0,0,0,0,0,0,0,0,0,0,0,0,0,0,0,0,0,0,0,0,0,0,0,0,0,0,0,0,0,0,0,0,0,0,0,0,0,0,0,0,0,0,0,0,0,0,0,1,1,1,1,1,1,1,0,0,0,0,0,0,0,0,0,0,0,0,0,0,0,0,0,0,0,0,0,0,0,0,0,0,0,0,0,0,0,0,0,0,0,0,0,0,0,0,0,0,0,0,0,0,0,0,0,0,0,0,0,0,0,0,0,0,0,0,0,0,0,0,0,0,0,0,0,0,0,0,0,0,0,0,0,0,0,1,1,1,1,1,1,1,0,0,0,0,0,0,0,0,0,0,0,0,0,0,0,0,0,0,0,0,0,0,0,0,0,0,0,0,0,0,0,0,0,0,0,0,0,0,0,0,0,0,0,0,0,0,0,0,0,0,0,0,0,0,0,0,0,0,0,0,0,0,0,0,0,0,0,0,0,0,0,0,0,0,0,0,0,0,0,1,1,1,1,1,1,1,0,0,0,0,0,0,0,0,0,0,0,0,0,0,0,0,0,0,0,0,0,0,0,0,0,0,0,0,0,0,0,0,0,0,0,0,0,0,0,0,0,0,0,0,0,0,0,0,0,0,0,0,0,0,0,0,0,0,0,0,0,0,0,0,0,0,0,0,0,0,0,0,0,0,0,0,0,0,0,1,1,1,1,1,1,1,0,0,0,0,0,0,0,0,0,0,0,0,0,0,0,0,0,0,0,0,0,0,0,0,0,0,0,0,0,0,0,0,0,0,0,0,0,0,0,0,0,0,0,0,0,0,0,0,0,0,0,0,0,0,0,0,0,0,0,0,0,0,0,0,0,0,0,0,0,0,0,0,0,0,0,0,0,0,0,1,1,1,1,1,1,1,0,0,0,0,0,0,0,0,0,0,0,0,0,0,0,0,0,0,0,0,0,0,0,0,0,0,0,0,0,0,0,0,0,0,0,0,0,0,0,0,0,0,0,0,0,0,0,0,0,0,0,0,0,0,0,0,0,0,0,0,0,0,0,0,0,0,0,0,0,0,0,0,0,0,0,0,0,0,0,0,0,0,0,0,0,0,0,0,0,1,1,841,841,841,777,0,0,0,0,0,0,0,0,0,0,0,0,0,0,0,0,0,0,0,0,0,0,0,0,0,0,0,0,0,0,0,0,0,0,0,0,0,0,0,0,0,0,0,0,0,0,0,0,0,0,0,0,0,0,0,0,0,0,0,0,0,0,0,0,0,0,0,0,0,0,0,0,0,0,0,0,0,0,1,2166,1073743983,779,841,841,841,775,0,0,0,0,0,0,0,0,0,0,0,0,0,0,0,0,0,0,0,0,0,0,0,0,0,0,0,0,0,0,0,0,0,0,0,0,0,0,0,0,0,0,0,0,0,0,0,0,0,0,0,0,0,0,0,0,0,0,0,0,0,0,0,0,0,0,0,0,0,0,0,0,0,0,0,841,1,1,1,587,1073744047,836,2291,2291,1,1,0,0,0,0,0,0,0,0,0,0,0,0,0,0,0,0,0,0,0,0,0,0,0,0,0,0,0,0,0,0,0,0,0,0,0,0,0,0,0,0,0,0,0,0,0,0,0,0,0,0,0,0,0,0,0,0,0,0,0,0,0,0,0,0,0,0,0,0,0,0,0,0,0,0,841,841,1,587,587,587,1,836,2284,2285,2285,2286,0,0,0,0,0,0,0,0,0,0,0,0,0,0,0,0,0,0,0,0,0,0,0,0,0,0,0,0,0,0,0,0,0,0,0,0,0,0,0,0,0,0,0,0,0,0,0,0,0,0,0,0,0,0,0,0,0,0,0,0,0,0,0,0,0,0,0,0,0,0,0,0,0,0,841,841,1,587,587,587,587,836,2348,2349,2349,2684356845,0,0,0,0,0,0,0,0,0,0,0,0,0,0,0,0,0,0,0,0,0,0,0,0,0,0,0,0,0,0,0,0,0,0,0,0,0,0,0,0,0,0,0,0,0,0,0,0,0,0,0,0,0,0,0,0,0,0,0,0,0,0,0,0,0,0,0,0,0,0,0,0,0,0,841,841,1,1073742543,717,1,782,840,2684356973,2349,2349,2684356845,0,0,0,0,0,0,0,0,0,0,0,0,0,0,0,0,0,0,0,0,0,0,0,0,0,0,0,0,0,0,0,0,0,0,0,0,0,0,0,0,0,0,0,0,0,0,0,0,0,0,0,0,0,0,0,0,0,0,0,0,0,0,0,0,0,0,0,0,0,0,0,0,0,0,841,841,841,841,841,841,841,2288,3221227758,3221227757,3221227757,2147485934,0,0,0,0,0,0,0,0,0,0,0,0,0,0,0,0,0,0,0,0,0,0,0,0,0,0,0,0,0,0,0,0,0,0,0,0,0,0,0,0,0,0,0,0,0,0,0,0,0,0,0,0,0,0,0,0,0,0,0,0,0,0,0,0,0,0,0,0,0,0,0,0,0,0,0,0,0,0,0,0,1610615024,2684356912,2684356848,777,1643,773,0,0,0,0,0,0,0,0,0,0,0,0,0,0,0,0,0,0,0,0,0,0,0,0,0,0,0,0,0,0,0,0,0,0,0,0,0,0,0,0,0,0,0,0,0,0,0,0,0,0,0,0,0,0,0,0,0,0,0,0,0,0,0,0,0,0,0,0,0,0,0,0,0,0,0,0,0,0,0,0,0,3221227760,1,775,587,587,0,0,0,0,0,0,0,0,0,0,0,0,0,0,0,0,0,0,0,0,0,0,0,0,0,0,0,0,0,0,0,0,0,0,0,0,0,0,0,0,0,0,0,0,0,0,0,0,0,0,0,0,0,0,0,0,0,0,0,0,0,0,0,0,0,0,0,0,0,0,0,0,0,0,0,0,0,0,0,0,847,0,847,1,587,587,0,0,0,0,0,0,0,0,0,0,0,0,0,0,0,0,0,0,0,0,0,0,0,0,0,0,0,0,0,0,0,0,0,0,0,0,0,0,0,0,0,0,0,0,0,0,0,0,0,0,0,0,0,0,0,0,0,0,0,0,0,0,0,0,0,0,0,0,0,0,0,0,0,0,0,0,0,0,0,0,0,0,0,1,783,1,0,0,0,0,0,0,0,0,0,0,0,0,0,0,0,0,0,0,0,0,0,0,0,0,0,0,0,0,0,0,0,0,0,0,0,0,0,0,0,0,0,0,0,0,0,0,0,0,0,0,0,0,0,0,0,0,0,0,0,0,0,0,0,0,0,0,0,0,0,0,0,0,0,0,0,0,0,0,0,0,0,0,0,841,841,839,0,0,0,0,0,0,0,0,0,0,0,0,0,0,0,0,0,0,0,0,0,0,0,0,0,0,0,0,0,0,0,0,0,0,0,0,0,0,0,0,0,0,0,0,0,0,0,0,0,0,0,0,0,0,0,0,0,0,0,0,0,0,0,0,0,0,0,0,0,0,0,0,0,0,0,0,0,0,0,0,0,0,0,0,0,0,0,0,0,0,0,0,0,0,0,0,0,0,0,0,0,0,0,0,0,0,0,0,0,0,0,0,0,0,0,0,0,0,0,0,0,0,0,0,0,0,0,0,0,0,0,0,0,0,0,0,0,0,0,0,0,0,0,0,0,0,0,0,0,0,0,0,0,0,0,0,0,0,0,0,0,0,0,0,0,0,0,0,0,0,0,0,0,0,0,0,0,0,0,0,0,0,0,0,0,0,0,0,0,0,0,0,0,0,0,0,0,0,0,0,0,0,0,0,0,0,0,0,0,0,0,0,0,0,0,0,0,0,0,0,0,0,0,0,0,0,0,0,0,0,0,0,0,0,0,0,0,0,0,0,0,0,0,0,0,0,0,0,0,0,0,0,0,0,0,0,0,0,0,0,0,0,0,0,0,0,0,0,0,0,0,0,0,0,0,0,0,0,0,0,0,0,0,0,0,0,0,0,0,0,0,0,0,0,0,0,0,0,0,0,0,0,0,0,0,0,0,0,0,0,0,0,0,0,0,0,0,0,0,0,0,0,0,0,0,0,0,0,0,0,0,0,0,0,0,0,0,0,0,0,0,0,0,0,0,0,0,0,0,0,0,0,0,0,0,0,0,0,0,0,0,0,0,0,0,0,0,0,0,0,0,0,0,0,0,0,0,0,0,0,0,0,0,0,0,0,0,0,0,0,0,0,0,0,0,0,0,0,0,0,0,0,0,0,0,0,0,0,0,0,0,0,0,0,0,0,0,0,0,0,0,0,0,0,0,0,0,0,0,0,0,0,0,0,0,0,0,0,0,0,0,0,0,0,0,0,0,0,0,0,0,0,0,0,0,0,0,0,0,0,0,0,0,0,0,0,0,0,0,0,0,0,0,0,0,0,0,0,0,0,0,0,0,0,0,0,0,0,0,0,0,0,0,0,0,0,0,0,0,0,0,0,0,0,0,0,0,0,0,0,0,0,0,0,0,0,0,0,0,0,0,0,0,0,0,0,0,0,0,0,0,0,0,0,0,0,0,0,0,0,0,0,0,0,0,0,0,0,0,0,0,0,0,0,0,0,0,0,0,0,0,0,0,0,0,0,0,0,0,0,0,0,0,0,0,0,0,0,0,0,0,0,0,0,0,0,0,0,0,0,0,0,0,0,0,0,0,0,0,0,0,0,0,0,0,0,0,0,0,0,0,0,0,0,0,0,0,0,0,0,0,0,0,0,0,0,0,0,0,0,0,0,0,0,0,0,0,0,0,0,0,0,0,0,0,0,0,0,0,0,0,0,0,0,0,0,0,0,0,0,0,0,0,0,0,0,0,0,0,0,0,0,0,0,0,0,0,0,0,0,0,0,0,0,0,0,0,0,0,0,0,0,0,0,0,0,0,0,0,0,0,0,0,0,0,0,0,0,0,0,0,0,0,0,0,0,0,0,0,0,0,0,0,0,0,0,0,0,0,0,0,0,0,0,0,0,0,0,0,0,0,0,0,0,0,0,0,0,0,0,0,0,0,0,0,0,0,0,0,0,0,0,0,0,0,0,0,0,0,0,0,0,0,0,0,0,0,0,0,0,0,0,0,0,0,0,0,0,0,0,0,0,0,0,0,0,0,0,0,0,0,0,0,0,0,0,0,0,0,0,0,0,0,0,0,0,0,0,0,0,0,0,0,0,0,0,0,0,0,0,0,0,0,0,0,0,0,0,0,0,0,0,0,0,0,0,0,0,0,0,0,0,0,0,0,0,0,0,0,0,0,0,0,0,0,0,0,0,0,0,0,0,0,0,0,0,0,0,0,0,0,0,0,0,0,0,0,0,0,0,0,0,0,0,0,0,0,0,0,0,0,0,0,0,0,0,0,0,0,0,0,0,0,0,0,0,0,0,0,0,0,0,0,0,0,0,0,0,0,0,0,0,0,0,0,0,0,0,0,0,0,0,0,0,0,0,0,0,0,0,0,0,0,0,0,0,0,0,0,0,0,0,0,0,0,0,0,0,0,0,0,0,0,0,0,0,0,0,0,0,0,0,0,0,0,0,0,0,0,0,0,0,0,0,0,0,0,0,0,0,0,0,0,0,0,0,0,0,0,0,0,0,0,0,0,0,0,0,0,0,0,0,0,0,0,0,0,0,0,0,0,0,0,0,0,0,0,0,0,0,0,0,0,0,0,0,0,0,0,0,0,0,0,0,0,0,0,0,0,0,0,0,0,0,0,0,0,0,0,0,0,0,0,0,0,0,0,0,0,0,0,0,0,0,0,0,0,0,0,0,0,0,0,0,0,0,0,0,0,0,0,0,0,0,0,0,0,0,0,0,0,0,0,0,0,0,0,0,0,0,0,0,0,0,0,0,0,0,0,0,0,0,0,0,0,0,0,0,0,0,0,0,0,0,0,0,0,0,0,0,0,0,0,0,0,0,0,0,0,0,0,0,0,0,0,0,0,0,0,0,0,0,0,0,0,0,0,0,0,0,0,0,0,0,0,0,0,0,0,0,0,0,0,0,0,0,0,0,0,0,0,0,0,0,0,0,0,0,0,0,0,0,0,0,0,0,0,0,0,0,0,0,0,0,0,0,0,0,0,0,0,0,0,0,0,0,0,0,0,0,0,0,0,0,0,0,0,0,0,0,0,0,0,0,0,0,0,0,0,0,0,0,0,0,0,0,0,0,0,0,0,0,0,0,0,0,0,0,0,0,0,0,0,0,0,0,0,0,0,0,0,0,0,0,0,0,0,0,0,0,0,0,0,0,0,0,0,0,0,0,0,0,0,0,0,0,0,0,0,0,0,0,0,0,0,0,0,0,0,0,0,0,0,0,0,0,0,0,0,0,0,0,0,0,0,0,0,0,0,0,0,0,0,0,0,0,0,0,0,0,0,0,0,0,0,0,0,0,0,0,0,0,0,0,0,0,0,0,0,0,0,0,0,0,0,0,0,0,0,0,0,0,0,0,0,0,0,0,0,0,0,0,0,0,0,0,0,0,0,0,0,0,0,0,0,0,0,0,0,0,0,0,0,0,0,0,0,0,0,0,0,0,0,0,0,0,0,0,0,0,0,0,0,0,0,0,0,0,0,0,0,0,0,0,0,0,0,0,0,0,0,0,0,0,0,0,0,0,0,0,0,0,0,0,0,0,0,0,0,0,0,0,0,0,0,0,0,0,0,0,0,0,0,0,0,0,0,0,0,0,0,0,0,0,0,0,0,0,0,0,0,0,0,0,0,0,0,0,0,0,0,0,0,0,0,0,0,0,0,0,0,0,0,0,0,0,0,0,0,0,0,0,0,0,0,0,0,0,0,0,0,0,0,0,0,0,0,0,0,0,0,0,0,0,0,0,0,0,0,0,0,0,0,0,0,0,0,0,0,0,0,0,0,0,0,0,0,0,0,0,0,0,0,0,0,0,0,0,0,0,0,0,0,0,0,0,0,0,0,0,0,0,0,0,0,0,0,0,0,0,0,0,0,0,0,0,0,0,0,0,0,0,0,0,0,0,0,0,0,0,0,0,0,0,0,0,0,0,0,0,0,0,0,0,0,0,0,0,0,0,0,0,0,0,0,0,0,0,0,0,0,0,0,0,0,0,0,0,0,0,0,0,0,0,0,0,0,0,0,0,0,0,0,0,0,0,0,0,0,0,0,0,0,0,0,0,0,0,0,0,0,0,0,0,0,0,0,0,0,0,0,0,0,0,0,0,0,0,0,0,0,0,0,0,0,0,0,0,0,0,0,0,0,0,0,0,0,0,0,0,0,0,0,0,0,0,0,0,0,0,0,0,0,0,0,0,0,0,0,0,0,0,0,0,0,0,0,0,0,0,0,0,0,0,0,0,0,0,0,0,0,0,0,0,0,0,0,0,0,0,0,0,0,0,0,0,0,0,0,0,0,0,0,0,0,0,0,0,0,0,0,0,0,0,0,0,0,0,0,0,0,0,0,0,0,0,0,0,0,0,0,0,0,0,0,0,0,0,0,0,0,0,0,0,0,0,0,0,0,0,0,0,0,0,0,0,0,0,0,0,0,0,0,0,0,0,0,0,0,0,0,0,0,0,0,0,0,0,0,0,0,0]},{"id":10,"name":"decoration_02","type":"tilelayer","x":0,"y":0,"width":86,"height":48,"opacity":1,"visible":true,"data":[0,0,0,0,0,0,0,0,0,0,0,0,0,0,0,0,0,0,0,1,1,1,1,1,1,0,0,0,0,0,0,0,0,0,0,0,0,0,0,0,0,0,0,0,0,0,0,0,0,0,0,0,0,0,1,798,799,800,1,0,0,0,0,0,0,0,0,0,0,0,0,0,0,0,0,0,0,0,0,0,0,0,0,0,0,0,0,0,0,0,0,0,0,0,0,0,0,0,0,0,0,0,0,0,0,1,1,1,1,1,1,1,1,1,1,1,1633,1634,1635,1,0,0,0,0,0,0,0,0,0,0,0,0,0,0,0,0,0,0,0,0,1,862,863,864,1,0,0,0,0,0,0,0,0,0,0,0,0,0,0,0,0,0,0,0,0,0,0,0,0,0,0,0,0,0,0,0,0,0,0,0,0,0,0,0,0,0,0,0,0,0,0,1,1,1,1,1,1,1,1,1,1,1,1825,1826,1827,1,0,1,0,0,0,0,0,0,0,0,0,0,0,0,0,0,0,0,1073742903,0,1,1,1,1,1,0,0,0,0,0,0,0,0,0,0,0,0,0,1073744349,2203,2204,2525,0,0,0,0,0,0,0,0,0,0,0,0,0,0,0,0,0,0,0,0,0,0,0,0,0,0,0,0,0,1,1,1,1,1,1,1,1,1,1,1,1889,1890,1891,1,0,1,0,0,0,0,0,0,0,0,783,1073742672,0,0,0,0,0,956,1073742967,1084,1,1,1,1,1,880,0,0,0,0,0,0,0,0,0,0,0,0,2261,2137,2138,1073744085,0,0,0,0,0,0,0,0,0,0,0,0,0,0,0,0,0,0,0,0,0,0,0,0,0,0,0,0,0,1,1,1,1,1,1,1,1,1,1,348,1073743773,2009,1949,1,0,1,0,0,0,0,0,0,0,0,0,1073742736,0,0,0,617,0,1020,892,1148,1084,0,0,0,0,0,0,0,0,0,0,0,0,0,0,0,0,0,1073744285,2327,1073744151,2461,0,0,0,0,0,0,0,0,0,0,0,0,0,0,0,0,0,0,0,0,0,0,0,0,0,0,0,0,0,0,0,0,0,0,1,1,1,1,1,1,1,1,1,1,0,0,0,0,0,0,0,0,0,0,1765,1,1,95,616,681,0,828,892,823,1148,0,0,0,0,0,0,0,0,0,0,0,0,0,0,0,0,0,0,0,0,0,0,0,0,0,0,0,0,0,0,0,0,0,0,0,0,0,0,0,0,0,0,0,0,0,0,0,0,0,0,0,0,0,0,0,1,0,0,0,1936,1073743702,2684356376,1938,0,0,0,436,437,0,0,0,0,0,0,0,0,0,0,0,741,1073742504,0,0,0,0,1,0,0,0,0,0,0,0,0,0,0,0,0,0,0,0,0,0,0,719,1073742543,0,0,1,1,1,1,0,0,0,0,0,0,0,0,0,0,0,0,0,0,0,1,1,1078,1078,1078,1078,0,1073743093,1073743092,0,0,0,0,0,0,0,0,0,1936,2684356376,1878,1938,1,1,1,500,501,0,0,0,0,0,0,0,0,0,0,0,0,741,614,615,1,1,350,0,0,0,0,0,1073743093,1073743092,0,1,0,0,0,0,0,0,0,0,0,783,1073742671,0,0,1,1,1,1,0,0,0,0,0,0,0,0,0,0,0,0,0,0,822,886,886,1142,1142,1142,1142,0,1073743157,1073743156,0,0,0,0,0,0,0,0,0,1936,1816,2684355211,1938,1822,1823,1823,564,565,0,0,0,0,0,0,0,0,0,0,0,0,0,678,679,0,0,0,0,0,0,0,0,1073743157,1073743156,0,1,0,0,0,0,0,0,0,0,0,0,0,0,0,1,1,1,1,0,0,0,0,0,0,0,0,0,0,0,0,0,0,0,0,888,885,821,1013,1013,1013,0,0,0,0,0,0,0,0,0,0,0,1948,2008,2008,1073743772,1886,1887,1887,1888,0,0,0,0,0,0,0,0,0,0,0,0,0,0,742,743,0,0,0,2163,680,0,0,0,0,0,0,0,0,0,0,0,0,0,0,0,0,847,783,0,1,1,1,1,1,0,0,0,0,0,0,0,0,0,0,0,0,0,0,0,1076,887,887,821,885,1013,1013,0,0,0,0,0,0,0,0,0,0,0,1,1,1,1073743517,1688,2013,1,1,0,0,0,0,0,0,0,0,0,0,0,0,0,245,0,285,0,0,0,2227,741,0,0,0,0,0,0,1,0,0,0,0,0,0,0,0,0,1073743954,2129,2130,1,1,1,1,0,0,0,0,0,0,0,0,0,0,0,0,0,0,0,0,1140,1012,1012,1019,1019,0,822,1080,0,0,0,0,0,0,0,0,0,0,1,1,1,1073743581,1756,1757,1,1,0,0,0,0,0,0,0,0,0,0,0,0,0,309,0,0,0,0,0,0,0,0,879,0,0,0,0,1,222,1,1,0,0,0,0,0,1,1073744658,2321,2834,1,1,1,1,0,0,0,0,0,0,0,0,0,0,0,0,0,0,0,0,0,0,0,884,888,822,1016,1144,0,0,0,0,0,0,0,0,0,0,1,1,1,1073743773,1820,1821,1,1,0,0,0,0,0,0,0,0,0,0,0,0,0,373,0,0,0,0,0,0,0,0,0,0,0,0,0,1,1,1,1,0,0,0,0,0,1,1073744722,2513,2898,1,1,1,1,0,0,0,0,0,0,0,0,0,0,0,0,0,0,0,0,0,0,0,0,0,0,0,0,0,0,0,0,0,0,0,0,0,0,0,0,0,0,0,0,0,0,0,0,0,0,0,0,0,0,0,0,0,0,0,0,0,0,0,0,0,0,0,0,0,0,0,0,0,0,1908,1909,1,0,0,0,0,0,0,0,0,0,1,1,1,1,1266,0,0,0,0,0,0,0,0,0,0,0,0,0,0,0,0,0,0,0,0,0,0,0,0,0,0,0,0,0,0,0,0,0,0,0,0,0,0,0,0,0,0,0,0,0,0,0,0,0,0,0,0,0,0,0,0,0,0,0,0,0,0,0,0,0,0,0,0,0,1972,1973,1,0,0,0,0,0,0,0,0,0,0,0,0,0,1,0,0,0,0,0,0,0,0,0,0,0,0,0,0,0,0,0,0,0,0,747,0,0,0,0,0,0,0,0,0,0,0,0,0,0,0,0,0,0,0,0,1073742224,1073742223,1073742222,0,0,0,0,0,0,0,0,0,0,0,0,0,0,2162,1,1771,0,0,0,0,0,0,1,1,291,1,1,0,1,0,0,0,0,0,0,0,0,0,0,2153,1,0,2160,1073743979,1,2156,0,0,0,0,0,0,0,0,0,0,0,0,0,0,0,811,0,0,0,0,0,0,0,0,0,0,0,0,0,0,0,0,0,0,0,0,0,0,0,0,0,0,0,0,0,0,0,0,0,0,0,0,0,2226,0,0,0,0,0,0,0,0,1,1,1,1848,1,436,437,0,0,0,0,0,0,0,0,2152,2161,2217,2218,2290,2224,1073744043,1073744114,2220,0,0,0,0,0,0,0,0,0,0,0,0,0,0,0,811,0,0,0,0,0,0,0,0,0,0,0,0,0,0,0,0,0,0,0,0,0,0,0,0,0,783,0,0,0,0,0,0,0,0,0,0,0,0,0,0,0,0,0,0,0,0,0,0,0,224,245,500,501,0,0,0,0,0,0,0,0,2216,2225,0,0,1073744180,2355,2355,2356,0,0,0,0,0,0,0,0,0,0,0,0,0,0,0,0,812,0,0,0,0,0,0,0,0,0,0,0,0,0,0,0,0,0,1,1,1,1073742224,1073742223,1073742222,0,0,0,0,0,0,0,0,0,0,0,0,0,0,0,0,0,0,0,0,0,0,0,0,1,225,1,309,564,565,0,0,0,0,0,158,0,0,0,0,0,0,1073744180,2355,2355,2356,0,0,0,0,0,0,0,0,0,0,0,0,0,0,0,0,0,0,0,0,0,0,0,0,0,0,0,0,0,0,0,0,0,1,350,1,1,1,1,0,0,0,0,0,0,0,0,0,0,0,0,0,0,0,0,0,0,0,0,0,0,0,0,0,1633,1634,1635,373,308,0,0,0,0,0,0,0,0,0,0,0,0,0,1073744244,2419,2419,2420,0,0,0,0,0,0,0,0,0,0,0,0,0,0,0,0,0,0,0,0,0,0,0,1073742775,0,0,0,0,0,0,0,0,0,1,1,1,1,1,1,0,0,0,0,0,0,0,0,0,0,0,0,0,0,0,0,0,0,0,0,0,0,0,0,0,1825,1826,1827,0,0,0,0,0,0,0,0,0,0,950,1078,1,0,0,0,0,0,0,0,0,0,349,0,0,0,0,0,0,0,0,0,0,0,0,0,0,0,0,0,0,0,1073742839,0,0,0,0,0,0,0,0,0,0,1,1,1,1,1,0,0,0,0,0,0,0,0,0,0,0,0,0,0,0,0,0,0,0,1,0,0,0,0,0,1889,1890,1891,0,0,0,0,0,0,0,0,0,157,1014,1142,1073742646,0,0,0,0,0,0,2152,0,0,0,0,0,0,0,0,0,0,0,0,0,0,0,0,0,0,1592,0,0,0,0,0,0,0,0,0,0,0,0,880,0,783,783,783,841,0,0,0,0,0,0,0,0,0,245,0,0,0,0,0,0,0,0,0,0,1,0,0,0,617,0,0,0,0,0,0,0,0,0,0,0,0,0,0,0,821,1073742646,0,0,0,0,0,0,2216,0,0,0,0,0,0,0,0,0,0,0,0,0,0,0,0,0,0,0,0,0,0,0,0,0,0,0,0,0,0,0,0,0,1765,841,1,841,0,0,0,0,0,0,0,0,0,309,1,1,0,0,0,0,0,0,0,0,1,0,0,680,681,0,0,0,1938,0,0,0,0,0,0,0,0,0,0,0,0,0,0,0,0,0,0,0,0,0,0,0,0,0,0,0,0,0,0,0,0,0,0,0,0,0,0,0,0,0,0,0,0,0,0,0,0,0,0,0,0,0,0,0,0,0,0,3221225680,3758096590,0,0,0,0,0,0,373,436,437,0,0,0,0,0,0,0,0,1,0,0,741,741,0,1771,0,0,0,0,0,0,0,0,0,0,0,0,0,0,0,0,0,0,0,0,0,0,0,0,0,0,0,0,0,0,0,0,0,0,0,0,0,0,0,0,0,0,0,0,0,0,0,0,0,0,0,0,0,0,0,0,0,0,0,0,536871118,1610612942,0,0,0,1073742173,0,0,0,500,501,0,0,0,0,0,0,0,0,1,0,0,1,1,1,1,1,0,0,0,0,0,0,0,0,0,0,0,0,0,0,93,0,0,0,0,0,0,0,0,0,0,0,0,0,0,0,0,0,0,0,0,2654,2655,2655,2656,0,0,0,0,0,0,0,0,0,0,0,0,0,0,0,0,0,0,0,1073743927,0,0,0,0,0,1,0,0,0,564,565,0,0,0,0,0,0,350,0,1810,0,0,0,1,1,1,0,0,0,0,0,1,0,0,0,0,0,0,0,0,0,0,0,0,0,222,0,0,0,0,0,0,0,0,0,0,0,0,0,0,0,1,2718,2719,2719,2720,1,0,0,0,1,0,245,0,0,0,0,0,0,0,0,0,0,0,0,0,0,0,0,0,0,0,0,0,0,0,0,0,0,0,0,0,0,0,0,1810,1,0,0,1,1,1,1,0,0,0,0,0,0,0,0,0,0,0,0,0,0,0,0,0,0,0,285,0,0,0,0,0,0,0,0,0,0,0,0,0,0,1,2910,2911,2911,2912,0,0,0,0,0,1765,309,0,0,0,0,0,0,0,0,0,0,0,1,1,0,0,0,1360,0,1073743184,0,2037,0,0,0,0,0,1765,0,0,0,1765,0,0,0,0,0,0,1,0,0,0,0,0,0,0,0,1701,1073743654,0,0,0,0,0,0,0,0,0,0,0,0,0,0,1,1,1,1,747,0,0,0,0,0,0,0,1,1,770,1,0,0,0,0,0,0,0,373,0,0,0,0,0,0,0,0,2163,0,0,1,1,0,0,2162,1424,1768,1073743248,2162,2101,0,0,0,0,0,1,0,0,2231,0,0,0,0,0,0,0,0,0,0,0,0,0,0,0,0,0,0,0,0,0,0,0,0,0,0,0,0,0,0,0,0,0,0,1,0,811,0,0,0,0,0,0,0,1,1073744658,770,1,2834,0,0,0,0,2147483854,1610612944,0,0,0,0,0,0,0,0,0,2227,0,0,1,1,0,0,2226,0,0,0,2226,0,0,0,0,0,0,0,0,0,0,0,0,0,0,0,0,0,0,0,0,0,0,0,0,0,0,0,0,0,0,0,0,0,0,0,0,0,0,0,0,0,0,0,0,0,0,811,0,0,0,0,0,0,0,0,1073744722,1,1765,2898,0,0,0,0,206,1073742030,0,0,0,0,0,0,0,0,0,0,0,0,0,0,0,0,0,0,0,0,0,0,0,0,0,0,0,0,0,0,0,0,0,0,0,0,0,0,0,0,0,0,0,0,0,0,0,0,0,0,0,0,0,0,0,0,0,0,0,0,0,0,0,0,0,0,0,0,0,0,0,0,0,0,0,0,0,0,0,0,0,0,0,0,0,0,0,0,0,0,0,0,0,0,0,0,0,0,1073742813,245,0,0,989,1121,1122,1123,1,0,0,0,0,0,0,0,0,0,0,0,0,0,0,1073742173,0,0,0,0,0,0,0,0,0,0,0,0,0,0,0,0,0,0,0,0,0,0,0,0,0,0,0,0,0,0,0,0,0,0,0,0,0,0,0,0,0,0,0,0,0,0,0,0,0,0,0,348,0,0,0,0,0,0,1068,1069,1070,1072,1071,309,0,0,1,1249,1250,1251,1,0,0,0,0,0,0,0,0,0,0,0,0,0,0,0,0,0,0,0,0,0,0,0,0,0,0,0,0,0,0,0,0,0,0,0,0,0,0,0,0,0,0,0,0,0,0,0,0,0,0,0,0,0,0,0,0,0,0,0,616,1,0,685,686,686,686,687,0,0,0,0,0,0,1132,1133,1134,1136,1135,373,0,0,1,1313,1314,1315,1,0,0,0,0,0,0,0,1,0,0,0,3221226255,3221226255,0,0,0,0,0,0,0,0,0,0,0,0,0,0,0,0,0,0,0,0,0,0,0,0,0,0,0,0,0,0,0,0,0,0,0,0,0,0,0,0,0,0,1,1,876,877,741,1,0,0,77,77,1073741905,0,0,0,0,0,0,0,0,0,0,1068,1072,1,0,0,1,1377,1378,1379,1,0,0,245,0,0,0,0,1,0,0,0,0,0,0,0,0,0,0,0,0,0,0,0,0,0,0,0,0,0,0,0,0,0,0,0,0,0,0,0,0,0,0,0,0,0,0,0,0,0,0,0,0,0,0,0,0,1268,1269,0,617,1,0,1,1,0,0,0,747,0,0,0,0,0,0,0,0,1132,1136,0,0,0,1,1,1,245,1,0,0,309,0,0,0,0,1,0,0,0,0,0,0,0,0,0,0,0,0,0,0,0,0,0,0,0,0,0,0,0,0,0,0,0,0,0,0,0,0,0,0,0,0,0,0,0,0,0,0,0,0,0,0,0,0,1332,1333,0,681,680,0,1,1,614,615,0,811,0,0,0,0,0,0,0,0,1,1,0,0,0,1,1,783,309,1,0,0,373,0,0,0,0,0,0,0,0,0,0,0,0,0,0,0,0,0,0,0,0,0,0,0,0,0,0,0,0,0,0,0,0,0,0,0,0,0,0,0,0,0,0,0,0,0,0,0,0,0,0,0,0,0,0,0,0,1,1,1,0,0,678,679,0,0,0,0,0,0,0,0,0,0,0,1073742519,0,0,0,1079,0,0,373,0,0,0,0,0,0,0,0,0,0,0,0,0,0,0,0,0,0,0,0,0,0,0,0,0,0,0,0,0,0,0,0,0,0,0,0,0,0,0,0,0,0,0,0,0,0,0,0,0,0,0,0,0,0,0,0,0,0,0,0,0,0,0,0,0,0,0,0,0,0,0,0,0,0,0,0,0,0,0,0,0,0,1143,0,0,0,0,0,0,0,0,0,0,0,0,0,0,0,0,0,0,0,0,0,0,0,0,0,0,0,0,0,0,0,0,0,0,0,0,0,0,0,0,0,0,0,0,0,0,0,0,1,1,0,0,0,0,0,0,0,0,0,0,0,0,0,0,0,0,0,0,0,0,0,0,0,0,0,0,0,0,0,0,0,0,0,0,0,0,0,0,0,0,0,0,0,0,0,0,0,0,0,0,0,0,0,0,0,0,0,0,0,0,0,0,0,0,0,0,0,0,0,0,0,0,0,0,0,0,0,0,0,0,0,0,0,0,1,1,0,0,0,0,0,0,0,0,0,0,0,0,0,0,0,0,0,0,0,0,0,0,0,0,0,0,0,0,0,0,0,0,0,0,0,0,0,0,0,0,0,0,0,0,0,0,0,0,0,0,0,0,0,0,0,0,0,0,0,0,0,0,0,0,0,0,0,0,0,0,0,0,0,0,0,0,0,0,0,0,0,0,0,0,0,1,0,0,1,0,0,0,0,0,0,0,0,0,0,0,0,0,0,0,0,0,0,0,0,0,0,0,0,0,0,0,0,0,0,0,0,0,0,0,0,0,0,0,0,0,0,0,0,0,0,0,0,0,0,1522,1523,0,0,0,0,0,0,0,0,0,0,0,0,0,0,0,0,0,0,0,0,0,0,0,0,0,0,0,0,0,0,0,0,0,0,0,0,0,0,0,0,0,0,0,0,0,0,0,0,0,0,0,0,0,0,0,0,0,0,0,0,0,0,0,0,0,0,0,0,0,0,0,0,0,0,0,0,0,0,0,0,1910,1911,1526,1527,1586,1587,1524,1525,0,0,0,0,0,0,0,0,0,0,0,0,0,0,0,783,0,0,0,0,0,0,0,0,0,0,0,0,0,0,0,0,0,0,0,0,0,0,0,0,0,0,0,0,0,0,0,0,0,0,0,0,0,0,0,0,0,0,1,1,0,0,0,0,0,0,0,0,0,0,0,0,0,0,0,0,0,0,1974,1975,1590,1591,0,0,1588,1589,288,0,0,0,0,0,0,0,0,0,0,783,0,0,0,0,0,0,1,0,0,0,0,0,0,0,0,0,0,0,0,0,0,0,0,0,0,0,0,0,0,0,0,0,0,1,0,0,0,0,1,0,0,0,0,0,0,0,1,1,0,0,0,0,0,0,0,0,1524,1525,1526,1527,0,0,0,0,0,0,0,0,0,0,0,0,0,1906,1907,1522,1523,0,0,0,0,0,0,0,0,1,0,0,0,0,0,0,1,0,0,0,0,0,0,0,0,0,0,0,0,0,0,0,0,0,0,0,0,0,0,0,0,0,0,0,0,0,0,0,0,0,0,0,0,0,0,0,0,0,0,0,0,0,0,1,1,0,1588,1589,1590,1591,0,0,0,0,0,0,0,0,0,0,0,0,0,1970,1971,1586,1587,0,0,0,0,0,0,0,0,1,0,0,0,0,0,0,1,0,0,0,0,0,0,0,0,0,0,0,0,0,0,0,0,0,0,0,0,0,0,0,0,0,0,0,0,0,0,0,0,0,0,0,0,0,0,0,0,0,0,0,0,0,0,1,1,0,0,0,0,0,0,0,0,0,0,0,1522,1523,0,0,0,0,1524,1525,0,1908,1909,0,0,0,0,0,0,0,0,0,0,0,0,0,0,0,0,0,0,0,0,0]},{"id":11,"name":"decoration_03","type":"tilelayer","x":0,"y":0,"width":86,"height":48,"opacity":1,"visible":true,"data":[0,0,0,0,0,0,0,0,0,0,0,0,0,0,0,0,0,0,0,0,0,0,0,0,0,0,0,0,0,0,0,0,0,0,0,0,0,0,0,0,0,0,0,0,0,0,0,0,0,0,0,0,0,0,0,0,0,0,0,0,0,0,0,0,0,0,0,0,0,0,0,0,0,0,0,0,0,0,0,0,0,0,0,0,0,0,0,0,0,0,0,0,0,0,0,0,0,0,0,0,0,0,0,0,0,0,0,0,0,0,0,0,0,0,0,0,0,0,0,0,0,0,0,0,0,0,0,0,0,0,0,0,0,0,0,0,0,0,0,0,0,0,0,0,0,0,0,0,0,0,0,0,0,0,0,0,0,0,2334,2335,1073744159,1073744158,0,0,0,0,0,0,0,0,0,0,0,0,0,0,0,0,0,0,0,0,0,0,0,0,0,0,0,0,0,0,0,0,0,0,0,0,0,0,0,0,0,0,0,0,0,0,0,0,0,0,0,0,0,0,0,0,0,0,0,0,0,0,0,0,0,0,0,0,0,0,0,0,0,0,0,0,0,0,0,0,0,0,2398,2399,1073744223,1073744222,0,0,0,0,0,0,0,0,0,0,0,0,0,0,0,0,0,0,0,0,0,0,0,0,0,0,0,0,0,0,0,0,0,0,0,0,0,0,0,0,0,0,0,0,0,0,0,0,0,0,0,0,0,0,0,0,0,0,0,0,0,0,0,0,0,0,0,0,0,0,0,0,0,0,0,0,0,0,0,0,0,0,0,0,0,0,0,0,0,0,0,0,0,0,0,0,0,0,0,0,0,0,0,0,0,0,0,0,0,0,0,0,0,0,0,0,0,0,0,0,0,0,0,0,0,0,0,0,0,0,0,0,0,0,0,0,0,0,0,0,0,0,0,0,0,0,0,0,0,0,0,0,0,0,0,0,0,0,0,0,0,0,0,0,0,0,0,0,0,0,0,0,0,0,0,0,0,0,0,0,0,0,0,0,0,0,0,0,0,0,0,0,0,0,0,0,0,0,0,0,0,0,0,0,0,0,0,0,0,0,0,0,0,0,0,0,0,0,0,0,0,0,0,0,0,0,0,0,0,0,0,0,0,0,0,0,0,0,0,0,0,0,0,0,0,0,0,0,0,0,0,0,0,0,0,0,0,0,0,0,0,0,0,0,0,0,0,0,0,0,0,0,0,0,0,0,0,0,0,0,0,0,0,0,0,0,0,0,0,0,0,0,0,0,0,0,0,0,0,0,0,0,0,0,0,0,0,0,0,0,0,0,0,0,0,0,0,0,0,0,0,0,0,0,0,0,0,0,0,0,0,0,0,0,0,0,0,0,0,0,0,0,0,0,0,0,0,0,0,0,0,0,0,0,0,0,0,0,0,0,0,0,0,0,0,0,0,0,0,0,0,0,0,0,0,0,0,0,0,0,0,0,0,0,0,0,0,0,0,0,0,0,0,0,0,0,0,0,0,0,0,0,0,0,0,0,0,0,0,0,0,0,0,0,0,0,0,0,0,0,0,0,0,0,0,0,0,0,0,0,0,0,0,0,0,0,0,0,0,0,0,0,0,0,0,0,0,0,0,0,0,0,0,0,0,0,0,0,0,0,0,0,0,0,0,0,0,0,0,0,0,0,0,0,0,0,0,0,0,0,0,0,0,0,0,0,0,0,0,0,0,0,0,0,0,0,0,0,0,0,0,0,0,0,0,0,0,0,0,0,0,0,0,0,0,0,0,0,0,0,0,0,0,0,0,0,0,0,0,0,0,0,0,0,0,0,0,0,0,0,0,0,0,0,0,0,0,0,0,0,0,0,0,0,0,0,0,0,0,0,0,0,0,0,0,0,0,0,0,0,0,0,0,0,0,0,0,0,0,0,0,0,0,0,0,0,0,0,0,0,0,0,0,0,0,0,0,0,0,0,0,0,0,0,0,0,0,0,0,0,0,0,0,0,0,0,0,0,0,0,0,0,0,0,0,0,0,0,0,0,0,0,0,0,0,0,0,0,0,0,0,0,0,0,0,0,0,0,0,0,0,0,0,0,0,0,0,0,0,0,0,0,0,0,0,0,0,0,0,0,0,0,0,0,0,0,0,0,0,0,0,0,0,0,0,0,0,0,0,0,0,0,0,0,0,0,0,0,0,0,0,0,0,0,0,0,0,0,0,0,0,0,0,0,0,0,0,0,0,0,0,0,0,0,0,0,0,0,0,0,0,0,0,0,0,0,0,0,0,0,0,0,0,0,0,0,0,0,0,0,0,0,0,0,0,0,0,0,0,0,0,0,0,0,0,0,0,0,0,0,0,0,0,0,0,0,0,0,0,0,0,0,0,0,0,0,0,0,0,0,0,0,0,0,0,0,0,0,0,0,0,0,0,0,0,0,0,0,0,0,0,0,0,0,0,0,0,0,0,0,0,0,0,0,0,0,0,0,0,0,0,0,0,0,0,0,0,0,0,0,0,0,0,0,0,0,0,0,0,0,0,0,0,0,0,0,0,0,1765,0,0,0,0,0,0,0,0,0,0,0,0,0,0,0,0,0,0,0,0,0,0,0,0,0,0,0,0,0,0,0,0,0,0,0,0,0,0,0,0,0,0,0,0,0,0,0,0,0,0,0,0,0,0,0,0,0,0,0,0,0,0,0,0,0,0,0,0,0,0,0,0,0,0,0,0,0,0,0,0,0,0,0,0,0,0,0,0,0,0,0,0,0,0,0,0,0,0,0,0,0,0,0,0,0,0,0,0,0,0,0,0,0,0,0,0,0,0,0,0,0,0,0,0,0,0,0,0,0,0,0,0,0,0,0,0,0,0,0,0,0,0,0,0,0,0,0,0,0,0,0,0,0,0,0,0,0,0,0,0,0,0,0,0,0,0,0,0,0,0,0,0,0,0,0,0,0,0,1,0,0,0,0,0,0,0,0,0,0,0,0,0,0,0,0,0,0,0,0,0,0,0,0,0,0,0,0,0,0,0,0,0,0,0,0,0,0,0,0,0,0,0,0,0,0,0,0,0,0,0,0,0,0,0,0,0,0,0,0,0,0,0,0,0,0,0,0,0,0,0,0,0,0,0,0,0,0,0,0,0,0,0,0,0,0,2165,0,0,0,0,0,0,0,0,0,0,0,0,0,0,0,0,0,0,0,0,0,0,0,0,0,0,0,0,0,0,0,0,0,0,0,0,0,0,0,0,0,0,0,0,0,0,0,0,0,0,0,0,0,0,0,0,0,0,0,0,0,0,0,0,0,0,0,0,0,0,0,0,0,0,0,0,0,0,0,0,0,0,0,0,0,0,0,0,0,0,0,0,0,0,0,0,0,0,0,0,0,0,0,0,0,0,0,0,0,0,0,0,0,0,0,0,0,0,0,0,0,0,0,0,0,0,0,0,0,0,0,0,0,0,0,0,0,0,0,0,0,0,0,0,0,0,0,0,0,0,0,0,0,0,0,0,0,0,0,0,0,0,0,0,0,0,0,0,0,0,0,0,0,0,0,0,0,0,0,0,0,0,0,0,0,0,0,0,0,0,0,0,0,0,0,0,0,0,0,0,0,0,0,0,0,0,0,0,0,0,0,0,0,0,0,0,0,0,0,0,0,0,0,0,0,0,0,0,0,0,0,0,0,0,0,0,0,0,0,0,0,0,0,0,0,0,0,0,0,0,0,0,0,0,0,0,0,0,2229,0,0,0,0,0,0,0,0,0,0,0,0,0,0,0,0,0,0,0,0,0,0,0,0,0,0,0,0,0,0,0,0,0,0,0,0,0,0,0,0,0,0,0,0,0,0,0,0,0,0,0,0,0,0,0,0,0,0,0,0,0,0,0,0,0,0,0,0,0,0,0,0,0,0,0,0,0,0,0,0,0,0,0,0,0,0,0,0,0,0,0,0,0,0,0,0,0,0,0,0,0,0,0,0,0,0,0,0,0,0,0,0,0,0,0,0,0,0,0,0,0,0,0,0,0,0,0,0,0,0,0,0,0,0,0,0,0,0,0,0,0,0,0,0,0,0,0,0,0,0,0,0,0,0,0,0,0,0,0,0,0,0,0,0,0,0,0,0,0,0,0,0,0,0,0,0,0,0,0,0,0,0,0,0,0,0,0,0,0,0,0,0,0,0,0,0,0,0,0,0,0,0,0,0,0,0,0,0,0,0,0,0,0,0,0,0,0,0,0,0,0,0,0,0,0,0,0,0,0,0,0,0,0,0,0,0,0,0,0,0,0,0,0,0,0,0,0,0,0,0,0,0,0,0,0,0,0,0,0,0,0,0,0,0,0,0,0,0,0,0,0,0,0,0,0,0,0,0,0,0,0,0,0,0,0,0,0,0,0,0,0,0,0,0,0,0,0,0,0,0,0,0,0,0,0,0,0,0,0,0,0,0,0,0,0,0,0,0,0,0,0,0,0,0,0,0,0,0,0,0,0,0,0,0,0,0,0,0,0,0,0,0,0,0,0,0,0,0,0,0,0,0,0,0,0,0,0,0,0,0,0,0,0,0,0,0,0,0,0,0,0,0,0,0,0,0,0,0,0,0,0,0,0,0,0,0,0,0,0,0,0,0,0,0,0,0,0,0,0,0,0,0,0,0,0,0,0,0,0,0,0,0,0,0,0,0,0,0,0,0,0,0,0,0,0,0,0,0,0,0,0,0,0,0,0,0,0,0,0,0,0,0,0,0,0,0,0,0,0,0,0,0,0,0,0,0,0,0,0,0,0,0,0,0,0,0,0,0,0,0,0,0,0,0,0,0,0,0,0,0,0,0,0,0,0,0,0,0,0,0,0,0,0,0,0,0,0,0,0,0,0,0,0,0,0,0,0,0,0,0,0,0,0,0,0,0,0,0,0,0,0,0,0,0,0,0,0,0,0,0,0,0,0,0,0,0,0,0,0,0,0,0,0,0,0,0,0,0,0,0,0,0,0,0,0,0,0,0,0,0,0,0,0,0,0,0,0,0,0,0,0,0,0,0,0,0,0,0,0,0,0,0,0,0,0,0,0,0,0,0,0,0,0,0,0,0,0,0,0,0,0,0,0,0,0,0,0,0,0,0,0,0,0,0,0,0,0,0,0,0,0,0,0,0,0,0,0,0,0,0,0,0,0,0,0,0,0,0,0,0,0,0,0,0,0,0,0,0,0,0,0,0,0,0,0,0,0,0,0,0,0,0,0,0,0,0,0,0,0,0,0,0,0,0,0,0,0,0,0,0,0,0,0,0,0,0,0,0,0,0,0,0,0,0,0,0,0,0,0,0,0,0,0,0,0,0,0,0,0,0,0,0,0,0,0,0,0,0,0,0,0,0,0,0,0,0,0,0,0,0,0,0,0,0,0,0,0,0,0,0,0,0,0,0,0,0,0,0,0,0,0,0,0,0,1073744424,0,0,2600,0,0,0,0,0,0,0,0,0,0,0,0,0,0,0,0,0,0,0,0,0,0,0,0,0,0,0,0,0,0,0,0,0,0,0,0,0,0,0,0,0,0,0,0,0,0,0,0,0,0,0,1073744424,0,0,2600,0,0,0,0,0,0,0,0,0,0,0,2726,2727,2728,0,0,0,0,0,0,0,0,0,0,0,0,1,2726,2727,1073744551,1073744550,0,0,0,0,0,0,0,0,0,0,0,0,0,0,0,0,0,0,0,0,0,0,0,0,0,0,0,0,0,0,0,0,0,0,0,0,0,0,0,0,0,0,0,0,0,0,0,0,0,0,0,2662,2663,2663,1073744486,0,0,0,0,0,0,0,0,0,0,0,2470,2471,2472,0,2473,2474,2475,0,0,0,0,0,0,0,0,1,2470,2471,2471,2472,0,0,0,0,0,0,0,0,0,0,0,0,0,0,0,0,0,0,0,0,0,0,0,0,0,0,0,0,0,0,0,0,0,0,0,0,0,0,0,0,0,0,0,0,0,0,0,0,0,0,0,2470,2471,2471,2472,0,0,0,0,0,0,0,0,0,0,0,0,0,0,0,0,0,0,0,0,0,0,0,0,0,0,0,0,0,0,0,0,0,0,0,0,0,0,0,0,0,0,0,0,0,0,0,0,0,0,0,0,0,0,0,0,0,0,0,0,0,0,0,0,0,0,0,0,0,0,0,0,0,0,0,0,0,0,0,0,0,0,0,0,0,0,0,0,0,0,0,0,0,0,0,0,0,0,0,0,0,0,0,0,0,0,0,0,0,0,0,0,0,0,0,0,0,0,0,0,0,0,0,0,0,0,0,0,0,0,0,0,0,0,0,0,0,0,0,0,0,0,0,0,0,0,0,0,0,0,0,0,0,0,0,0,0,0,0,0,0,0,0,0,0,0,0,0,0,0,0,0,0,0,0,0,0,0,0,0,0,0,0,0,0,0,0,0,0,0,0,0,0,0,0,0,0,0,0,0,0,0,0,0,0,0,0,0,0,0,0,0,0,0,0,0,0,0,0,0,0,0,0,0,0,0,0,0,0,0,0,0,0,0,0,0,0,0,0,0,0,0,0,0,0,0,0,0,0,0,0,0,0,0,0,0,0,0,0,0,0,0,0,0,0,0,0,0,0,0,0,0,0,0,0,0,0,0,0,0,0,0,0,0,0,0,0,0,0,0,0,0,0,0,0,0,0,0,0,0,0,0,0,0,0,0,0,0,0,0,0,0,0,0,0,0,0,0,0,0,0,0,0,0,0,0,0,0,0,0,0,0,0,0,0,0,0,0,0,0,0,0,0,0,0,0,0,0,0,0,0,0,0,0,0,0,0,0,0,0,0,0,0,0,0,0,0,0,0,0,0,0,0,0,0,0,0,0,0,0,0,0,0,0,0,0,0,0,0,0,0,0,0,0,0,0,0,0,0,0,0,0,0,0,0,0,0,0,0,0,0,0,0,0,0,0,0,0,0,0,0,0,0,0,0,0,0,0,0,0,0,0,0,0,0,0,0,0,0,0,0,0,0,0,0,0,0,0,0,0,0,0,0,0,0,0,0,0,0,0,0,0,0,0,0,0,0,0,0,0,0,0,0,0,0,0,0,0,0,0,0,0,0,0,0,0,0,0,0,0,0,0,0,0,0,0,0,0,0,0,0,0,0,0,0,0,0,0,0,0,0,0,0,0,0,0,0,0,0,0,0,0,0,0,0,0,0,0,0,0,0,0,0,0,0,0,0,0,0,0,0,0,0,0,0,0,0,0,0,0,0,0,0,0,0,0,0,0,0,0,0,0,0,0,0,0,0,0,0,0,0,0,0,0,0,0,0,0,0,0,0,0,0,0,0,0,0,0,0,0,0,0,0,0,0,0,0,0,0,0,0,0,0,0,0,0,0,0,0,0,0,0,0,0,0,0,0,0,0,0,0,0,0,0,0,0,0,0,0,0,0,0,0,0,0,0,0,0,0,0,0,0,0,0,0,0,0,0,0,0,0,0,0,0,0,0,0,0,0,0,0,0,0,0,0,0,0,0,0,0,0,0,0,0,0,0,0,0,0,0,0,0,0,0,0,0,0,0,0,0,0,0,0,0,0,0,0,0,0,0,0,0,0,0,0,0,0,0,0,0,0,0,0,0,0,0,0,0,0,0,0,0,0,0,0,0,0,0,0,0,0,0,0,0,0,0,0,0,0,0,0,0,0,0,0,0,0,0,0,0,0,0,0,0,0,0,0,0,0,0,0,0,0,0,0,0,0,0,0,0,0,0,0,0,0,0,0,0,0,0,0,0,0,0,0,0,0,0,0,0,0,0,0,0,0,0,0,0,0,0,0,0,0,0,0,0,0,0,0,0,0,0,0,0,0,0,0,0,0,0,0,0,0,0,0,0,0,0,0,0,0,0,0,0,0,0,0,0,0,0,0,0,0,0,0,0,0,0,0,0,0,0,0,0,0,0,0,0,0,0,0,0,0,0,0,0,0,0,0,0,0,0,0,0,0,0,0,0,0,0,0,0,0,0,0,0,0,0,0,0,0,0,0,0,0,0,0,0,0,0,0,0,0,0,0,0,0,0,0,0,0,0,0,0,0,0,0,0,0,0,0,0,0,0,0,1,1,1,1,0,0,0,0,0,0,0,0,0,0,0,0,0,0,0,0,0,0,0,0,0,0,0,0,0,0,0,0,0,0,0,0,0,0,0,0,0,0,0,0,0,0,0,0,0,0,0,0,0,0,0,0,0,0,0,0,0,0,0,0,0,0,0,0,0,0,0,0,0,0,0,0,0,0,0,0,0,0,0,0,0,0,1,1,1,1,0,0,0,0,0,0,0,0,0,0,0,0,0,0,0,0,0,0,0,0,0,0,0,0,0,0,0,0,0,0,0,0,0,0,0,0,0,0,0,0,0,0,0,0,0,0,0,0,0,0,0,0,0,0,0,0,0,0,0,0,0,0,0,0,0,0,0,0,0,0,0,0,0,0,0,0,0,0,0,0,0,0,0,0,0,0,0,0,0,0,0,0,0,0,0,0,0,0,0,0,0,0,0,0,0,0,0,0,0,0,0,0,0,0,0,0,0,0,0,0,0,0,0,0,0,0,0,0,0,0,0,0,0,0,0,0,0,0,0,0,0,0,0,0,0,0,0,0,0,0,0,0,0,0,0,0,0,0,0,0,0,0,0,0,0,0,0,0,0,0,0,0,0,0,0,0,0,0,0,0,0,0,0,0,0,0,0,0,0,0,0,0,0,0,0,0,0,0,0,0,0,0,0,0,0,0,0,0,0,0,0,0,0,0,0,0,0,0,0,0,0,0,0,0,0,0,0,0,0,0,0,0,0,0,0,0,0,0,0,0,0,0,0,0,0,0,0,0,0,0,0,0,0,0,0,0,0,0,0,0,0,0,0,0,0,0,0,0,0,0,0,0,0,0,0,0,0,0,0,0,0,0,0,0,0,0,0,0,0,0,0,0,0,0,0,0,0,0,0,0,0,0,0,0,0,0,0,0,0,0,0,0,0,0,0,0,0,0,0,0,0,0,0,0,0,0,0,0,0,0,0,0,0,0,0,0,0,0,0,0,0,0,0,0,0,0,0,0,0,0,0,0,0,0,0,0,0,0,0,0,0,0,0,0,0,0,0,0,0,0,0,0,0,0,0,0,0,0,0,0,0,0,0,0,0,0,0,0,0,0,0,0,0,0,0,0,0,0,0,0,0,0,0,0,0,0,0,0,0,0,0,0,0,0,0,0,0,0,0,0,0,0,0,0,0,0,0,0,0,0,0,0,0,0,0,0,0,0,0,0,0,0,0,0,0,0,0,0,0,0,0,0,0,0,0,0,0,0,0,0,0,0,0,0,0,0,0,0,0,0,0,0,0,0,0,0,0,0,0,0,0,0,0,0,0,0,0,0,0,0,0,0,0,0,0,0]},{"id":12,"name":"cloud_shadow","type":"tilelayer","x":0,"y":0,"width":86,"height":48,"opacity":1,"visible":true,"data":[0,0,0,0,0,0,0,0,0,0,0,1543,1538,1538,1604,0,0,0,0,0,0,0,0,0,0,0,0,0,0,0,0,0,0,0,0,0,0,0,0,0,0,0,0,0,0,0,0,0,0,0,0,0,0,0,0,0,0,0,0,0,0,0,0,0,0,0,0,0,0,0,0,0,0,0,1543,1538,1538,1538,1538,1604,0,0,0,0,0,0,0,0,0,0,0,0,0,0,0,0,1545,1539,1538,1538,1604,0,0,0,0,0,0,0,0,0,0,0,0,0,0,0,0,0,0,0,0,0,0,0,0,0,0,0,0,0,0,0,0,0,0,0,0,0,0,0,0,0,0,0,0,0,0,0,0,0,0,0,0,0,0,0,0,0,0,0,1607,1606,1542,1538,1538,1540,1605,0,0,0,0,0,0,1545,1541,1541,1541,1541,1541,1541,1541,1605,1543,1538,1538,1538,1604,0,0,0,0,0,0,0,0,0,0,0,0,0,0,0,0,0,0,0,0,0,0,0,0,0,0,0,0,0,0,0,0,0,0,0,0,0,0,0,0,0,84,0,0,0,0,0,0,0,0,0,0,0,0,0,0,0,0,0,0,0,1607,1542,1538,1538,1540,1541,1605,0,0,0,0,1543,1538,1538,1538,1538,1538,1538,1538,1604,1543,1538,1538,1538,1604,0,0,0,0,0,0,0,0,0,0,0,0,0,0,0,0,0,0,0,0,0,0,0,0,0,0,0,0,0,0,0,0,0,0,0,0,0,0,0,0,0,0,0,0,0,0,0,0,0,0,0,0,0,0,0,0,0,0,0,0,0,0,1543,1538,1538,1538,1538,1540,1605,0,0,0,1543,1538,1538,1538,1538,1602,1606,1542,1540,1539,1538,1538,1602,1608,0,0,0,0,0,0,0,0,0,0,0,0,0,0,0,0,0,0,0,0,0,0,0,0,0,0,0,0,0,0,0,0,0,0,0,0,0,0,0,0,0,0,0,0,0,0,0,0,0,0,0,0,0,0,0,0,0,0,0,0,0,0,1543,1538,1538,1538,1538,1538,1604,0,0,0,1543,1538,1538,1538,1538,1540,1541,1539,1538,1538,1538,1538,1604,0,0,0,0,0,0,0,0,0,0,0,0,0,0,0,0,0,0,0,0,0,0,0,0,0,0,0,0,0,0,0,0,0,1,1,1,0,0,0,0,0,0,0,0,0,0,0,0,0,0,0,0,0,0,0,0,0,0,0,0,0,0,0,1607,1542,1538,1538,1538,1538,1604,0,0,0,1607,1606,1542,1538,1538,1538,1538,1538,1602,1542,1538,1538,1604,0,0,0,0,0,0,0,0,0,0,0,0,0,0,0,0,0,0,0,0,0,0,0,0,0,0,0,0,0,0,0,0,0,1,1,1,0,0,0,0,0,0,0,0,0,0,0,0,0,0,0,0,0,0,0,0,0,0,0,0,0,0,0,0,1543,1538,1538,1538,1538,1540,1605,0,0,0,0,1543,1538,1538,1538,1538,1538,1540,1539,1538,1538,1604,0,0,0,0,0,1545,1541,1541,1605,0,0,0,0,0,0,0,0,0,0,0,0,0,0,0,0,0,0,0,0,0,0,0,0,1545,1541,1605,0,0,0,0,0,0,0,0,0,1545,1541,1605,0,0,0,0,0,0,0,0,0,0,0,0,0,0,0,0,1607,1542,1538,1538,1538,1538,1604,0,0,0,0,1607,1542,1538,1538,1538,1538,1538,1538,1538,1602,1608,0,0,0,0,0,1543,1538,1538,1604,0,0,0,0,0,0,0,0,77,77,0,0,0,0,0,0,0,0,0,0,0,0,0,0,1543,1538,1604,0,0,0,0,0,0,0,0,0,1543,1538,1604,0,0,0,0,0,1545,1541,1541,1605,0,0,0,0,0,0,0,0,1607,1542,1538,1538,1538,1540,1541,0,0,0,0,1607,1542,1538,1538,1538,1602,1542,1538,1604,0,0,0,0,0,0,1543,1538,1538,1604,0,0,0,0,0,0,1,1,77,77,0,0,0,0,0,0,0,0,0,0,0,0,0,0,1607,1606,1608,0,0,0,0,0,0,0,0,0,1607,1606,1608,0,0,0,0,0,1543,1538,1538,1604,0,0,0,0,0,0,0,0,1,1607,1542,1538,1538,1538,1538,0,1545,1541,1605,0,1543,1538,1538,1602,1608,1607,1606,1608,0,0,0,0,0,0,1607,1606,1606,1608,0,0,0,0,0,0,1543,77,1073741903,78,77,77,0,0,0,0,0,0,1545,1541,1605,0,0,0,0,0,0,0,0,0,0,0,0,0,0,0,0,0,0,0,0,0,0,0,1607,1542,1538,1604,0,0,0,0,1,1,1,0,1,1,1543,1538,1538,1538,1538,1541,1539,1538,1604,0,1543,1538,1538,1604,0,0,0,0,0,0,0,0,0,0,0,0,0,0,0,0,0,0,0,0,1607,77,1073741903,0,84,84,1541,1541,1541,1605,0,1,1543,1538,1540,1605,0,0,0,0,0,0,0,0,0,0,0,0,0,0,0,0,0,0,0,0,0,0,0,1607,1606,1608,0,0,0,1,1,1,1,0,1,1,1607,1542,1538,1538,1538,1538,1538,1538,1540,1541,1539,1538,1538,1604,0,0,0,0,0,0,0,1545,1541,1605,0,0,0,0,0,0,0,0,0,0,0,536870991,1610612815,0,1543,1538,1538,1538,1538,1604,0,1,1607,1542,1538,1604,0,0,0,0,0,0,0,0,0,0,0,0,0,0,0,0,0,0,0,0,0,0,0,0,0,0,1545,1541,1605,1,1,1,1,1,0,1,1,1543,1538,1538,1538,1538,1538,1538,1538,1538,1538,1538,1538,1540,1605,0,0,0,0,0,0,1543,1538,1604,0,0,0,0,0,0,0,0,0,0,0,0,1,0,1607,1542,1538,1538,1602,1608,0,1,1,1607,1606,1608,0,0,0,0,0,0,0,0,0,0,0,0,0,0,0,0,0,0,0,0,0,0,0,0,0,0,1607,1606,1608,1,1,1,1,1,0,0,0,1543,1538,1538,1538,1538,1538,1538,1538,1538,1538,1538,1538,1538,1604,0,0,0,0,0,0,1607,1606,1608,0,0,0,0,0,0,0,0,0,0,0,0,0,0,0,1607,1606,1606,1608,0,0,0,1,1,1,1,0,0,0,0,0,0,0,0,0,0,0,0,0,0,0,0,0,0,0,0,0,0,0,0,0,0,1545,1541,1605,1,1545,1541,1605,1,0,0,0,1607,1542,1538,1538,1538,1538,1538,1538,1538,1602,1606,1606,1606,1608,0,0,0,0,0,0,0,0,0,0,0,0,0,1545,1541,1541,1605,0,0,0,0,0,0,0,0,0,0,0,0,0,0,1,1,1,1,0,0,0,0,0,0,0,0,0,0,0,0,0,0,0,0,0,0,0,0,0,0,0,0,0,0,1607,1606,1608,1545,1539,1538,1540,1605,0,0,0,0,1607,1606,1606,1538,1538,1538,1538,1538,1604,0,0,0,0,0,0,0,0,0,0,0,0,0,0,0,0,0,1543,1538,1538,1604,0,0,0,0,0,0,0,0,0,0,0,0,0,0,1,1,1,1,0,0,0,0,0,0,0,0,0,0,0,0,0,0,0,0,0,0,0,0,0,0,0,0,0,0,1,1,1,1543,1538,1538,1538,1604,0,0,0,0,0,0,0,1538,1538,1538,1538,1538,1604,1,1,0,0,0,0,0,0,0,0,0,0,0,0,0,0,0,1607,1606,1606,1608,0,0,0,0,0,0,0,0,0,0,0,0,0,0,1,1,1,1,0,0,0,0,0,0,0,0,0,0,0,0,0,0,0,0,0,0,0,0,0,0,0,0,0,0,1,1,1,1607,1606,1606,1606,1608,0,0,0,0,0,0,0,1538,1538,1538,1538,1538,1540,1605,1,0,0,0,0,0,0,0,0,0,0,0,0,0,0,0,0,0,0,0,0,0,0,0,0,0,0,0,0,0,0,0,0,0,1,1,1,1,0,0,0,0,0,0,0,0,0,0,0,0,0,0,0,0,0,0,0,0,0,0,0,0,0,0,0,0,0,0,0,0,0,0,0,0,0,0,0,0,0,1538,1538,1538,1538,1538,1538,1604,1,0,0,0,0,0,0,0,0,0,0,0,0,0,0,0,0,0,0,0,0,0,0,0,0,0,0,0,0,0,0,0,0,0,0,0,0,0,0,0,0,0,0,0,0,0,0,0,0,0,0,0,0,0,0,0,0,0,0,0,0,0,0,0,0,0,0,0,0,0,0,0,0,0,0,0,0,0,0,1538,1538,1538,1538,1538,1538,1604,1,0,0,0,0,0,0,0,0,0,0,0,0,0,0,0,0,0,0,0,0,0,0,0,0,0,0,0,0,0,0,0,0,0,0,0,0,0,0,0,0,0,0,0,0,0,0,0,0,0,0,0,0,0,0,0,0,0,0,0,0,0,0,0,0,0,0,0,0,0,0,0,0,0,0,0,0,0,0,1538,1602,1606,1606,1606,1606,1608,1,0,0,0,0,0,0,0,0,0,0,0,0,0,0,0,0,0,0,0,0,0,0,0,0,0,0,0,0,0,0,0,0,0,0,0,0,0,0,0,0,0,0,0,0,0,0,0,0,0,0,0,0,0,0,0,0,0,0,0,0,0,0,0,0,0,0,0,0,0,0,0,0,0,0,0,0,0,0,1538,1604,0,1,1,1,1,1,0,0,0,0,0,0,0,0,0,0,0,0,0,0,0,0,0,0,0,0,0,0,0,0,0,0,0,0,0,0,0,0,0,0,0,0,0,1545,1541,1605,0,0,0,0,0,0,0,0,0,0,0,0,0,0,0,79,77,1073741903,0,0,0,0,0,0,0,0,0,0,0,0,0,0,0,0,0,0,0,0,1606,1608,0,1,1,1,1,1,0,0,0,0,0,0,0,0,0,0,0,0,0,0,0,0,0,0,0,0,0,0,0,0,0,0,0,0,0,0,0,0,0,0,0,0,0,1543,1538,1604,0,0,0,0,0,0,0,0,0,0,0,0,0,0,0,0,1545,1541,1541,1541,1605,0,0,0,0,0,0,0,0,0,0,0,0,0,0,0,0,0,0,0,0,1545,1541,1605,0,0,0,0,0,0,0,1,1,1,1,0,0,0,0,0,0,0,0,0,0,0,0,0,0,0,0,0,0,0,0,0,0,0,0,0,0,0,0,1607,1606,1608,0,1545,1541,1605,0,0,0,0,0,0,0,0,0,0,0,0,1543,1538,1538,1538,1540,1605,0,0,0,0,0,0,0,0,0,0,0,0,0,0,0,0,0,0,0,1543,1538,1604,0,0,0,0,0,0,0,1545,1541,1605,1,0,0,0,0,0,0,0,0,0,0,0,0,0,0,0,0,0,0,0,0,0,0,0,0,0,0,0,0,1545,1541,1605,0,1543,1538,1604,0,0,0,0,0,0,0,0,0,0,0,0,1607,1606,1542,1538,1538,1604,0,0,0,0,0,0,0,0,0,0,0,0,0,0,0,0,0,0,0,1607,1606,1608,0,0,0,0,0,0,0,1543,1538,1604,1,0,0,0,0,0,0,0,0,0,0,0,0,0,0,0,0,0,0,0,0,0,0,0,0,0,0,0,0,1543,1538,1540,1541,1603,1606,1608,0,0,0,0,0,0,0,0,0,0,0,0,1,1,1607,1606,1606,1608,1545,1541,1605,0,0,0,0,0,1,1,1,1,1,1,1,1,1541,1605,0,0,0,0,0,0,0,0,0,0,0,1607,1606,1608,0,0,0,0,0,0,0,0,0,0,0,0,0,0,0,0,0,0,0,0,0,0,0,0,0,0,0,0,1545,1539,1538,1538,1538,1604,0,0,0,0,0,0,0,0,0,0,0,0,0,0,1,1,1,0,0,0,1607,1606,1608,0,0,0,0,0,1,1,1,1,1,1,1,1,1538,1604,0,0,0,0,0,0,0,0,0,0,0,0,0,0,0,0,0,0,0,0,0,0,0,0,0,0,0,0,0,0,0,0,0,0,0,0,0,0,0,0,0,0,1543,1538,1602,1606,1606,1608,0,0,0,0,0,0,0,0,0,0,0,0,0,0,0,0,0,0,0,0,1,1,1,0,0,0,0,0,1,1,1,1,1,1,1,1,1606,1608,79,77,1073741903,0,0,0,0,0,0,0,0,0,0,77,77,0,0,0,0,0,0,0,0,0,0,0,0,0,0,0,0,0,0,0,0,0,0,0,0,0,0,0,1607,1606,1608,0,0,0,0,0,0,0,0,0,0,0,0,0,0,0,0,0,0,0,0,0,0,0,1,1,1,0,0,0,0,0,1,1,1,1,1,1,1,1,0,0,1,84,1,1,0,0,0,0,0,0,0,0,0,84,84,0,0,0,0,0,0,0,0,0,0,0,0,0,0,0,0,0,0,0,0,0,0,0,0,0,0,0,0,0,0,0,0,0,0,0,0,0,0,0,0,0,0,0,0,0,0,0,0,0,0,0,0,0,0,0,0,0,0,0,0,0,1,1,1,1,1,1,1,1,0,0,0,0,0,0,0,0,0,0,0,0,0,0,0,0,0,0,0,0,0,0,0,0,0,0,0,0,0,0,0,0,0,0,0,0,0,0,0,0,0,0,0,0,0,0,0,0,0,0,0,0,0,0,0,0,0,0,0,0,0,0,0,0,0,0,0,0,0,0,0,0,0,0,0,0,0,0,1,1,1,1,1,1,1,1,0,0,0,0,0,0,0,0,0,0,0,0,0,0,0,0,0,0,0,0,0,0,0,0,0,0,0,0,0,0,0,0,0,0,0,0,0,0,0,0,0,0,0,0,0,0,0,0,0,0,0,0,0,0,0,0,0,0,0,0,0,0,0,0,0,0,0,0,0,0,0,0,0,0,0,0,0,0,1,1,1,1,1,1,1,1,0,0,0,0,0,0,0,0,0,0,0,0,0,0,0,0,0,0,0,0,0,0,0,0,0,0,0,0,0,0,0,0,0,0,0,0,0,0,0,0,0,0,0,0,0,0,0,0,0,0,0,0,0,0,0,0,0,0,0,0,0,0,0,0,0,0,0,0,0,0,0,0,0,0,0,0,0,0,1,1,1,1,1,1,1,1,0,0,0,0,0,0,0,0,0,0,0,0,0,0,0,0,0,0,0,0,0,0,0,0,0,0,0,0,0,0,0,0,0,0,0,0,0,0,0,0,0,0,0,0,0,0,0,0,0,0,0,0,0,0,0,0,0,0,0,0,0,0,0,0,0,0,0,0,0,0,0,0,0,0,0,0,0,0,0,0,0,0,0,0,0,0,0,0,0,0,0,0,0,0,0,0,0,0,0,0,0,0,0,0,1,0,0,0,0,0,0,0,0,0,0,0,0,0,0,0,0,0,0,0,0,0,0,0,0,0,0,0,0,0,0,0,0,0,0,0,0,0,0,0,0,0,0,0,0,0,0,0,0,0,0,0,0,0,0,0,0,0,0,0,0,0,0,0,0,0,0,0,0,0,0,0,0,0,0,0,0,0,0,0,0,0,0,0,0,0,1,0,0,0,0,0,0,0,0,0,0,0,0,0,0,0,0,0,0,0,0,0,0,1,84,1,1,0,0,0,0,0,0,0,0,0,0,0,0,0,0,0,0,0,0,0,0,0,0,0,0,0,0,0,0,0,0,0,0,0,0,0,0,0,0,0,0,0,0,0,0,0,0,0,0,0,0,0,0,0,0,0,0,0,0,0,0,0,0,0,0,0,0,0,0,0,0,0,0,0,0,0,0,0,0,0,0,0,0,1,1,0,0,0,0,0,0,0,0,0,0,0,0,0,0,0,0,0,0,0,0,0,0,0,0,0,0,0,0,0,0,0,0,0,0,0,0,0,0,0,0,0,0,0,0,0,0,0,0,0,0,0,0,0,0,0,0,0,0,0,0,0,0,0,0,0,0,0,0,0,0,0,0,0,0,0,0,0,0,0,0,0,0,0,0,0,0,0,0,0,0,0,0,0,0,0,0,0,0,0,0,0,0,0,0,0,0,0,0,0,0,0,0,0,0,0,0,0,0,0,0,0,0,0,0,0,0,0,0,0,0,0,0,0,0,0,0,0,0,0,0,0,0,0,0,0,0,0,0,0,0,0,0,0,0,0,0,0,0,0,0,0,0,0,0,0,0,0,0,0,0,0,84,0,0,0,0,0,0,0,0,0,0,0,0,0,0,0,0,0,0,0,0,0,0,0,0,0,0,0,0,0,0,0,0,0,0,0,0,0,0,0,0,0,0,0,0,0,0,0,0,0,0,0,0,0,0,0,0,0,0,0,0,0,0,0,0,0,0,0,0,0,0,0,0,0,0,0,0,0,0,0,0,0,0,0,0,0,0,0,0,0,0,0,0,0,0,0,0,0,0,0,0,0,0,0,0,0,0,0,0,0,0,0,0,0,0,0,0,0,0,0,0,0,0,0,0,0,0,0,0,0,0,0,0,0,0,0,0,0,0,0,0,0,0,0,0,0,0,0,0,0,0,0,0,0,0,0,0,0,0,0,0,0,0,0,0,0,0,0,0,0,0,0,0,0,0,0,0,0,0,0,0,0,0,0,0,0,0,0,0,0,0,0,0,0,0,0,0,0,0,0,0,0,0,0,0,0,0,0,0,0,0,0,0,0,0,0,0,0,0,0,0,0,0,0,0,0,0,0,0,0,0,0,0,0,0,0,0,0,0,0,0,0,0,0,0,0,0,0,0,0,0,0,0,0,0,0,0,0,0,0,0,0,0,0,0,0,0,0,0,0,0,0,0,0,0,0,0,0,0,0,0,0,0,0,0,0,0,0,0,0,0,0,0,0,0,0,0,0,0,0,0,0,0,0,0,0,0,0,0,0,0,0,0,0,0,0,0,0,0,0,0,0,0,0,0,0,0,0,0,0,0,0,0,0,0,0,0,0,0,0,0,0,0,0,0,0,0,0,0,0,0,0,0,0,0,0,0,0,0,0,0,0,0,0,0,0,0,0,0,0,0,0,0,0,0,0,0,0,0,0,0,0,0,0,0,0,0,0,0,0,0,0,0,0,0,0,0,0,0,0,0,0,0,0,0,0,0,0,0,0,0,0,0,0,0,0,0,0,0,0,0,0,0,0,0,0,0,0,0,0,0,0,0,0,0,0,0,0,0,0,0,0,0,0,0,0,0,0,0,1,1,1,0,0,0,0,0,0,0,0,0,0,0,0,0,0,0,0,0,0,0,0,0,0,0,0,0,0,0,0,0,0,0,0,0,0,0,0,0,0,0,0,0,0,0,0,0,0,0,0,0,0,0,0,0,0,0,0,0,0,0,0,0,0,0,0,0,0,0,0,0,0,0,0,0,0,0,0,0,0,0,0,0,0,0,1,1,1,0,0,0,1545,1541,1541,1605,0,0,0,0,0,0,0,0,0,0,0,0,0,0,0,0,0,0,0,0,0,0,0,0,0,0,0,1545,1541,1541,1541,1605,0,0,0,0,0,0,0,0,0,0,0,0,0,0,0,0,0,0,0,0,0,0,0,0,0,0,0,0,0,0,0,0,1545,1541,1541,1605,0,0,0,0,0,0,0,0,1,1,1,0,0,1545,1539,1538,1538,1604,0,0,0,0,0,0,0,0,0,0,0,0,0,0,0,0,0,0,0,0,0,0,0,0,0,0,0,1543,1538,1538,1538,1604,0,0,0,0,0,0,0,0,0,0,0,0,0,0,0,0,0,0,0,0,0,0,0,0,0,0,0,0,0,0,0,0,1543,1538,1538,1604,0,0,0,0,0,0,0,0,1353,1349,1413,0,0,1543,1538,1538,1538,1604,0,0,0,0,0,0,0,0,0,0,0,0,0,0,0]},{"id":13,"name":"clouds_01","type":"tilelayer","x":0,"y":0,"width":86,"height":48,"opacity":1,"visible":true,"data":[1154,1154,1154,1154,1154,1154,1154,1154,1154,1154,1154,1154,1154,1154,1154,1220,0,0,1159,1154,1154,1154,1154,1220,0,0,0,0,0,1159,1154,1220,0,1,1,1,1,1,1,1,0,0,0,0,0,0,0,1159,1154,1220,0,0,0,0,0,0,0,0,0,1159,1154,1220,0,0,0,0,0,0,0,0,0,0,0,0,1159,1154,1220,1159,1154,1154,1154,1154,1154,1154,1154,1154,1154,1154,1154,1154,1154,1154,1154,1154,1154,1154,1154,1154,1154,1154,1154,1156,1221,0,1223,1158,1154,1154,1218,1224,0,0,0,0,0,1223,1222,1224,1161,1157,1157,1157,1157,1157,1157,1221,0,0,0,0,0,0,0,1223,1222,1224,0,0,0,0,0,0,0,0,0,1223,1222,1224,0,0,0,0,1161,1157,1157,1157,1221,0,0,0,1223,1222,1224,1223,1222,1158,1154,1154,1154,1154,1154,1154,1154,1154,1154,1218,1222,1222,1222,1158,1154,1154,1154,1154,1218,1158,1154,1154,1220,0,0,1223,1222,1222,1224,0,0,0,0,0,0,0,0,0,1159,1154,1154,1154,1154,1154,1154,1220,0,0,0,0,0,0,0,0,0,0,0,0,0,0,0,0,0,0,0,0,0,0,0,0,0,0,1159,1154,1154,1154,1220,1,1,1,0,0,0,0,0,1223,1158,1154,1154,1154,1154,1154,1154,1154,1218,1224,1,1,0,1159,1154,1154,1218,1222,1224,1159,1154,1218,1160,1157,1221,0,0,0,0,0,0,0,0,0,0,0,0,0,1223,1222,1158,1154,1154,1218,1222,1224,0,0,0,0,0,0,0,0,0,0,0,0,0,0,0,0,0,0,0,0,0,0,0,0,0,0,1223,1158,1154,1154,1220,1,1,1,0,0,0,0,0,0,1223,1158,1154,1154,1154,1154,1154,1154,1220,0,0,1161,1157,1155,1154,1218,1224,0,0,1223,1222,1224,1159,1154,1220,0,0,0,0,0,0,0,0,0,0,0,0,0,0,0,1223,1222,1222,1224,1,1,1,0,0,0,0,0,0,0,0,0,0,0,0,0,0,0,0,0,0,0,0,0,0,0,0,0,0,1223,1222,1222,1224,1,1,1,1,1,1,1,1,0,0,1159,1154,1154,1154,1154,1154,1154,1156,1157,1157,1155,1154,1154,1154,1156,1221,0,0,0,0,0,1223,1222,1224,0,0,0,0,0,0,0,0,0,0,0,1,1,1,0,0,0,1,1,1,1,1161,1157,1157,1221,0,0,0,0,0,0,0,0,0,0,0,0,0,0,0,0,0,0,0,0,0,0,0,0,0,0,0,1,1,1,1,1,1,1,1,0,0,1159,1154,1154,1154,1154,1154,1154,1154,1154,1154,1154,1154,1154,1154,1154,1220,0,0,0,0,0,0,0,0,0,0,0,0,1161,1157,1157,1221,0,0,0,1,1,1,0,0,0,1,1,1,1,1159,1154,1154,1156,1221,0,0,0,0,0,0,0,0,0,0,0,0,0,0,0,0,0,0,0,0,0,0,0,0,0,0,1,1,1,1,1,1,1161,1157,1221,0,1223,1222,1158,1154,1154,1154,1154,1154,1154,1154,1154,1218,1222,1222,1222,1224,0,0,0,0,0,0,0,0,0,0,0,0,1159,1154,1154,1220,0,0,0,1,1,1,0,0,0,0,0,0,0,1223,1222,1158,1154,1220,0,0,0,0,0,0,0,0,0,0,0,0,0,0,0,0,0,0,0,0,0,0,0,0,0,1161,1157,1221,1,1,1,1161,1155,1154,1156,1221,0,0,1159,1154,1154,1154,1154,1154,1154,1154,1154,1220,0,0,0,0,0,0,0,0,0,0,0,0,0,0,0,0,1223,1222,1222,1224,0,0,0,1,1,1,0,0,0,0,0,0,0,0,0,1223,1222,1224,0,0,0,0,0,0,0,0,0,0,0,0,0,0,0,0,0,0,0,0,0,0,0,0,0,1159,1154,1220,1,0,0,1159,1154,1154,1154,1220,0,0,1223,1158,1154,1154,1154,1154,1154,1154,1218,1224,0,0,0,0,0,0,0,0,0,0,0,0,0,0,0,0,0,0,0,0,0,0,0,0,0,0,0,0,0,0,0,0,0,0,0,0,0,0,0,0,0,0,0,0,0,0,0,0,0,0,0,0,0,0,0,0,0,0,0,0,0,0,0,1223,1222,1224,1,0,0,1223,1222,1222,1222,1224,0,0,0,1223,1222,1154,1154,1154,1154,1154,1156,1221,1,1,0,0,0,0,0,0,0,0,0,0,0,0,0,0,0,0,1161,1157,1221,0,0,0,0,0,0,0,0,0,0,0,0,0,0,0,0,0,0,0,0,0,0,0,0,0,0,0,0,0,0,0,0,0,0,0,0,0,0,1,1,1,0,1,1,1,1,0,0,0,0,0,0,1353,1349,1349,1413,0,0,1154,1154,1154,1154,1154,1154,1220,1,1,0,0,0,0,0,0,0,0,0,0,0,0,0,0,0,0,1223,1222,1224,0,0,0,0,0,0,0,0,0,0,0,0,0,0,0,0,0,0,0,0,0,0,0,0,0,0,0,0,0,0,0,0,0,0,0,0,0,0,1161,1157,1221,0,1,1,1,0,0,0,0,0,0,0,1351,1346,1346,1412,1353,1349,1154,1218,1158,1154,1154,1154,1220,1,1,0,0,0,0,0,0,0,0,0,0,0,0,0,0,0,0,1,1,1,0,0,0,0,0,0,0,0,0,0,0,0,0,0,0,0,0,0,0,0,0,0,0,0,0,0,0,0,0,0,0,0,0,0,0,0,0,1,1159,1154,1220,0,0,0,0,0,0,0,0,0,0,0,1415,1414,1414,1416,1351,1346,1154,1220,1223,1222,1222,1222,1224,0,0,0,0,0,0,0,0,0,0,0,0,0,0,0,0,0,0,1,1,1,0,0,0,0,0,0,0,0,0,0,0,0,0,0,0,0,0,0,0,0,0,0,0,0,0,0,0,0,0,0,0,0,0,0,0,0,1,1,1223,1222,1224,0,0,0,0,0,0,1,1,1,1,1,1,1,1,1,1415,1414,1154,1220,1161,1157,1221,0,0,0,0,0,0,0,0,0,0,0,0,0,0,0,0,0,0,0,0,1,1,1,0,0,0,0,0,0,0,0,0,0,0,0,0,0,0,0,0,0,1161,1157,1221,0,0,0,0,0,0,0,0,0,0,0,0,0,0,0,1,1,1,1161,1157,1157,1157,1221,0,0,0,1,1,1,1,1,1,1,1,1,1,1,1222,1224,1159,1154,1220,0,0,0,0,0,0,0,0,0,0,0,0,0,0,0,0,0,0,0,0,0,0,0,0,0,0,0,0,0,0,0,0,0,0,0,0,0,0,0,0,0,1159,1154,1220,0,0,0,0,0,0,0,0,0,0,0,0,0,0,1,1,1,1,1159,1154,1154,1154,1220,1,1,0,1,1,1,1,1,1,1,1,1,1,1,1157,1221,1223,1222,1224,0,0,0,0,0,0,0,0,1161,1157,1221,1,1,1,0,0,0,0,0,0,0,0,0,0,0,0,0,0,0,0,0,0,0,0,0,0,0,0,0,0,0,1223,1222,1224,1161,1157,1221,0,0,0,0,0,0,0,0,0,0,0,1,1,1,1,1223,1158,1154,1218,1224,1,1,0,1,1,1,1,1,1,1,1,1,1,1,1154,1220,0,0,0,0,0,0,0,0,0,0,0,1159,1154,1220,1,1,1,0,0,0,0,0,0,0,0,0,0,0,0,0,0,0,0,0,0,0,0,0,0,0,0,0,0,0,0,0,0,1159,1154,1220,0,0,0,0,0,0,0,0,0,0,0,1,1,1,1,1,1223,1222,1224,1,1,1,0,1,1,1,1,1,1,1,1,1,1,1,1222,1224,0,0,0,0,0,0,0,0,0,0,0,1223,1222,1224,1,1,1,0,0,0,0,0,0,0,0,0,0,0,0,0,0,0,0,0,0,0,0,0,0,0,0,0,0,1161,1157,1221,0,1223,1222,1224,0,0,0,0,0,0,0,0,0,0,0,0,1,1,1,1,1161,1157,1221,1,1,1,0,1,1,1,1,1,1,1,1,1,1353,1349,0,0,0,0,0,0,0,0,0,0,0,0,0,0,0,0,0,0,0,0,0,0,0,0,0,0,0,0,0,0,0,0,0,0,0,0,0,0,0,0,0,0,0,0,0,1159,1154,1156,1157,1221,1,1,0,0,0,241,0,0,0,0,0,0,0,0,0,0,0,0,1159,1154,1220,1,1,1,0,1,1,1,1,1,1,1,1,1,1351,1346,0,0,0,0,0,0,0,0,0,0,0,0,0,0,0,0,0,0,0,0,0,0,0,0,0,0,0,0,0,0,0,0,0,0,0,0,0,0,0,0,0,0,0,0,1,1223,1222,1158,1154,1220,1,1,0,0,0,0,0,0,0,0,0,0,0,0,0,0,0,0,1223,1222,1224,1,1,1,0,1,1,1,1,1,1,1,1,1,1415,1414,0,0,0,0,0,0,0,0,0,0,0,0,0,0,0,0,0,0,0,0,0,0,0,0,0,0,0,0,0,0,0,0,0,0,0,0,0,0,0,0,0,0,0,0,1,1,1,1223,1222,1224,0,0,0,0,0,0,0,0,0,0,0,0,0,0,0,0,0,0,0,0,0,1,1,1,1,1,1,1,1,1,1,1,1,1,1,1,0,0,0,0,0,0,0,0,0,0,0,0,0,0,0,0,0,0,0,0,0,0,0,0,0,0,0,0,0,0,0,0,0,0,0,0,0,0,0,0,0,0,0,0,1,1,1,1,0,0,0,0,0,0,0,0,0,0,0,0,0,0,0,0,0,0,0,0,0,0,0,0,1,1,1,1,1,1,1,1,1,1,1,1,1,1,0,0,0,0,0,0,0,0,0,0,0,0,0,0,0,0,0,0,0,0,0,0,0,0,0,0,0,0,0,0,0,0,0,0,0,0,0,0,0,0,0,0,0,0,0,0,0,0,0,0,0,0,0,0,0,0,0,0,0,0,0,0,0,0,0,0,0,0,0,0,0,0,1,1,1,1,1,1,1,1,1,1,1,1,1,1,0,0,0,0,0,0,0,0,0,0,0,0,0,0,0,0,0,0,0,0,0,0,0,0,0,0,0,0,0,0,0,0,0,0,0,0,0,0,0,0,0,0,0,0,0,0,0,0,0,0,0,0,0,0,0,0,0,0,0,0,0,0,0,0,0,0,0,0,0,0,0,0,1,1,1,1,1,1,1,1,1,1,1,1,1,1,1157,1221,0,0,0,0,0,0,0,0,0,0,0,0,0,0,0,0,0,0,0,0,0,0,0,0,0,0,0,0,0,0,0,0,0,0,0,0,0,0,0,0,0,0,0,0,0,0,0,0,0,0,0,0,0,0,0,0,0,0,0,0,0,0,0,0,0,0,0,0,0,0,1,1,1,1,1,1,1,1,1,1,1,1,1353,1349,1154,1156,1221,0,0,0,0,0,0,0,0,0,0,0,0,0,0,0,0,0,0,0,0,0,0,0,0,0,0,0,0,0,0,0,0,0,0,0,0,0,0,0,0,0,0,0,0,0,0,0,0,0,0,0,0,0,0,0,0,0,0,0,0,0,0,0,0,0,0,0,0,0,1,1,1,1,1,1,1,1,1,1,1353,1349,1347,1346,1154,1154,1220,0,0,0,0,0,0,0,0,0,0,0,0,0,0,0,0,0,0,0,0,0,0,0,0,0,0,0,0,0,0,0,0,0,0,0,0,0,0,0,0,0,0,0,0,0,0,0,0,0,0,0,0,0,0,0,0,0,0,0,0,0,0,0,0,0,0,0,0,0,0,0,0,1,1,1,1,1,1,1,1351,1346,1346,1346,1154,1218,1224,0,0,0,0,0,0,0,0,0,0,0,0,0,0,0,0,0,0,0,0,0,0,0,0,0,0,0,0,0,0,0,0,0,0,0,0,0,0,0,0,0,0,0,0,0,0,0,0,0,0,0,0,0,0,0,0,0,0,0,0,0,0,0,0,0,0,0,0,0,0,0,0,1,1,1,1,1,1,1,1415,1350,1346,1346,1154,1220,0,0,0,0,0,0,0,0,0,0,0,0,0,0,0,0,0,0,0,0,0,0,0,0,0,0,0,0,0,0,0,0,0,0,0,0,0,0,0,0,0,0,0,0,0,0,0,0,0,0,0,0,0,0,0,0,0,0,0,0,0,0,0,0,0,0,0,0,0,0,0,0,0,1,1,1,0,0,0,1,1,1415,1414,1414,1222,1224,0,0,0,0,0,0,0,0,0,0,0,0,0,0,0,0,0,0,0,0,0,0,0,0,0,0,0,0,0,0,0,0,0,0,0,0,0,0,0,0,0,0,0,0,0,0,0,0,0,0,0,0,0,0,0,0,0,0,0,0,0,0,0,0,0,0,0,0,0,0,0,0,0,0,0,0,0,0,0,1,1,1,1353,1349,0,0,0,0,0,0,0,0,0,0,0,0,0,0,0,0,0,0,0,0,0,0,0,0,0,0,0,0,0,0,0,0,0,0,0,0,0,0,0,0,0,0,0,0,0,0,0,0,0,0,0,0,0,0,0,0,0,0,0,0,0,0,0,0,0,0,0,0,0,0,0,0,0,0,0,0,0,0,0,0,0,1,1,1,1351,1346,0,0,0,0,0,0,0,0,0,0,0,0,0,0,0,0,0,0,0,0,0,0,0,0,0,0,0,0,0,0,0,0,0,0,0,0,0,0,0,0,0,0,0,0,0,0,0,0,0,0,0,0,0,0,0,0,0,0,0,0,0,0,0,0,0,0,0,0,0,0,0,0,0,0,0,0,0,0,0,0,0,0,1,1,1415,1350,0,0,0,0,0,0,0,0,0,0,0,0,0,0,0,0,0,0,0,0,0,0,0,0,0,0,0,0,0,0,0,0,0,0,0,0,0,0,0,0,0,0,0,0,0,0,0,0,0,0,0,0,0,0,0,0,0,0,0,0,0,0,0,0,0,0,0,0,0,0,0,0,0,0,0,0,0,0,1,1,1,1,1,1,1,1351,1,1,1,0,0,0,0,0,0,0,0,0,0,0,0,0,0,0,0,0,0,0,0,0,0,0,0,0,0,0,0,0,0,0,0,0,0,0,0,0,0,0,0,0,0,0,0,0,0,0,0,0,0,0,0,0,0,0,0,0,0,0,0,0,0,0,0,0,0,0,0,0,0,0,0,0,0,1,1,1,1,1,0,1,1,1415,1157,1157,1221,1,1,1,0,0,0,0,0,0,0,0,0,0,0,0,0,0,0,0,0,0,0,0,0,0,0,0,0,0,0,0,0,0,0,0,0,0,0,0,0,0,0,0,0,0,0,0,0,0,0,0,0,0,0,0,0,0,0,0,0,0,0,0,0,0,0,0,0,0,0,0,0,0,0,1,1,1,1,1,1,1,1,1,1154,1154,1220,1161,1157,1221,0,0,0,0,0,0,0,0,0,0,0,0,0,0,0,0,0,0,0,0,0,0,0,0,0,0,0,0,0,0,0,0,0,0,0,0,0,0,0,0,0,0,0,0,0,0,0,0,0,0,0,0,0,0,0,0,0,0,0,0,0,0,0,0,0,0,0,0,0,0,0,1,1,1,1,1161,1157,1157,1221,1,1154,1218,1224,1159,1154,1220,0,0,0,0,0,0,0,0,0,0,0,0,0,0,0,0,0,0,0,0,0,0,0,0,0,0,0,0,0,0,0,0,0,0,0,0,0,0,0,0,0,0,0,0,0,0,0,0,0,0,0,0,0,0,0,0,0,0,1732,0,0,0,0,0,0,0,0,0,0,0,0,1,1,1,1,1159,1154,1154,1220,1161,1154,1156,1221,1223,1222,1224,0,0,0,0,0,0,0,0,0,0,0,0,0,0,0,0,0,0,0,0,0,0,0,0,0,0,0,0,0,0,0,0,0,0,0,0,0,0,0,0,0,0,0,0,0,0,0,0,0,0,0,0,0,0,0,0,0,0,0,0,0,0,0,0,0,0,0,0,0,0,0,1,1,1,1,1223,1222,1222,1160,1155,1154,1154,1220,0,0,0,0,0,0,0,0,0,0,0,0,0,0,0,0,0,0,0,0,0,0,0,0,0,0,0,0,0,0,0,0,0,0,0,0,0,0,0,0,0,0,0,0,0,0,0,0,0,0,0,0,0,0,1,1,1,1,1161,1157,1221,0,0,0,0,0,0,0,0,0,0,0,0,0,0,0,1,1,1,1,1,1159,1154,1222,1222,1224,0,0,0,0,0,0,0,1,1,1161,1157,1221,0,0,0,0,0,0,0,0,0,0,0,0,0,0,0,0,0,0,0,0,0,0,0,0,0,0,0,0,0,0,0,0,0,0,0,0,0,0,0,0,0,0,1,1,1,1,1159,1154,1220,0,0,0,0,0,0,0,0,0,0,0,0,0,0,0,1,1,1,1,1161,1155,1154,1,1,1,0,0,0,0,0,0,0,1,1,1159,1154,1156,1157,1221,0,0,0,0,0,0,0,0,0,0,0,0,0,0,0,0,0,0,0,0,0,0,0,0,0,0,0,0,1,1,1,1,1,1,1,1,1,0,0,0,1,1,1161,1157,1219,1222,1224,1161,1157,1157,1221,0,0,0,0,0,0,0,0,0,0,0,1,1161,1157,1157,1155,1154,1154,1221,1,1,0,0,0,0,0,0,0,1,1,1223,1222,1158,1154,1220,0,0,0,0,0,0,0,0,0,0,0,0,0,0,0,0,1161,1157,1221,0,1,1,1,0,0,0,0,0,1,1,1,1,1,1,1,1,1,0,0,0,1,1,1159,1154,1220,1,1,1159,1154,1154,1220,0,0,0,0,0,0,0,0,0,0,0,0,1159,1154,1154,1154,1154,1154,1220,1,1,1,1,1,1,1,1,1,1,1,1,1,1223,1222,1224,1,1,1,0,0,0,0,0,0,0,0,0,0,0,1161,1157,1155,1154,1220,1161,1157,1221,1,0,0,0,0,0,1,1,1,1,1,1,1,1,1,1,1,1,1,1,1223,1222,1224,1,1,1223,1222,1158,1220,0,0,0,0,0,0,0,0,0,0,0,0,1223,1158,1154,1154,1154,1154,1156,1221,1,1,1,1,1,1,1,1,1,1,1,1,1,0,0,1161,1157,1221,0,0,0,0,0,0,0,0,0,0,0,1159,1154,1218,1222,1224,1159,1154,1156,1221,0,0,0,0,0,0,0,0,0,0,0,0,0,0,1,1,1,1,1,1,1,1,1,1,1,1,1223,1224,1161,1157,1157,1221,0,0,0,0,0,0,0,0,0,1159,1154,1154,1154,1154,1154,1156,1221,1,1,1,1,1,1,1,1,1,1,0,0,0,0,1159,1154,1220,0,0,0,0,0,0,0,0,0,0,0,1223,1222,1224,0,0,1223,1222,1222,1224,0,0,0,0,0,0,0,0,0,0,0,1,1,1,1,1,1,1,1,1,1,1,1,1,1,1,1,1,1159,1154,1154,1220,0,0,0,0,0,0,0,0,0,1159,1154,1154,1154,1154,1154,1154,1220,1,1,1,1,1,1,0,0,0,0,0,0,0,0,1223,1222,1224,0,0,0,0,0,0,0,0,0,0,0,0,0,0,1,1,1,1,1,1,1,0,0,0,0,0,0,0,0,0,0,1,1,1,1,1,1,1,1,1,1,1,1,1161,1157,1157,1157,1221,1223,1222,1222,1224,0,0,0,0,0,0,0,1161,1157,1155,1154,1154,1154,1154,1154,1154,1220,1,1,1161,1157,1221,1,0,0,0,0,0,0,0,0,0,0,0,0,0,0,0,0,0,0,0,0,0,0,0,0,0,1,1,1,1,1,1,1,0,0,0,0,0,0,0,0,0,0,1,1,1,1,1,1,1,1,1,1,1,1161,1155,1154,1154,1154,1220,0,0,0,0,0,0,0,0,0,0,0,1159,1154,1154,1154,1154,1154,1154]},{"id":14,"name":"props","type":"objectgroup","x":0,"y":0,"opacity":1,"visible":true,"draworder":"topdown","objects":[{"id":1,"name":"spr_deco_beam","type":"prop","x":507.84436,"y":81,"width":0,"height":0,"point":true,"visible":true,"rotation":-40.553837,"properties":[{"name":"layer","type":"string","value":"Assets_2"},{"name":"frames","type":"int","value":1},{"name":"fps","type":"float","value":10},{"name":"originX","type":"float","value":0.5},{"name":"originY","type":"float","value":0.5},{"name":"scaleX","type":"float","value":1},{"name":"scaleY","type":"float","value":1.795929}]},{"id":2,"name":"spr_deco_beam","type":"prop","x":469,"y":160,"width":0,"height":0,"point":true,"visible":true,"rotation":39.810246,"properties":[{"name":"layer","type":"string","value":"Assets_2"},{"name":"frames","type":"int","value":1},{"name":"fps","type":"float","value":10},{"name":"originX","type":"float","value":0.5},{"name":"originY","type":"float","value":0.5},{"name":"scaleX","type":"float","value":1},{"name":"scaleY","type":"float","value":1.795929}]},{"id":3,"name":"spr_deco_chinmney","type":"prop","x":1352,"y":253,"width":0,"height":0,"point":true,"visible":true,"rotation":0,"properties":[{"name":"layer","type":"string","value":"Assets_2"},{"name":"frames","type":"int","value":1},{"name":"fps","type":"float","value":10},{"name":"originX","type":"float","value":0.45454545454545453},{"name":"originY","type":"float","value":1},{"name":"scaleX","type":"float","value":1},{"name":"scaleY","type":"float","value":1}]},{"id":4,"name":"spr_deco_tree_02","type":"prop","x":1327,"y":252,"width":0,"height":0,"point":true,"visible":true,"rotation":0,"properties":[{"name":"layer","type":"string","value":"Assets_2"},{"name":"frames","type":"int","value":4},{"name":"fps","type":"float","value":4},{"name":"originX","type":"float","value":0.5},{"name":"originY","type":"float","value":1},{"name":"scaleX","type":"float","value":1},{"name":"scaleY","type":"float","value":1}]},{"id":5,"name":"spr_deco_jar_02","type":"prop","x":1003,"y":573,"width":0,"height":0,"point":true,"visible":true,"rotation":0,"properties":[{"name":"layer","type":"string","value":"Assets_2"},{"name":"frames","type":"int","value":1},{"name":"fps","type":"float","value":10},{"name":"originX","type":"float","value":0},{"name":"originY","type":"float","value":0},{"name":"scaleX","type":"float","value":1},{"name":"scaleY","type":"float","value":1}]},{"id":6,"name":"spr_deco_jar_02","type":"prop","x":1130,"y":572,"width":0,"height":0,"point":true,"visible":true,"rotation":0,"properties":[{"name":"layer","type":"string","value":"Assets_2"},{"name":"frames","type":"int","value":1},{"name":"fps","type":"float","value":10},{"name":"originX","type":"float","value":0},{"name":"originY","type":"float","value":0},{"name":"scaleX","type":"float","value":1},{"name":"scaleY","type":"float","value":1}]},{"id":7,"name":"spr_deco_jar_02","type":"prop","x":1124,"y":578,"width":0,"height":0,"point":true,"visible":true,"rotation":0,"properties":[{"name":"layer","type":"string","value":"Assets_2"},{"name":"frames","type":"int","value":1},{"name":"fps","type":"float","value":10},{"name":"originX","type":"float","value":0},{"name":"originY","type":"float","value":0},{"name":"scaleX","type":"float","value":1},{"name":"scaleY","type":"float","value":1}]},{"id":8,"name":"spr_deco_jar_02","type":"prop","x":1133,"y":579,"width":0,"height":0,"point":true,"visible":true,"rotation":0,"properties":[{"name":"layer","type":"string","value":"Assets_2"},{"name":"frames","type":"int","value":1},{"name":"fps","type":"float","value":10},{"name":"originX","type":"float","value":0},{"name":"originY","type":"float","value":0},{"name":"scaleX","type":"float","value":1},{"name":"scaleY","type":"float","value":1}]},{"id":9,"name":"spr_deco_jar_01","type":"prop","x":1062,"y":538,"width":0,"height":0,"point":true,"visible":true,"rotation":0,"properties":[{"name":"layer","type":"string","value":"Assets_2"},{"name":"frames","type":"int","value":1},{"name":"fps","type":"float","value":10},{"name":"originX","type":"float","value":0},{"name":"originY","type":"float","value":0},{"name":"scaleX","type":"float","value":1},{"name":"scaleY","type":"float","value":1}]},{"id":10,"name":"spr_deco_barrel_closed","type":"prop","x":1178,"y":447,"width":0,"height":0,"point":true,"visible":true,"rotation":0,"properties":[{"name":"layer","type":"string","value":"Assets_2"},{"name":"frames","type":"int","value":1},{"name":"fps","type":"float","value":10},{"name":"originX","type":"float","value":0.46153846153846156},{"name":"originY","type":"float","value":0.5},{"name":"scaleX","type":"float","value":1},{"name":"scaleY","type":"float","value":1}]},{"id":11,"name":"spr_deco_barrel_closed","type":"prop","x":1178,"y":458,"width":0,"height":0,"point":true,"visible":true,"rotation":0,"properties":[{"name":"layer","type":"string","value":"Assets_2"},{"name":"frames","type":"int","value":1},{"name":"fps","type":"float","value":10},{"name":"originX","type":"float","value":0.46153846153846156},{"name":"originY","type":"float","value":0.5},{"name":"scaleX","type":"float","value":1},{"name":"scaleY","type":"float","value":1}]},{"id":12,"name":"spr_deco_barrel_water","type":"prop","x":1126,"y":452,"width":0,"height":0,"point":true,"visible":true,"rotation":0,"properties":[{"name":"layer","type":"string","value":"Assets_2"},{"name":"frames","type":"int","value":1},{"name":"fps","type":"float","value":10},{"name":"originX","type":"float","value":0.46153846153846156},{"name":"originY","type":"float","value":0.5},{"name":"scaleX","type":"float","value":1},{"name":"scaleY","type":"float","value":1}]},{"id":13,"name":"spr_deco_bucket","type":"prop","x":1185,"y":463,"width":0,"height":0,"point":true,"visible":true,"rotation":0,"properties":[{"name":"layer","type":"string","value":"Assets_2"},{"name":"frames","type":"int","value":1},{"name":"fps","type":"float","value":10},{"name":"originX","type":"float","value":0.5},{"name":"originY","type":"float","value":0.45454545454545453},{"name":"scaleX","type":"float","value":1},{"name":"scaleY","type":"float","value":1}]},{"id":14,"name":"kale_05","type":"prop","x":676,"y":664,"width":0,"height":0,"point":true,"visible":true,"rotation":0,"properties":[{"name":"layer","type":"string","value":"Assets_2"},{"name":"frames","type":"int","value":1},{"name":"fps","type":"float","value":10},{"name":"originX","type":"float","value":0},{"name":"originY","type":"float","value":0},{"name":"scaleX","type":"float","value":1},{"name":"scaleY","type":"float","value":1}]},{"id":15,"name":"kale_05","type":"prop","x":741,"y":670,"width":0,"height":0,"point":true,"visible":true,"rotation":0,"properties":[{"name":"layer","type":"string","value":"Assets_2"},{"name":"frames","type":"int","value":1},{"name":"fps","type":"float","value":10},{"name":"originX","type":"float","value":0},{"name":"originY","type":"float","value":0},{"name":"scaleX","type":"float","value":1},{"name":"scaleY","type":"float","value":1}]},{"id":16,"name":"spr_deco_windmillshadow","type":"prop","x":664,"y":357,"width":0,"height":0,"point":true,"visible":true,"rotation":0,"properties":[{"name":"layer","type":"string","value":"Assets_2"},{"name":"frames","type":"int","value":9},{"name":"fps","type":"float","value":10},{"name":"originX","type":"float","value":0.5},{"name":"originY","type":"float","value":0.5},{"name":"scaleX","type":"float","value":1},{"name":"scaleY","type":"float","value":0.65178573}]},{"id":17,"name":"spr_deco_windmillshadow","type":"prop","x":1168,"y":745,"width":0,"height":0,"point":true,"visible":true,"rotation":0,"properties":[{"name":"layer","type":"string","value":"Assets_2"},{"name":"frames","type":"int","value":9},{"name":"fps","type":"float","value":10},{"name":"originX","type":"float","value":0.5},{"name":"originY","type":"float","value":0.5},{"name":"scaleX","type":"float","value":1},{"name":"scaleY","type":"float","value":0.65178573}]},{"id":18,"name":"spr_deco_windmillshadow","type":"prop","x":1184,"y":271,"width":0,"height":0,"point":true,"visible":true,"rotation":0,"properties":[{"name":"layer","type":"string","value":"Assets_2"},{"name":"frames","type":"int","value":9},{"name":"fps","type":"float","value":10},{"name":"originX","type":"float","value":0.5},{"name":"originY","type":"float","value":0.5},{"name":"scaleX","type":"float","value":1.2010992},{"name":"scaleY","type":"float","value":0.78285944}]},{"id":19,"name":"spr_deco_tree_02","type":"prop","x":1209,"y":188,"width":0,"height":0,"point":true,"visible":true,"rotation":0,"properties":[{"name":"layer","type":"string","value":"Assets_2"},{"name":"frames","type":"int","value":4},{"name":"fps","type":"float","value":4},{"name":"originX","type":"float","value":0.5},{"name":"originY","type":"float","value":1},{"name":"scaleX","type":"float","value":1},{"name":"scaleY","type":"float","value":1}]},{"id":20,"name":"spr_deco_tree_02","type":"prop","x":1219.4065,"y":204,"width":0,"height":0,"point":true,"visible":true,"rotation":0,"properties":[{"name":"layer","type":"string","value":"Assets_2"},{"name":"frames","type":"int","value":4},{"name":"fps","type":"float","value":4},{"name":"originX","type":"float","value":0.5},{"name":"originY","type":"float","value":1},{"name":"scaleX","type":"float","value":1.1004556},{"name":"scaleY","type":"float","value":1.1004558}]},{"id":21,"name":"spr_deco_tree_01","type":"prop","x":1140,"y":160,"width":0,"height":0,"point":true,"visible":true,"rotation":0,"properties":[{"name":"layer","type":"string","value":"Assets_2"},{"name":"frames","type":"int","value":4},{"name":"fps","type":"float","value":4},{"name":"originX","type":"float","value":0},{"name":"originY","type":"float","value":0},{"name":"scaleX","type":"float","value":1},{"name":"scaleY","type":"float","value":1}]},{"id":22,"name":"spr_deco_shadow","type":"prop","x":1056,"y":469,"width":0,"height":0,"point":true,"visible":true,"rotation":0,"properties":[{"name":"layer","type":"string","value":"Assets_2"},{"name":"frames","type":"int","value":1},{"name":"fps","type":"float","value":10},{"name":"originX","type":"float","value":0.5},{"name":"originY","type":"float","value":0.5},{"name":"scaleX","type":"float","value":1},{"name":"scaleY","type":"float","value":1}]},{"id":23,"name":"spr_deco_shadow","type":"prop","x":560,"y":483,"width":0,"height":0,"point":true,"visible":true,"rotation":0,"properties":[{"name":"layer","type":"string","value":"Assets_2"},{"name":"frames","type":"int","value":1},{"name":"fps","type":"float","value":10},{"name":"originX","type":"float","value":0.5},{"name":"originY","type":"float","value":0.5},{"name":"scaleX","type":"float","value":-1},{"name":"scaleY","type":"float","value":1}]},{"id":24,"name":"spr_deco_shadow","type":"prop","x":788,"y":467,"width":0,"height":0,"point":true,"visible":true,"rotation":0,"properties":[{"name":"layer","type":"string","value":"Assets_2"},{"name":"frames","type":"int","value":1},{"name":"fps","type":"float","value":10},{"name":"originX","type":"float","value":0.5},{"name":"originY","type":"float","value":0.5},{"name":"scaleX","type":"float","value":1},{"name":"scaleY","type":"float","value":1}]},{"id":25,"name":"spr_deco_charactershadow","type":"prop","x":528,"y":568,"width":0,"height":0,"point":true,"visible":true,"rotation":0,"properties":[{"name":"layer","type":"string","value":"Assets_1"},{"name":"frames","type":"int","value":1},{"name":"fps","type":"float","value":10},{"name":"originX","type":"float","value":0.5},{"name":"originY","type":"float","value":0.5},{"name":"scaleX","type":"float","value":1},{"name":"scaleY","type":"float","value":1}]},{"id":26,"name":"spr_deco_charactershadow","type":"prop","x":576,"y":563,"width":0,"height":0,"point":true,"visible":true,"rotation":0,"properties":[{"name":"layer","type":"string","value":"Assets_1"},{"name":"frames","type":"int","value":1},{"name":"fps","type":"float","value":10},{"name":"originX","type":"float","value":0.5},{"name":"originY","type":"float","value":0.5},{"name":"scaleX","type":"float","value":1},{"name":"scaleY","type":"float","value":1}]},{"id":27,"name":"spr_deco_tree_01","type":"prop","x":730,"y":73,"width":0,"height":0,"point":true,"visible":true,"rotation":0,"properties":[{"name":"layer","type":"string","value":"Assets_1"},{"name":"frames","type":"int","value":4},{"name":"fps","type":"float","value":4},{"name":"originX","type":"float","value":0},{"name":"originY","type":"float","value":0},{"name":"scaleX","type":"float","value":1},{"name":"scaleY","type":"float","value":1}]},{"id":28,"name":"spr_deco_tree_01","type":"prop","x":286,"y":310,"width":0,"height":0,"point":true,"visible":true,"rotation":0,"properties":[{"name":"layer","type":"string","value":"Assets_1"},{"name":"frames","type":"int","value":4},{"name":"fps","type":"float","value":4},{"name":"originX","type":"float","value":0},{"name":"originY","type":"float","value":0},{"name":"scaleX","type":"float","value":1},{"name":"scaleY","type":"float","value":1}]},{"id":29,"name":"spr_deco_tree_01","type":"prop","x":477,"y":233,"width":0,"height":0,"point":true,"visible":true,"rotation":0,"properties":[{"name":"layer","type":"string","value":"Assets_1"},{"name":"frames","type":"int","value":4},{"name":"fps","type":"float","value":4},{"name":"originX","type":"float","value":0},{"name":"originY","type":"float","value":0},{"name":"scaleX","type":"float","value":-1},{"name":"scaleY","type":"float","value":1}]},{"id":30,"name":"spr_deco_tree_01","type":"prop","x":339,"y":307,"width":0,"height":0,"point":true,"visible":true,"rotation":0,"properties":[{"name":"layer","type":"string","value":"Assets_1"},{"name":"frames","type":"int","value":4},{"name":"fps","type":"float","value":4},{"name":"originX","type":"float","value":0},{"name":"originY","type":"float","value":0},{"name":"scaleX","type":"float","value":0.8935779},{"name":"scaleY","type":"float","value":0.8935779}]},{"id":31,"name":"spr_deco_tree_01","type":"prop","x":732.9358,"y":277.11926,"width":0,"height":0,"point":true,"visible":true,"rotation":0,"properties":[{"name":"layer","type":"string","value":"Assets_1"},{"name":"frames","type":"int","value":4},{"name":"fps","type":"float","value":4},{"name":"originX","type":"float","value":0},{"name":"originY","type":"float","value":0},{"name":"scaleX","type":"float","value":0.90825677},{"name":"scaleY","type":"float","value":0.90825677}]},{"id":32,"name":"spr_deco_trough","type":"prop","x":986,"y":422,"width":0,"height":0,"point":true,"visible":true,"rotation":0,"properties":[{"name":"layer","type":"string","value":"Assets_1"},{"name":"frames","type":"int","value":1},{"name":"fps","type":"float","value":10},{"name":"originX","type":"float","value":0.4827586206896552},{"name":"originY","type":"float","value":0.5},{"name":"scaleX","type":"float","value":1},{"name":"scaleY","type":"float","value":1}]},{"id":33,"name":"spr_deco_tree_01","type":"prop","x":913,"y":555,"width":0,"height":0,"point":true,"visible":true,"rotation":0,"properties":[{"name":"layer","type":"string","value":"Assets_1"},{"name":"frames","type":"int","value":4},{"name":"fps","type":"float","value":4},{"name":"originX","type":"float","value":0},{"name":"originY","type":"float","value":0},{"name":"scaleX","type":"float","value":1},{"name":"scaleY","type":"float","value":1}]},{"id":34,"name":"spr_deco_tree_01","type":"prop","x":364,"y":167.08624,"width":0,"height":0,"point":true,"visible":true,"rotation":0,"properties":[{"name":"layer","type":"string","value":"Assets_1"},{"name":"frames","type":"int","value":4},{"name":"fps","type":"float","value":4},{"name":"originX","type":"float","value":0},{"name":"originY","type":"float","value":0},{"name":"scaleX","type":"float","value":0.8798165},{"name":"scaleY","type":"float","value":0.87981653}]},{"id":35,"name":"spr_deco_tree_01","type":"prop","x":510.20367,"y":246.5,"width":0,"height":0,"point":true,"visible":true,"rotation":0,"properties":[{"name":"layer","type":"string","value":"Assets_1"},{"name":"frames","type":"int","value":4},{"name":"fps","type":"float","value":4},{"name":"originX","type":"float","value":0},{"name":"originY","type":"float","value":0},{"name":"scaleX","type":"float","value":0.9623852},{"name":"scaleY","type":"float","value":0.96238536}]},{"id":36,"name":"spr_deco_tree_01","type":"prop","x":788,"y":387,"width":0,"height":0,"point":true,"visible":true,"rotation":0,"properties":[{"name":"layer","type":"string","value":"Assets_1"},{"name":"frames","type":"int","value":4},{"name":"fps","type":"float","value":4},{"name":"originX","type":"float","value":0},{"name":"originY","type":"float","value":0},{"name":"scaleX","type":"float","value":1},{"name":"scaleY","type":"float","value":1}]},{"id":37,"name":"spr_deco_tree_01","type":"prop","x":297,"y":334,"width":0,"height":0,"point":true,"visible":true,"rotation":0,"properties":[{"name":"layer","type":"string","value":"Assets_1"},{"name":"frames","type":"int","value":4},{"name":"fps","type":"float","value":4},{"name":"originX","type":"float","value":0},{"name":"originY","type":"float","value":0},{"name":"scaleX","type":"float","value":1},{"name":"scaleY","type":"float","value":1}]},{"id":38,"name":"spr_deco_tree_01","type":"prop","x":1087,"y":483,"width":0,"height":0,"point":true,"visible":true,"rotation":0,"properties":[{"name":"layer","type":"string","value":"Assets_1"},{"name":"frames","type":"int","value":4},{"name":"fps","type":"float","value":4},{"name":"originX","type":"float","value":0},{"name":"originY","type":"float","value":0},{"name":"scaleX","type":"float","value":1},{"name":"scaleY","type":"float","value":1}]},{"id":39,"name":"spr_deco_tree_01","type":"prop","x":533,"y":714,"width":0,"height":0,"point":true,"visible":true,"rotation":0,"properties":[{"name":"layer","type":"string","value":"Assets_1"},{"name":"frames","type":"int","value":4},{"name":"fps","type":"float","value":4},{"name":"originX","type":"float","value":0},{"name":"originY","type":"float","value":0},{"name":"scaleX","type":"float","value":1},{"name":"scaleY","type":"float","value":1}]},{"id":40,"name":"spr_deco_tree_01","type":"prop","x":713.9064,"y":578.54407,"width":0,"height":0,"point":true,"visible":true,"rotation":0,"properties":[{"name":"layer","type":"string","value":"Assets_1"},{"name":"frames","type":"int","value":4},{"name":"fps","type":"float","value":4},{"name":"originX","type":"float","value":0},{"name":"originY","type":"float","value":0},{"name":"scaleX","type":"float","value":0.90917426},{"name":"scaleY","type":"float","value":0.90917426}]},{"id":41,"name":"spr_deco_tree_01","type":"prop","x":901,"y":232,"width":0,"height":0,"point":true,"visible":true,"rotation":0,"properties":[{"name":"layer","type":"string","value":"Assets_1"},{"name":"frames","type":"int","value":4},{"name":"fps","type":"float","value":4},{"name":"originX","type":"float","value":0},{"name":"originY","type":"float","value":0},{"name":"scaleX","type":"float","value":1},{"name":"scaleY","type":"float","value":1}]},{"id":42,"name":"spr_deco_tree_01","type":"prop","x":775,"y":31,"width":0,"height":0,"point":true,"visible":true,"rotation":0,"properties":[{"name":"layer","type":"string","value":"Assets_1"},{"name":"frames","type":"int","value":4},{"name":"fps","type":"float","value":4},{"name":"originX","type":"float","value":0},{"name":"originY","type":"float","value":0},{"name":"scaleX","type":"float","value":1},{"name":"scaleY","type":"float","value":1}]},{"id":43,"name":"spr_deco_tree_01","type":"prop","x":657.9358,"y":66,"width":0,"height":0,"point":true,"visible":true,"rotation":0,"properties":[{"name":"layer","type":"string","value":"Assets_1"},{"name":"frames","type":"int","value":4},{"name":"fps","type":"float","value":4},{"name":"originX","type":"float","value":0},{"name":"originY","type":"float","value":0},{"name":"scaleX","type":"float","value":0.992202},{"name":"scaleY","type":"float","value":0.9922018}]},{"id":44,"name":"spr_deco_tree_01","type":"prop","x":757,"y":44,"width":0,"height":0,"point":true,"visible":true,"rotation":0,"properties":[{"name":"layer","type":"string","value":"Assets_1"},{"name":"frames","type":"int","value":4},{"name":"fps","type":"float","value":4},{"name":"originX","type":"float","value":0},{"name":"originY","type":"float","value":0},{"name":"scaleX","type":"float","value":1},{"name":"scaleY","type":"float","value":1}]},{"id":45,"name":"spr_deco_tree_01","type":"prop","x":1049,"y":391,"width":0,"height":0,"point":true,"visible":true,"rotation":0,"properties":[{"name":"layer","type":"string","value":"Assets_1"},{"name":"frames","type":"int","value":4},{"name":"fps","type":"float","value":4},{"name":"originX","type":"float","value":0},{"name":"originY","type":"float","value":0},{"name":"scaleX","type":"float","value":1},{"name":"scaleY","type":"float","value":1}]},{"id":46,"name":"spr_deco_tree_01","type":"prop","x":596,"y":540,"width":0,"height":0,"point":true,"visible":true,"rotation":0,"properties":[{"name":"layer","type":"string","value":"Assets_1"},{"name":"frames","type":"int","value":4},{"name":"fps","type":"float","value":4},{"name":"originX","type":"float","value":0},{"name":"originY","type":"float","value":0},{"name":"scaleX","type":"float","value":1},{"name":"scaleY","type":"float","value":1}]},{"id":47,"name":"spr_deco_tree_01","type":"prop","x":541,"y":582,"width":0,"height":0,"point":true,"visible":true,"rotation":0,"properties":[{"name":"layer","type":"string","value":"Assets_1"},{"name":"frames","type":"int","value":4},{"name":"fps","type":"float","value":4},{"name":"originX","type":"float","value":0},{"name":"originY","type":"float","value":0},{"name":"scaleX","type":"float","value":1},{"name":"scaleY","type":"float","value":1}]},{"id":48,"name":"chimneysmoke_02","type":"prop","x":40,"y":343,"width":0,"height":0,"point":true,"visible":true,"rotation":0,"properties":[{"name":"layer","type":"string","value":"Assets_1"},{"name":"frames","type":"int","value":30},{"name":"fps","type":"float","value":10},{"name":"originX","type":"float","value":0.5},{"name":"originY","type":"float","value":1},{"name":"scaleX","type":"float","value":1},{"name":"scaleY","type":"float","value":1}]},{"id":49,"name":"chimneysmoke_03","type":"prop","x":474,"y":71,"width":0,"height":0,"point":true,"visible":true,"rotation":0,"properties":[{"name":"layer","type":"string","value":"Assets_1"},{"name":"frames","type":"int","value":30},{"name":"fps","type":"float","value":10},{"name":"originX","type":"float","value":0.5},{"name":"originY","type":"float","value":1},{"name":"scaleX","type":"float","value":-1},{"name":"scaleY","type":"float","value":1}]},{"id":50,"name":"chimneysmoke_05","type":"prop","x":943,"y":518,"width":0,"height":0,"point":true,"visible":true,"rotation":0,"properties":[{"name":"layer","type":"string","value":"Assets_1"},{"name":"frames","type":"int","value":30},{"name":"fps","type":"float","value":10},{"name":"originX","type":"float","value":0.5},{"name":"originY","type":"float","value":1},{"name":"scaleX","type":"float","value":1},{"name":"scaleY","type":"float","value":1}]},{"id":51,"name":"chimneysmoke_01","type":"prop","x":886,"y":419,"width":0,"height":0,"point":true,"visible":true,"rotation":0,"properties":[{"name":"layer","type":"string","value":"Assets_1"},{"name":"frames","type":"int","value":30},{"name":"fps","type":"float","value":10},{"name":"originX","type":"float","value":0.4666666666666667},{"name":"originY","type":"float","value":1},{"name":"scaleX","type":"float","value":1},{"name":"scaleY","type":"float","value":1}]},{"id":52,"name":"spr_deco_barrel_water","type":"prop","x":964,"y":420,"width":0,"height":0,"point":true,"visible":true,"rotation":0,"properties":[{"name":"layer","type":"string","value":"Assets_1"},{"name":"frames","type":"int","value":1},{"name":"fps","type":"float","value":10},{"name":"originX","type":"float","value":0.46153846153846156},{"name":"originY","type":"float","value":0.5},{"name":"scaleX","type":"float","value":1},{"name":"scaleY","type":"float","value":1}]},{"id":53,"name":"chimneysmoke_02","type":"prop","x":871,"y":116,"width":0,"height":0,"point":true,"visible":true,"rotation":0,"properties":[{"name":"layer","type":"string","value":"Assets_1"},{"name":"frames","type":"int","value":30},{"name":"fps","type":"float","value":10},{"name":"originX","type":"float","value":0.5},{"name":"originY","type":"float","value":1},{"name":"scaleX","type":"float","value":1},{"name":"scaleY","type":"float","value":1}]},{"id":54,"name":"spr_deco_cook_chinmney","type":"prop","x":960,"y":447,"width":0,"height":0,"point":true,"visible":true,"rotation":0,"properties":[{"name":"layer","type":"string","value":"Assets_1"},{"name":"frames","type":"int","value":1},{"name":"fps","type":"float","value":10},{"name":"originX","type":"float","value":0.48148148148148145},{"name":"originY","type":"float","value":1},{"name":"scaleX","type":"float","value":-1},{"name":"scaleY","type":"float","value":1}]},{"id":55,"name":"spr_deco_fire_02","type":"prop","x":966,"y":432,"width":0,"height":0,"point":true,"visible":true,"rotation":0,"properties":[{"name":"layer","type":"string","value":"Assets_1"},{"name":"frames","type":"int","value":4},{"name":"fps","type":"float","value":10},{"name":"originX","type":"float","value":0.5},{"name":"originY","type":"float","value":1},{"name":"scaleX","type":"float","value":-1},{"name":"scaleY","type":"float","value":1}]},{"id":56,"name":"chimneysmoke_04","type":"prop","x":961,"y":417,"width":0,"height":0,"point":true,"visible":true,"rotation":0,"properties":[{"name":"layer","type":"string","value":"Assets_1"},{"name":"frames","type":"int","value":30},{"name":"fps","type":"float","value":10},{"name":"originX","type":"float","value":0.5},{"name":"originY","type":"float","value":1},{"name":"scaleX","type":"float","value":-1},{"name":"scaleY","type":"float","value":1}]},{"id":57,"name":"spr_deco_tree_02","type":"prop","x":1005,"y":273,"width":0,"height":0,"point":true,"visible":true,"rotation":0,"properties":[{"name":"layer","type":"string","value":"Assets_1"},{"name":"frames","type":"int","value":4},{"name":"fps","type":"float","value":4},{"name":"originX","type":"float","value":0.5},{"name":"originY","type":"float","value":1},{"name":"scaleX","type":"float","value":1},{"name":"scaleY","type":"float","value":1}]},{"id":58,"name":"spr_deco_tree_02","type":"prop","x":953,"y":390,"width":0,"height":0,"point":true,"visible":true,"rotation":0,"properties":[{"name":"layer","type":"string","value":"Assets_1"},{"name":"frames","type":"int","value":4},{"name":"fps","type":"float","value":4},{"name":"originX","type":"float","value":0.5},{"name":"originY","type":"float","value":1},{"name":"scaleX","type":"float","value":1},{"name":"scaleY","type":"float","value":1}]},{"id":59,"name":"spr_deco_tree_02","type":"prop","x":924,"y":479,"width":0,"height":0,"point":true,"visible":true,"rotation":0,"properties":[{"name":"layer","type":"string","value":"Assets_1"},{"name":"frames","type":"int","value":4},{"name":"fps","type":"float","value":4},{"name":"originX","type":"float","value":0.5},{"name":"originY","type":"float","value":1},{"name":"scaleX","type":"float","value":1},{"name":"scaleY","type":"float","value":1}]},{"id":60,"name":"spr_deco_tree_02","type":"prop","x":840,"y":608,"width":0,"height":0,"point":true,"visible":true,"rotation":0,"properties":[{"name":"layer","type":"string","value":"Assets_1"},{"name":"frames","type":"int","value":4},{"name":"fps","type":"float","value":4},{"name":"originX","type":"float","value":0.5},{"name":"originY","type":"float","value":1},{"name":"scaleX","type":"float","value":1},{"name":"scaleY","type":"float","value":1}]},{"id":61,"name":"spr_deco_tree_02","type":"prop","x":568,"y":287,"width":0,"height":0,"point":true,"visible":true,"rotation":0,"properties":[{"name":"layer","type":"string","value":"Assets_1"},{"name":"frames","type":"int","value":4},{"name":"fps","type":"float","value":4},{"name":"originX","type":"float","value":0.5},{"name":"originY","type":"float","value":1},{"name":"scaleX","type":"float","value":1},{"name":"scaleY","type":"float","value":1}]},{"id":62,"name":"spr_deco_tree_02","type":"prop","x":983,"y":175,"width":0,"height":0,"point":true,"visible":true,"rotation":0,"properties":[{"name":"layer","type":"string","value":"Assets_1"},{"name":"frames","type":"int","value":4},{"name":"fps","type":"float","value":4},{"name":"originX","type":"float","value":0.5},{"name":"originY","type":"float","value":1},{"name":"scaleX","type":"float","value":1},{"name":"scaleY","type":"float","value":1}]},{"id":63,"name":"spr_deco_glint_02","type":"prop","x":1058,"y":232,"width":0,"height":0,"point":true,"visible":true,"rotation":0,"properties":[{"name":"layer","type":"string","value":"Assets_1"},{"name":"frames","type":"int","value":4},{"name":"fps","type":"float","value":5},{"name":"originX","type":"float","value":0},{"name":"originY","type":"float","value":0},{"name":"scaleX","type":"float","value":1},{"name":"scaleY","type":"float","value":1}]},{"id":64,"name":"spr_deco_glint_02","type":"prop","x":1048,"y":201,"width":0,"height":0,"point":true,"visible":true,"rotation":0,"properties":[{"name":"layer","type":"string","value":"Assets_1"},{"name":"frames","type":"int","value":4},{"name":"fps","type":"float","value":5},{"name":"originX","type":"float","value":0},{"name":"originY","type":"float","value":0},{"name":"scaleX","type":"float","value":-1},{"name":"scaleY","type":"float","value":1}]},{"id":65,"name":"spr_deco_glint_01","type":"prop","x":1024,"y":252,"width":0,"height":0,"point":true,"visible":true,"rotation":0,"properties":[{"name":"layer","type":"string","value":"Assets_1"},{"name":"frames","type":"int","value":6},{"name":"fps","type":"float","value":4},{"name":"originX","type":"float","value":0},{"name":"originY","type":"float","value":0},{"name":"scaleX","type":"float","value":1},{"name":"scaleY","type":"float","value":1}]},{"id":66,"name":"spr_deco_glint_02","type":"prop","x":994,"y":417,"width":0,"height":0,"point":true,"visible":true,"rotation":0,"properties":[{"name":"layer","type":"string","value":"Assets_1"},{"name":"frames","type":"int","value":4},{"name":"fps","type":"float","value":5},{"name":"originX","type":"float","value":0},{"name":"originY","type":"float","value":0},{"name":"scaleX","type":"float","value":-1},{"name":"scaleY","type":"float","value":1}]},{"id":67,"name":"spr_deco_glint_02","type":"prop","x":608,"y":637,"width":0,"height":0,"point":true,"visible":true,"rotation":0,"properties":[{"name":"layer","type":"string","value":"Assets_1"},{"name":"frames","type":"int","value":4},{"name":"fps","type":"float","value":5},{"name":"originX","type":"float","value":0},{"name":"originY","type":"float","value":0},{"name":"scaleX","type":"float","value":1},{"name":"scaleY","type":"float","value":1}]},{"id":68,"name":"spr_deco_glint_02","type":"prop","x":323,"y":317,"width":0,"height":0,"point":true,"visible":true,"rotation":0,"properties":[{"name":"layer","type":"string","value":"Assets_1"},{"name":"frames","type":"int","value":4},{"name":"fps","type":"float","value":5},{"name":"originX","type":"float","value":0},{"name":"originY","type":"float","value":0},{"name":"scaleX","type":"float","value":1},{"name":"scaleY","type":"float","value":1}]},{"id":69,"name":"spr_deco_tree_02","type":"prop","x":590,"y":387,"width":0,"height":0,"point":true,"visible":true,"rotation":0,"properties":[{"name":"layer","type":"string","value":"Assets_1"},{"name":"frames","type":"int","value":4},{"name":"fps","type":"float","value":4},{"name":"originX","type":"float","value":0.5},{"name":"originY","type":"float","value":1},{"name":"scaleX","type":"float","value":1},{"name":"scaleY","type":"float","value":1}]},{"id":70,"name":"spr_deco_tree_02","type":"prop","x":582,"y":394,"width":0,"height":0,"point":true,"visible":true,"rotation":0,"properties":[{"name":"layer","type":"string","value":"Assets_1"},{"name":"frames","type":"int","value":4},{"name":"fps","type":"float","value":4},{"name":"originX","type":"float","value":0.5},{"name":"originY","type":"float","value":1},{"name":"scaleX","type":"float","value":0.7973793},{"name":"scaleY","type":"float","value":0.7973793}]},{"id":71,"name":"spr_deco_anvil","type":"prop","x":1005,"y":446,"width":0,"height":0,"point":true,"visible":true,"rotation":0,"properties":[{"name":"layer","type":"string","value":"Assets_1"},{"name":"frames","type":"int","value":1},{"name":"fps","type":"float","value":10},{"name":"originX","type":"float","value":0.5},{"name":"originY","type":"float","value":0.5},{"name":"scaleX","type":"float","value":1},{"name":"scaleY","type":"float","value":1}]},{"id":72,"name":"spr_deco_sword_floor","type":"prop","x":1003,"y":442,"width":0,"height":0,"point":true,"visible":true,"rotation":0,"properties":[{"name":"layer","type":"string","value":"Assets_1"},{"name":"frames","type":"int","value":1},{"name":"fps","type":"float","value":10},{"name":"originX","type":"float","value":0.5},{"name":"originY","type":"float","value":0.45454545454545453},{"name":"scaleX","type":"float","value":-1},{"name":"scaleY","type":"float","value":1}]},{"id":73,"name":"spr_deco_barrel_swords","type":"prop","x":942,"y":439,"width":0,"height":0,"point":true,"visible":true,"rotation":0,"properties":[{"name":"layer","type":"string","value":"Assets_1"},{"name":"frames","type":"int","value":1},{"name":"fps","type":"float","value":10},{"name":"originX","type":"float","value":0},{"name":"originY","type":"float","value":0},{"name":"scaleX","type":"float","value":1},{"name":"scaleY","type":"float","value":1}]},{"id":74,"name":"spr_deco_barrel_closed","type":"prop","x":938,"y":454,"width":0,"height":0,"point":true,"visible":true,"rotation":0,"properties":[{"name":"layer","type":"string","value":"Assets_1"},{"name":"frames","type":"int","value":1},{"name":"fps","type":"float","value":10},{"name":"originX","type":"float","value":0.46153846153846156},{"name":"originY","type":"float","value":0.5},{"name":"scaleX","type":"float","value":1},{"name":"scaleY","type":"float","value":1}]},{"id":75,"name":"spr_deco_barrel_open","type":"prop","x":987,"y":380,"width":0,"height":0,"point":true,"visible":true,"rotation":0,"properties":[{"name":"layer","type":"string","value":"Assets_1"},{"name":"frames","type":"int","value":1},{"name":"fps","type":"float","value":10},{"name":"originX","type":"float","value":0},{"name":"originY","type":"float","value":0},{"name":"scaleX","type":"float","value":1},{"name":"scaleY","type":"float","value":1}]},{"id":76,"name":"spr_deco_barrel_closed","type":"prop","x":983,"y":388,"width":0,"height":0,"point":true,"visible":true,"rotation":0,"properties":[{"name":"layer","type":"string","value":"Assets_1"},{"name":"frames","type":"int","value":1},{"name":"fps","type":"float","value":10},{"name":"originX","type":"float","value":0.46153846153846156},{"name":"originY","type":"float","value":0.5},{"name":"scaleX","type":"float","value":1},{"name":"scaleY","type":"float","value":1}]},{"id":77,"name":"spr_deco_well_covered","type":"prop","x":1060,"y":447,"width":0,"height":0,"point":true,"visible":true,"rotation":0,"properties":[{"name":"layer","type":"string","value":"Assets_1"},{"name":"frames","type":"int","value":1},{"name":"fps","type":"float","value":10},{"name":"originX","type":"float","value":0},{"name":"originY","type":"float","value":1},{"name":"scaleX","type":"float","value":1},{"name":"scaleY","type":"float","value":1}]},{"id":78,"name":"spr_deco_barrel_water","type":"prop","x":1084,"y":458,"width":0,"height":0,"point":true,"visible":true,"rotation":0,"properties":[{"name":"layer","type":"string","value":"Assets_1"},{"name":"frames","type":"int","value":1},{"name":"fps","type":"float","value":10},{"name":"originX","type":"float","value":0.46153846153846156},{"name":"originY","type":"float","value":0.5},{"name":"scaleX","type":"float","value":1},{"name":"scaleY","type":"float","value":1}]},{"id":79,"name":"spr_deco_bucket","type":"prop","x":1080,"y":465,"width":0,"height":0,"point":true,"visible":true,"rotation":0,"properties":[{"name":"layer","type":"string","value":"Assets_1"},{"name":"frames","type":"int","value":1},{"name":"fps","type":"float","value":10},{"name":"originX","type":"float","value":0.5},{"name":"originY","type":"float","value":0.45454545454545453},{"name":"scaleX","type":"float","value":1},{"name":"scaleY","type":"float","value":1}]},{"id":80,"name":"spr_deco_well","type":"prop","x":903,"y":113,"width":0,"height":0,"point":true,"visible":true,"rotation":0,"properties":[{"name":"layer","type":"string","value":"Assets_1"},{"name":"frames","type":"int","value":1},{"name":"fps","type":"float","value":10},{"name":"originX","type":"float","value":0.5},{"name":"originY","type":"float","value":0.48},{"name":"scaleX","type":"float","value":1},{"name":"scaleY","type":"float","value":1}]},{"id":81,"name":"spr_deco_bucket","type":"prop","x":904,"y":101,"width":0,"height":0,"point":true,"visible":true,"rotation":0,"properties":[{"name":"layer","type":"string","value":"Assets_1"},{"name":"frames","type":"int","value":1},{"name":"fps","type":"float","value":10},{"name":"originX","type":"float","value":0.5},{"name":"originY","type":"float","value":0.45454545454545453},{"name":"scaleX","type":"float","value":1},{"name":"scaleY","type":"float","value":1}]},{"id":82,"name":"spr_deco_barrel_water","type":"prop","x":907,"y":125,"width":0,"height":0,"point":true,"visible":true,"rotation":0,"properties":[{"name":"layer","type":"string","value":"Assets_1"},{"name":"frames","type":"int","value":1},{"name":"fps","type":"float","value":10},{"name":"originX","type":"float","value":0.46153846153846156},{"name":"originY","type":"float","value":0.5},{"name":"scaleX","type":"float","value":1},{"name":"scaleY","type":"float","value":1}]},{"id":83,"name":"spr_deco_barrel_closed","type":"prop","x":863,"y":43,"width":0,"height":0,"point":true,"visible":true,"rotation":0,"properties":[{"name":"layer","type":"string","value":"Assets_1"},{"name":"frames","type":"int","value":1},{"name":"fps","type":"float","value":10},{"name":"originX","type":"float","value":0.46153846153846156},{"name":"originY","type":"float","value":0.5},{"name":"scaleX","type":"float","value":1},{"name":"scaleY","type":"float","value":1}]},{"id":84,"name":"spr_deco_barrel_water","type":"prop","x":855,"y":48,"width":0,"height":0,"point":true,"visible":true,"rotation":0,"properties":[{"name":"layer","type":"string","value":"Assets_1"},{"name":"frames","type":"int","value":1},{"name":"fps","type":"float","value":10},{"name":"originX","type":"float","value":0.46153846153846156},{"name":"originY","type":"float","value":0.5},{"name":"scaleX","type":"float","value":1},{"name":"scaleY","type":"float","value":1}]},{"id":85,"name":"spr_deco_barrel_swords","type":"prop","x":975,"y":358,"width":0,"height":0,"point":true,"visible":true,"rotation":0,"properties":[{"name":"layer","type":"string","value":"Assets_1"},{"name":"frames","type":"int","value":1},{"name":"fps","type":"float","value":10},{"name":"originX","type":"float","value":0},{"name":"originY","type":"float","value":0},{"name":"scaleX","type":"float","value":-1},{"name":"scaleY","type":"float","value":1}]},{"id":86,"name":"spr_deco_bird_01","type":"prop","x":679,"y":442,"width":0,"height":0,"point":true,"visible":true,"rotation":0,"properties":[{"name":"layer","type":"string","value":"Assets_1"},{"name":"frames","type":"int","value":4},{"name":"fps","type":"float","value":8},{"name":"originX","type":"float","value":0.5},{"name":"originY","type":"float","value":1},{"name":"scaleX","type":"float","value":1},{"name":"scaleY","type":"float","value":1}]},{"id":87,"name":"spr_deco_bird_01","type":"prop","x":461,"y":148,"width":0,"height":0,"point":true,"visible":true,"rotation":0,"properties":[{"name":"layer","type":"string","value":"Assets_1"},{"name":"frames","type":"int","value":4},{"name":"fps","type":"float","value":8},{"name":"originX","type":"float","value":0.5},{"name":"originY","type":"float","value":1},{"name":"scaleX","type":"float","value":1},{"name":"scaleY","type":"float","value":1}]},{"id":88,"name":"spr_deco_bird_01","type":"prop","x":488,"y":151,"width":0,"height":0,"point":true,"visible":true,"rotation":0,"properties":[{"name":"layer","type":"string","value":"Assets_1"},{"name":"frames","type":"int","value":4},{"name":"fps","type":"float","value":8},{"name":"originX","type":"float","value":0.5},{"name":"originY","type":"float","value":1},{"name":"scaleX","type":"float","value":-1},{"name":"scaleY","type":"float","value":1}]},{"id":89,"name":"spr_deco_bird_01","type":"prop","x":470,"y":150,"width":0,"height":0,"point":true,"visible":true,"rotation":0,"properties":[{"name":"layer","type":"string","value":"Assets_1"},{"name":"frames","type":"int","value":4},{"name":"fps","type":"float","value":8},{"name":"originX","type":"float","value":0.5},{"name":"originY","type":"float","value":1},{"name":"scaleX","type":"float","value":0.78125},{"name":"scaleY","type":"float","value":0.78125}]},{"id":90,"name":"spr_deco_bird_01","type":"prop","x":513.9225,"y":69.5,"width":0,"height":0,"point":true,"visible":true,"rotation":0,"properties":[{"name":"layer","type":"string","value":"Assets_1"},{"name":"frames","type":"int","value":4},{"name":"fps","type":"float","value":8},{"name":"originX","type":"float","value":0.5},{"name":"originY","type":"float","value":1},{"name":"scaleX","type":"float","value":-0.84374994},{"name":"scaleY","type":"float","value":0.84374994}]},{"id":91,"name":"spr_deco_bird_01","type":"prop","x":726,"y":34,"width":0,"height":0,"point":true,"visible":true,"rotation":0,"properties":[{"name":"layer","type":"string","value":"Assets_1"},{"name":"frames","type":"int","value":4},{"name":"fps","type":"float","value":8},{"name":"originX","type":"float","value":0.5},{"name":"originY","type":"float","value":1},{"name":"scaleX","type":"float","value":-1},{"name":"scaleY","type":"float","value":1}]},{"id":92,"name":"spr_deco_bird_01","type":"prop","x":820,"y":614,"width":0,"height":0,"point":true,"visible":true,"rotation":0,"properties":[{"name":"layer","type":"string","value":"Assets_1"},{"name":"frames","type":"int","value":4},{"name":"fps","type":"float","value":8},{"name":"originX","type":"float","value":0.5},{"name":"originY","type":"float","value":1},{"name":"scaleX","type":"float","value":1},{"name":"scaleY","type":"float","value":1}]},{"id":93,"name":"spr_deco_duck_01","type":"prop","x":683,"y":164,"width":0,"height":0,"point":true,"visible":true,"rotation":0,"properties":[{"name":"layer","type":"string","value":"Assets_1"},{"name":"frames","type":"int","value":4},{"name":"fps","type":"float","value":4},{"name":"originX","type":"float","value":0.5},{"name":"originY","type":"float","value":0.5},{"name":"scaleX","type":"float","value":1},{"name":"scaleY","type":"float","value":1}]},{"id":94,"name":"spr_deco_duck_01","type":"prop","x":615,"y":148,"width":0,"height":0,"point":true,"visible":true,"rotation":0,"properties":[{"name":"layer","type":"string","value":"Assets_1"},{"name":"frames","type":"int","value":4},{"name":"fps","type":"float","value":4},{"name":"originX","type":"float","value":0.5},{"name":"originY","type":"float","value":0.5},{"name":"scaleX","type":"float","value":-1},{"name":"scaleY","type":"float","value":1}]},{"id":95,"name":"spr_deco_duck_01","type":"prop","x":470,"y":403,"width":0,"height":0,"point":true,"visible":true,"rotation":0,"properties":[{"name":"layer","type":"string","value":"Assets_1"},{"name":"frames","type":"int","value":4},{"name":"fps","type":"float","value":4},{"name":"originX","type":"float","value":0.5},{"name":"originY","type":"float","value":0.5},{"name":"scaleX","type":"float","value":1},{"name":"scaleY","type":"float","value":1}]},{"id":96,"name":"spr_deco_duck_01","type":"prop","x":1228,"y":740,"width":0,"height":0,"point":true,"visible":true,"rotation":0,"properties":[{"name":"layer","type":"string","value":"Assets_1"},{"name":"frames","type":"int","value":4},{"name":"fps","type":"float","value":4},{"name":"originX","type":"float","value":0.5},{"name":"originY","type":"float","value":0.5},{"name":"scaleX","type":"float","value":1},{"name":"scaleY","type":"float","value":1}]},{"id":97,"name":"spr_deco_duck_01","type":"prop","x":158,"y":422,"width":0,"height":0,"point":true,"visible":true,"rotation":0,"properties":[{"name":"layer","type":"string","value":"Assets_1"},{"name":"frames","type":"int","value":4},{"name":"fps","type":"float","value":4},{"name":"originX","type":"float","value":0.5},{"name":"originY","type":"float","value":0.5},{"name":"scaleX","type":"float","value":1},{"name":"scaleY","type":"float","value":1}]},{"id":98,"name":"spr_deco_sheep_01","type":"prop","x":649,"y":354,"width":0,"height":0,"point":true,"visible":true,"rotation":0,"properties":[{"name":"layer","type":"string","value":"Assets_1"},{"name":"frames","type":"int","value":4},{"name":"fps","type":"float","value":8},{"name":"originX","type":"float","value":0.5},{"name":"originY","type":"float","value":0.75},{"name":"scaleX","type":"float","value":1},{"name":"scaleY","type":"float","value":1}]},{"id":99,"name":"spr_deco_sheep_01","type":"prop","x":663,"y":363.25,"width":0,"height":0,"point":true,"visible":true,"rotation":0,"properties":[{"name":"layer","type":"string","value":"Assets_1"},{"name":"frames","type":"int","value":4},{"name":"fps","type":"float","value":8},{"name":"originX","type":"float","value":0.5},{"name":"originY","type":"float","value":0.75},{"name":"scaleX","type":"float","value":-0.84374994},{"name":"scaleY","type":"float","value":0.84374994}]},{"id":100,"name":"spr_deco_sheep_01","type":"prop","x":974,"y":107.73486,"width":0,"height":0,"point":true,"visible":true,"rotation":0,"properties":[{"name":"layer","type":"string","value":"Assets_1"},{"name":"frames","type":"int","value":4},{"name":"fps","type":"float","value":8},{"name":"originX","type":"float","value":0.5},{"name":"originY","type":"float","value":0.75},{"name":"scaleX","type":"float","value":-1},{"name":"scaleY","type":"float","value":1}]},{"id":101,"name":"spr_deco_sheep_01","type":"prop","x":1014.75,"y":144.625,"width":0,"height":0,"point":true,"visible":true,"rotation":0,"properties":[{"name":"layer","type":"string","value":"Assets_1"},{"name":"frames","type":"int","value":4},{"name":"fps","type":"float","value":8},{"name":"originX","type":"float","value":0.5},{"name":"originY","type":"float","value":0.75},{"name":"scaleX","type":"float","value":-0.92187494},{"name":"scaleY","type":"float","value":0.92187494}]},{"id":102,"name":"spr_deco_sheep_01","type":"prop","x":925,"y":214,"width":0,"height":0,"point":true,"visible":true,"rotation":-6.7852106,"properties":[{"name":"layer","type":"string","value":"Assets_1"},{"name":"frames","type":"int","value":4},{"name":"fps","type":"float","value":8},{"name":"originX","type":"float","value":0.5},{"name":"originY","type":"float","value":0.75},{"name":"scaleX","type":"float","value":-0.96875},{"name":"scaleY","type":"float","value":0.96875}]},{"id":103,"name":"spr_deco_sheep_01","type":"prop","x":949,"y":216,"width":0,"height":0,"point":true,"visible":true,"rotation":0,"properties":[{"name":"layer","type":"string","value":"Assets_1"},{"name":"frames","type":"int","value":4},{"name":"fps","type":"float","value":8},{"name":"originX","type":"float","value":0.5},{"name":"originY","type":"float","value":0.75},{"name":"scaleX","type":"float","value":1},{"name":"scaleY","type":"float","value":1}]},{"id":104,"name":"spr_deco_sheep_01","type":"prop","x":1006,"y":172,"width":0,"height":0,"point":true,"visible":true,"rotation":0,"properties":[{"name":"layer","type":"string","value":"Assets_1"},{"name":"frames","type":"int","value":4},{"name":"fps","type":"float","value":8},{"name":"originX","type":"float","value":0.5},{"name":"originY","type":"float","value":0.75},{"name":"scaleX","type":"float","value":1},{"name":"scaleY","type":"float","value":1}]},{"id":105,"name":"spr_deco_sheep_01","type":"prop","x":1013.25,"y":188.875,"width":0,"height":0,"point":true,"visible":true,"rotation":0,"properties":[{"name":"layer","type":"string","value":"Assets_1"},{"name":"frames","type":"int","value":4},{"name":"fps","type":"float","value":8},{"name":"originX","type":"float","value":0.5},{"name":"originY","type":"float","value":0.75},{"name":"scaleX","type":"float","value":1.109375},{"name":"scaleY","type":"float","value":1.109375}]},{"id":106,"name":"spr_deco_sheep_01","type":"prop","x":980.75,"y":183.125,"width":0,"height":0,"point":true,"visible":true,"rotation":0,"properties":[{"name":"layer","type":"string","value":"Assets_1"},{"name":"frames","type":"int","value":4},{"name":"fps","type":"float","value":8},{"name":"originX","type":"float","value":0.5},{"name":"originY","type":"float","value":0.75},{"name":"scaleX","type":"float","value":-0.796875},{"name":"scaleY","type":"float","value":0.796875}]},{"id":107,"name":"spr_deco_bird_01","type":"prop","x":985,"y":200,"width":0,"height":0,"point":true,"visible":true,"rotation":0,"properties":[{"name":"layer","type":"string","value":"Assets_1"},{"name":"frames","type":"int","value":4},{"name":"fps","type":"float","value":8},{"name":"originX","type":"float","value":0.5},{"name":"originY","type":"float","value":1},{"name":"scaleX","type":"float","value":-0.84374994},{"name":"scaleY","type":"float","value":0.84374994}]},{"id":108,"name":"skeleton_idle","type":"prop","x":576,"y":571,"width":0,"height":0,"point":true,"visible":true,"rotation":0,"properties":[{"name":"layer","type":"string","value":"Assets_1"},{"name":"frames","type":"int","value":6},{"name":"fps","type":"float","value":14},{"name":"originX","type":"float","value":0.5},{"name":"originY","type":"float","value":1},{"name":"scaleX","type":"float","value":-1},{"name":"scaleY","type":"float","value":1}]},{"id":109,"name":"skeleton_jump","type":"prop","x":528,"y":576,"width":0,"height":0,"point":true,"visible":true,"rotation":0,"properties":[{"name":"layer","type":"string","value":"Assets_1"},{"name":"frames","type":"int","value":10},{"name":"fps","type":"float","value":14},{"name":"originX","type":"float","value":0.5},{"name":"originY","type":"float","value":1},{"name":"scaleX","type":"float","value":1},{"name":"scaleY","type":"float","value":1}]},{"id":110,"name":"spr_deco_bird_01","type":"prop","x":1292,"y":572,"width":0,"height":0,"point":true,"visible":true,"rotation":0,"properties":[{"name":"layer","type":"string","value":"Assets_1"},{"name":"frames","type":"int","value":4},{"name":"fps","type":"float","value":8},{"name":"originX","type":"float","value":0.5},{"name":"originY","type":"float","value":1},{"name":"scaleX","type":"float","value":-1},{"name":"scaleY","type":"float","value":1}]},{"id":111,"name":"spr_deco_well_covered","type":"prop","x":310,"y":236,"width":0,"height":0,"point":true,"visible":true,"rotation":0,"properties":[{"name":"layer","type":"string","value":"Assets_1"},{"name":"frames","type":"int","value":1},{"name":"fps","type":"float","value":10},{"name":"originX","type":"float","value":0},{"name":"originY","type":"float","value":1},{"name":"scaleX","type":"float","value":1},{"name":"scaleY","type":"float","value":1}]},{"id":112,"name":"spr_deco_barrel_water","type":"prop","x":334,"y":241,"width":0,"height":0,"point":true,"visible":true,"rotation":0,"properties":[{"name":"layer","type":"string","value":"Assets_1"},{"name":"frames","type":"int","value":1},{"name":"fps","type":"float","value":10},{"name":"originX","type":"float","value":0.46153846153846156},{"name":"originY","type":"float","value":0.5},{"name":"scaleX","type":"float","value":1},{"name":"scaleY","type":"float","value":1}]},{"id":113,"name":"spr_deco_bucket","type":"prop","x":296,"y":240.5,"width":0,"height":0,"point":true,"visible":true,"rotation":0,"properties":[{"name":"layer","type":"string","value":"Assets_1"},{"name":"frames","type":"int","value":1},{"name":"fps","type":"float","value":10},{"name":"originX","type":"float","value":0.5},{"name":"originY","type":"float","value":0.45454545454545453},{"name":"scaleX","type":"float","value":1},{"name":"scaleY","type":"float","value":1}]},{"id":114,"name":"spr_deco_pig_01","type":"prop","x":1003,"y":209,"width":0,"height":0,"point":true,"visible":true,"rotation":0,"properties":[{"name":"layer","type":"string","value":"Assets_1"},{"name":"frames","type":"int","value":4},{"name":"fps","type":"float","value":10},{"name":"originX","type":"float","value":0.5},{"name":"originY","type":"float","value":0.5},{"name":"scaleX","type":"float","value":1},{"name":"scaleY","type":"float","value":1}]},{"id":115,"name":"spr_deco_pig_01","type":"prop","x":326,"y":398,"width":0,"height":0,"point":true,"visible":true,"rotation":0,"properties":[{"name":"layer","type":"string","value":"Assets_1"},{"name":"frames","type":"int","value":4},{"name":"fps","type":"float","value":10},{"name":"originX","type":"float","value":0.5},{"name":"originY","type":"float","value":0.5},{"name":"scaleX","type":"float","value":-1},{"name":"scaleY","type":"float","value":1}]},{"id":116,"name":"spr_deco_pig_01","type":"prop","x":330,"y":417,"width":0,"height":0,"point":true,"visible":true,"rotation":0,"properties":[{"name":"layer","type":"string","value":"Assets_1"},{"name":"frames","type":"int","value":4},{"name":"fps","type":"float","value":10},{"name":"originX","type":"float","value":0.5},{"name":"originY","type":"float","value":0.5},{"name":"scaleX","type":"float","value":1},{"name":"scaleY","type":"float","value":1}]},{"id":117,"name":"spr_deco_pig_01","type":"prop","x":779,"y":431,"width":0,"height":0,"point":true,"visible":true,"rotation":0,"properties":[{"name":"layer","type":"string","value":"Assets_1"},{"name":"frames","type":"int","value":4},{"name":"fps","type":"float","value":10},{"name":"originX","type":"float","value":0.5},{"name":"originY","type":"float","value":0.5},{"name":"scaleX","type":"float","value":1},{"name":"scaleY","type":"float","value":1}]},{"id":118,"name":"spr_deco_pig_01","type":"prop","x":772,"y":104,"width":0,"height":0,"point":true,"visible":true,"rotation":0,"properties":[{"name":"layer","type":"string","value":"Assets_1"},{"name":"frames","type":"int","value":4},{"name":"fps","type":"float","value":10},{"name":"originX","type":"float","value":0.5},{"name":"originY","type":"float","value":0.5},{"name":"scaleX","type":"float","value":1},{"name":"scaleY","type":"float","value":1}]},{"id":119,"name":"spr_deco_pig_01","type":"prop","x":779,"y":198,"width":0,"height":0,"point":true,"visible":true,"rotation":0,"properties":[{"name":"layer","type":"string","value":"Assets_1"},{"name":"frames","type":"int","value":4},{"name":"fps","type":"float","value":10},{"name":"originX","type":"float","value":0.5},{"name":"originY","type":"float","value":0.5},{"name":"scaleX","type":"float","value":1},{"name":"scaleY","type":"float","value":1}]},{"id":120,"name":"spr_deco_pig_01","type":"prop","x":787,"y":207.75,"width":0,"height":0,"point":true,"visible":true,"rotation":0,"properties":[{"name":"layer","type":"string","value":"Assets_1"},{"name":"frames","type":"int","value":4},{"name":"fps","type":"float","value":10},{"name":"originX","type":"float","value":0.5},{"name":"originY","type":"float","value":0.5},{"name":"scaleX","type":"float","value":-0.82812494},{"name":"scaleY","type":"float","value":0.82812494}]},{"id":121,"name":"spr_deco_chicken_01","type":"prop","x":994,"y":533,"width":0,"height":0,"point":true,"visible":true,"rotation":0,"properties":[{"name":"layer","type":"string","value":"Assets_1"},{"name":"frames","type":"int","value":4},{"name":"fps","type":"float","value":10},{"name":"originX","type":"float","value":0.5},{"name":"originY","type":"float","value":0.71875},{"name":"scaleX","type":"float","value":-1.2031249},{"name":"scaleY","type":"float","value":1.2031249}]},{"id":122,"name":"spr_deco_chicken_01","type":"prop","x":473,"y":456,"width":0,"height":0,"point":true,"visible":true,"rotation":0,"properties":[{"name":"layer","type":"string","value":"Assets_1"},{"name":"frames","type":"int","value":4},{"name":"fps","type":"float","value":10},{"name":"originX","type":"float","value":0.5},{"name":"originY","type":"float","value":0.71875},{"name":"scaleX","type":"float","value":1},{"name":"scaleY","type":"float","value":1}]},{"id":123,"name":"spr_deco_chicken_01","type":"prop","x":462,"y":466,"width":0,"height":0,"point":true,"visible":true,"rotation":0,"properties":[{"name":"layer","type":"string","value":"Assets_1"},{"name":"frames","type":"int","value":4},{"name":"fps","type":"float","value":10},{"name":"originX","type":"float","value":0.5},{"name":"originY","type":"float","value":0.71875},{"name":"scaleX","type":"float","value":-0.87500024},{"name":"scaleY","type":"float","value":0.87500024}]},{"id":124,"name":"spr_deco_chicken_01","type":"prop","x":617,"y":490,"width":0,"height":0,"point":true,"visible":true,"rotation":0,"properties":[{"name":"layer","type":"string","value":"Assets_1"},{"name":"frames","type":"int","value":4},{"name":"fps","type":"float","value":10},{"name":"originX","type":"float","value":0.5},{"name":"originY","type":"float","value":0.71875},{"name":"scaleX","type":"float","value":1},{"name":"scaleY","type":"float","value":1}]},{"id":125,"name":"spr_deco_chicken_01","type":"prop","x":927.25,"y":84.203125,"width":0,"height":0,"point":true,"visible":true,"rotation":0,"properties":[{"name":"layer","type":"string","value":"Assets_1"},{"name":"frames","type":"int","value":4},{"name":"fps","type":"float","value":10},{"name":"originX","type":"float","value":0.5},{"name":"originY","type":"float","value":0.71875},{"name":"scaleX","type":"float","value":1.171875},{"name":"scaleY","type":"float","value":1.171875}]},{"id":126,"name":"spr_deco_chicken_01","type":"prop","x":889,"y":177.5,"width":0,"height":0,"point":true,"visible":true,"rotation":0,"properties":[{"name":"layer","type":"string","value":"Assets_1"},{"name":"frames","type":"int","value":4},{"name":"fps","type":"float","value":10},{"name":"originX","type":"float","value":0.5},{"name":"originY","type":"float","value":0.71875},{"name":"scaleX","type":"float","value":-1},{"name":"scaleY","type":"float","value":1}]},{"id":127,"name":"spr_deco_blinking","type":"prop","x":903,"y":612.625,"width":0,"height":0,"point":true,"visible":true,"rotation":0,"properties":[{"name":"layer","type":"string","value":"Assets_1"},{"name":"frames","type":"int","value":12},{"name":"fps","type":"float","value":10},{"name":"originX","type":"float","value":0.5},{"name":"originY","type":"float","value":0.5},{"name":"scaleX","type":"float","value":0.74999994},{"name":"scaleY","type":"float","value":0.74999994}]},{"id":128,"name":"spr_deco_blinking","type":"prop","x":376,"y":309,"width":0,"height":0,"point":true,"visible":true,"rotation":0,"properties":[{"name":"layer","type":"string","value":"Assets_1"},{"name":"frames","type":"int","value":12},{"name":"fps","type":"float","value":10},{"name":"originX","type":"float","value":0.5},{"name":"originY","type":"float","value":0.5},{"name":"scaleX","type":"float","value":1},{"name":"scaleY","type":"float","value":1}]},{"id":129,"name":"spr_deco_mug_02","type":"prop","x":1316.5,"y":295,"width":0,"height":0,"point":true,"visible":true,"rotation":0,"properties":[{"name":"layer","type":"string","value":"Assets_1"},{"name":"frames","type":"int","value":1},{"name":"fps","type":"float","value":10},{"name":"originX","type":"float","value":0},{"name":"originY","type":"float","value":0},{"name":"scaleX","type":"float","value":1},{"name":"scaleY","type":"float","value":1}]},{"id":130,"name":"spr_deco_plate_food","type":"prop","x":1335,"y":283,"width":0,"height":0,"point":true,"visible":true,"rotation":0,"properties":[{"name":"layer","type":"string","value":"Assets_1"},{"name":"frames","type":"int","value":1},{"name":"fps","type":"float","value":10},{"name":"originX","type":"float","value":0},{"name":"originY","type":"float","value":0},{"name":"scaleX","type":"float","value":1},{"name":"scaleY","type":"float","value":1}]},{"id":131,"name":"spr_deco_plate_knifeandfork","type":"prop","x":1321,"y":280,"width":0,"height":0,"point":true,"visible":true,"rotation":0,"properties":[{"name":"layer","type":"string","value":"Assets_1"},{"name":"frames","type":"int","value":1},{"name":"fps","type":"float","value":10},{"name":"originX","type":"float","value":0},{"name":"originY","type":"float","value":0},{"name":"scaleX","type":"float","value":-1},{"name":"scaleY","type":"float","value":1}]},{"id":132,"name":"spr_deco_flowers_house_01","type":"prop","x":1324,"y":274,"width":0,"height":0,"point":true,"visible":true,"rotation":0,"properties":[{"name":"layer","type":"string","value":"Assets_1"},{"name":"frames","type":"int","value":1},{"name":"fps","type":"float","value":10},{"name":"originX","type":"float","value":0},{"name":"originY","type":"float","value":0},{"name":"scaleX","type":"float","value":1},{"name":"scaleY","type":"float","value":1}]},{"id":133,"name":"spr_deco_sidetable_01","type":"prop","x":1327,"y":343,"width":0,"height":0,"point":true,"visible":true,"rotation":0,"properties":[{"name":"layer","type":"string","value":"Assets_1"},{"name":"frames","type":"int","value":1},{"name":"fps","type":"float","value":10},{"name":"originX","type":"float","value":0},{"name":"originY","type":"float","value":0},{"name":"scaleX","type":"float","value":1},{"name":"scaleY","type":"float","value":1}]},{"id":134,"name":"spr_deco_flowers_house_02","type":"prop","x":1327,"y":336,"width":0,"height":0,"point":true,"visible":true,"rotation":0,"properties":[{"name":"layer","type":"string","value":"Assets_1"},{"name":"frames","type":"int","value":1},{"name":"fps","type":"float","value":10},{"name":"originX","type":"float","value":0},{"name":"originY","type":"float","value":0},{"name":"scaleX","type":"float","value":1},{"name":"scaleY","type":"float","value":1}]},{"id":135,"name":"spr_deco_book_01","type":"prop","x":1326,"y":355,"width":0,"height":0,"point":true,"visible":true,"rotation":0,"properties":[{"name":"layer","type":"string","value":"Assets_1"},{"name":"frames","type":"int","value":1},{"name":"fps","type":"float","value":10},{"name":"originX","type":"float","value":0},{"name":"originY","type":"float","value":0},{"name":"scaleX","type":"float","value":1},{"name":"scaleY","type":"float","value":1}]},{"id":136,"name":"spr_deco_book_02","type":"prop","x":1234,"y":287,"width":0,"height":0,"point":true,"visible":true,"rotation":0,"properties":[{"name":"layer","type":"string","value":"Assets_1"},{"name":"frames","type":"int","value":1},{"name":"fps","type":"float","value":10},{"name":"originX","type":"float","value":0},{"name":"originY","type":"float","value":0},{"name":"scaleX","type":"float","value":1},{"name":"scaleY","type":"float","value":1}]},{"id":137,"name":"spr_deco_waterbowl","type":"prop","x":1356,"y":396,"width":0,"height":0,"point":true,"visible":true,"rotation":0,"properties":[{"name":"layer","type":"string","value":"Assets_1"},{"name":"frames","type":"int","value":1},{"name":"fps","type":"float","value":10},{"name":"originX","type":"float","value":0},{"name":"originY","type":"float","value":0},{"name":"scaleX","type":"float","value":1},{"name":"scaleY","type":"float","value":1}]},{"id":138,"name":"spr_deco_chair_01","type":"prop","x":1348,"y":274,"width":0,"height":0,"point":true,"visible":true,"rotation":0,"properties":[{"name":"layer","type":"string","value":"Assets_1"},{"name":"frames","type":"int","value":1},{"name":"fps","type":"float","value":10},{"name":"originX","type":"float","value":0},{"name":"originY","type":"float","value":0},{"name":"scaleX","type":"float","value":1},{"name":"scaleY","type":"float","value":1}]},{"id":139,"name":"spr_deco_chair_01","type":"prop","x":1347,"y":292,"width":0,"height":0,"point":true,"visible":true,"rotation":0,"properties":[{"name":"layer","type":"string","value":"Assets_1"},{"name":"frames","type":"int","value":1},{"name":"fps","type":"float","value":10},{"name":"originX","type":"float","value":0},{"name":"originY","type":"float","value":0},{"name":"scaleX","type":"float","value":1},{"name":"scaleY","type":"float","value":1}]},{"id":140,"name":"spr_deco_chair_01","type":"prop","x":1301,"y":275,"width":0,"height":0,"point":true,"visible":true,"rotation":0,"properties":[{"name":"layer","type":"string","value":"Assets_1"},{"name":"frames","type":"int","value":1},{"name":"fps","type":"float","value":10},{"name":"originX","type":"float","value":0},{"name":"originY","type":"float","value":0},{"name":"scaleX","type":"float","value":1},{"name":"scaleY","type":"float","value":1}]},{"id":141,"name":"spr_deco_chair_01","type":"prop","x":1310,"y":309,"width":0,"height":0,"point":true,"visible":true,"rotation":0,"properties":[{"name":"layer","type":"string","value":"Assets_1"},{"name":"frames","type":"int","value":1},{"name":"fps","type":"float","value":10},{"name":"originX","type":"float","value":0},{"name":"originY","type":"float","value":0},{"name":"scaleX","type":"float","value":1},{"name":"scaleY","type":"float","value":1}]},{"id":142,"name":"spr_deco_barrel_closed","type":"prop","x":1349,"y":365,"width":0,"height":0,"point":true,"visible":true,"rotation":0,"properties":[{"name":"layer","type":"string","value":"Assets_1"},{"name":"frames","type":"int","value":1},{"name":"fps","type":"float","value":10},{"name":"originX","type":"float","value":0.46153846153846156},{"name":"originY","type":"float","value":0.5},{"name":"scaleX","type":"float","value":1},{"name":"scaleY","type":"float","value":1}]},{"id":143,"name":"spr_deco_barrel_closed","type":"prop","x":1349,"y":376,"width":0,"height":0,"point":true,"visible":true,"rotation":0,"properties":[{"name":"layer","type":"string","value":"Assets_1"},{"name":"frames","type":"int","value":1},{"name":"fps","type":"float","value":10},{"name":"originX","type":"float","value":0.46153846153846156},{"name":"originY","type":"float","value":0.5},{"name":"scaleX","type":"float","value":1},{"name":"scaleY","type":"float","value":1}]},{"id":144,"name":"spr_deco_barrel_open","type":"prop","x":1353,"y":368,"width":0,"height":0,"point":true,"visible":true,"rotation":0,"properties":[{"name":"layer","type":"string","value":"Assets_1"},{"name":"frames","type":"int","value":1},{"name":"fps","type":"float","value":10},{"name":"originX","type":"float","value":0},{"name":"originY","type":"float","value":0},{"name":"scaleX","type":"float","value":1},{"name":"scaleY","type":"float","value":1}]},{"id":145,"name":"spr_deco_jar_01","type":"prop","x":1326,"y":379,"width":0,"height":0,"point":true,"visible":true,"rotation":0,"properties":[{"name":"layer","type":"string","value":"Assets_1"},{"name":"frames","type":"int","value":1},{"name":"fps","type":"float","value":10},{"name":"originX","type":"float","value":0},{"name":"originY","type":"float","value":0},{"name":"scaleX","type":"float","value":1},{"name":"scaleY","type":"float","value":1}]},{"id":146,"name":"spr_deco_jar_01","type":"prop","x":1303,"y":251,"width":0,"height":0,"point":true,"visible":true,"rotation":0,"properties":[{"name":"layer","type":"string","value":"Assets_1"},{"name":"frames","type":"int","value":1},{"name":"fps","type":"float","value":10},{"name":"originX","type":"float","value":0},{"name":"originY","type":"float","value":0},{"name":"scaleX","type":"float","value":1},{"name":"scaleY","type":"float","value":1}]},{"id":147,"name":"spr_deco_jar_02","type":"prop","x":1297,"y":313,"width":0,"height":0,"point":true,"visible":true,"rotation":0,"properties":[{"name":"layer","type":"string","value":"Assets_1"},{"name":"frames","type":"int","value":1},{"name":"fps","type":"float","value":10},{"name":"originX","type":"float","value":0},{"name":"originY","type":"float","value":0},{"name":"scaleX","type":"float","value":1},{"name":"scaleY","type":"float","value":1}]},{"id":148,"name":"spr_deco_jar_02","type":"prop","x":1265,"y":314,"width":0,"height":0,"point":true,"visible":true,"rotation":0,"properties":[{"name":"layer","type":"string","value":"Assets_1"},{"name":"frames","type":"int","value":1},{"name":"fps","type":"float","value":10},{"name":"originX","type":"float","value":0},{"name":"originY","type":"float","value":0},{"name":"scaleX","type":"float","value":1},{"name":"scaleY","type":"float","value":1}]},{"id":149,"name":"spr_deco_jar_02","type":"prop","x":1265,"y":323,"width":0,"height":0,"point":true,"visible":true,"rotation":0,"properties":[{"name":"layer","type":"string","value":"Assets_1"},{"name":"frames","type":"int","value":1},{"name":"fps","type":"float","value":10},{"name":"originX","type":"float","value":0},{"name":"originY","type":"float","value":0},{"name":"scaleX","type":"float","value":1},{"name":"scaleY","type":"float","value":1}]},{"id":150,"name":"spr_deco_jar_01","type":"prop","x":1223,"y":317,"width":0,"height":0,"point":true,"visible":true,"rotation":0,"properties":[{"name":"layer","type":"string","value":"Assets_1"},{"name":"frames","type":"int","value":1},{"name":"fps","type":"float","value":10},{"name":"originX","type":"float","value":0},{"name":"originY","type":"float","value":0},{"name":"scaleX","type":"float","value":1},{"name":"scaleY","type":"float","value":1}]},{"id":151,"name":"spr_deco_chicken_01","type":"prop","x":1196,"y":317,"width":0,"height":0,"point":true,"visible":true,"rotation":0,"properties":[{"name":"layer","type":"string","value":"Assets_1"},{"name":"frames","type":"int","value":4},{"name":"fps","type":"float","value":10},{"name":"originX","type":"float","value":0.5},{"name":"originY","type":"float","value":0.71875},{"name":"scaleX","type":"float","value":1},{"name":"scaleY","type":"float","value":1}]},{"id":152,"name":"spr_deco_firepit","type":"prop","x":1352,"y":266,"width":0,"height":0,"point":true,"visible":true,"rotation":0,"properties":[{"name":"layer","type":"string","value":"Assets_1"},{"name":"frames","type":"int","value":1},{"name":"fps","type":"float","value":10},{"name":"originX","type":"float","value":0.5},{"name":"originY","type":"float","value":1},{"name":"scaleX","type":"float","value":1},{"name":"scaleY","type":"float","value":1}]},{"id":153,"name":"spr_deco_waterbowl","type":"prop","x":1356,"y":244,"width":0,"height":0,"point":true,"visible":true,"rotation":0,"properties":[{"name":"layer","type":"string","value":"Assets_1"},{"name":"frames","type":"int","value":1},{"name":"fps","type":"float","value":10},{"name":"originX","type":"float","value":0},{"name":"originY","type":"float","value":0},{"name":"scaleX","type":"float","value":-1},{"name":"scaleY","type":"float","value":1}]},{"id":154,"name":"spr_deco_fire_02","type":"prop","x":1352,"y":257.5,"width":0,"height":0,"point":true,"visible":true,"rotation":0,"properties":[{"name":"layer","type":"string","value":"Assets_1"},{"name":"frames","type":"int","value":4},{"name":"fps","type":"float","value":10},{"name":"originX","type":"float","value":0.5},{"name":"originY","type":"float","value":1},{"name":"scaleX","type":"float","value":1},{"name":"scaleY","type":"float","value":0.6666661}]},{"id":155,"name":"chimneysmoke_04","type":"prop","x":1348,"y":222,"width":0,"height":0,"point":true,"visible":true,"rotation":0,"properties":[{"name":"layer","type":"string","value":"Assets_1"},{"name":"frames","type":"int","value":30},{"name":"fps","type":"float","value":10},{"name":"originX","type":"float","value":0.5},{"name":"originY","type":"float","value":1},{"name":"scaleX","type":"float","value":1},{"name":"scaleY","type":"float","value":1}]},{"id":156,"name":"spr_deco_chair_01","type":"prop","x":1283,"y":382,"width":0,"height":0,"point":true,"visible":true,"rotation":0,"properties":[{"name":"layer","type":"string","value":"Assets_1"},{"name":"frames","type":"int","value":1},{"name":"fps","type":"float","value":10},{"name":"originX","type":"float","value":0},{"name":"originY","type":"float","value":0},{"name":"scaleX","type":"float","value":1},{"name":"scaleY","type":"float","value":1}]},{"id":157,"name":"spr_deco_chair_01","type":"prop","x":1335,"y":397,"width":0,"height":0,"point":true,"visible":true,"rotation":0,"properties":[{"name":"layer","type":"string","value":"Assets_1"},{"name":"frames","type":"int","value":1},{"name":"fps","type":"float","value":10},{"name":"originX","type":"float","value":0},{"name":"originY","type":"float","value":0},{"name":"scaleX","type":"float","value":1},{"name":"scaleY","type":"float","value":1}]},{"id":158,"name":"spr_deco_sidetable_01","type":"prop","x":1263,"y":333,"width":0,"height":0,"point":true,"visible":true,"rotation":0,"properties":[{"name":"layer","type":"string","value":"Assets_1"},{"name":"frames","type":"int","value":1},{"name":"fps","type":"float","value":10},{"name":"originX","type":"float","value":0},{"name":"originY","type":"float","value":0},{"name":"scaleX","type":"float","value":1},{"name":"scaleY","type":"float","value":1}]},{"id":159,"name":"spr_deco_waterbowl","type":"prop","x":1264,"y":332,"width":0,"height":0,"point":true,"visible":true,"rotation":0,"properties":[{"name":"layer","type":"string","value":"Assets_1"},{"name":"frames","type":"int","value":1},{"name":"fps","type":"float","value":10},{"name":"originX","type":"float","value":0},{"name":"originY","type":"float","value":0},{"name":"scaleX","type":"float","value":1},{"name":"scaleY","type":"float","value":1}]},{"id":160,"name":"spr_deco_flowers_house_01","type":"prop","x":1273,"y":374,"width":0,"height":0,"point":true,"visible":true,"rotation":0,"properties":[{"name":"layer","type":"string","value":"Assets_1"},{"name":"frames","type":"int","value":1},{"name":"fps","type":"float","value":10},{"name":"originX","type":"float","value":0},{"name":"originY","type":"float","value":0},{"name":"scaleX","type":"float","value":1},{"name":"scaleY","type":"float","value":1}]},{"id":161,"name":"spr_deco_mug_02","type":"prop","x":1273,"y":339,"width":0,"height":0,"point":true,"visible":true,"rotation":0,"properties":[{"name":"layer","type":"string","value":"Assets_1"},{"name":"frames","type":"int","value":1},{"name":"fps","type":"float","value":10},{"name":"originX","type":"float","value":0},{"name":"originY","type":"float","value":0},{"name":"scaleX","type":"float","value":-1},{"name":"scaleY","type":"float","value":1}]},{"id":162,"name":"spr_deco_book_02","type":"prop","x":1291,"y":381,"width":0,"height":0,"point":true,"visible":true,"rotation":0,"properties":[{"name":"layer","type":"string","value":"Assets_1"},{"name":"frames","type":"int","value":1},{"name":"fps","type":"float","value":10},{"name":"originX","type":"float","value":0},{"name":"originY","type":"float","value":0},{"name":"scaleX","type":"float","value":-1},{"name":"scaleY","type":"float","value":1}]},{"id":163,"name":"spr_deco_tree_02","type":"prop","x":1263,"y":396,"width":0,"height":0,"point":true,"visible":true,"rotation":0,"properties":[{"name":"layer","type":"string","value":"Assets_1"},{"name":"frames","type":"int","value":4},{"name":"fps","type":"float","value":4},{"name":"originX","type":"float","value":0.5},{"name":"originY","type":"float","value":1},{"name":"scaleX","type":"float","value":1.2083174},{"name":"scaleY","type":"float","value":1.2083175}]},{"id":164,"name":"spr_deco_tree_02","type":"prop","x":1251,"y":399,"width":0,"height":0,"point":true,"visible":true,"rotation":0,"properties":[{"name":"layer","type":"string","value":"Assets_1"},{"name":"frames","type":"int","value":4},{"name":"fps","type":"float","value":4},{"name":"originX","type":"float","value":0.5},{"name":"originY","type":"float","value":1},{"name":"scaleX","type":"float","value":1},{"name":"scaleY","type":"float","value":1}]},{"id":165,"name":"spr_deco_chicken_01","type":"prop","x":1262,"y":406,"width":0,"height":0,"point":true,"visible":true,"rotation":0,"properties":[{"name":"layer","type":"string","value":"Assets_1"},{"name":"frames","type":"int","value":4},{"name":"fps","type":"float","value":10},{"name":"originX","type":"float","value":0.5},{"name":"originY","type":"float","value":0.71875},{"name":"scaleX","type":"float","value":-1.109375},{"name":"scaleY","type":"float","value":1.109375}]},{"id":166,"name":"spr_deco_bird_01","type":"prop","x":1230,"y":260,"width":0,"height":0,"point":true,"visible":true,"rotation":0,"properties":[{"name":"layer","type":"string","value":"Assets_1"},{"name":"frames","type":"int","value":4},{"name":"fps","type":"float","value":8},{"name":"originX","type":"float","value":0.5},{"name":"originY","type":"float","value":1},{"name":"scaleX","type":"float","value":1},{"name":"scaleY","type":"float","value":1}]},{"id":167,"name":"spr_deco_jar_01","type":"prop","x":565,"y":380,"width":0,"height":0,"point":true,"visible":true,"rotation":0,"properties":[{"name":"layer","type":"string","value":"Assets_1"},{"name":"frames","type":"int","value":1},{"name":"fps","type":"float","value":10},{"name":"originX","type":"float","value":0},{"name":"originY","type":"float","value":0},{"name":"scaleX","type":"float","value":1},{"name":"scaleY","type":"float","value":1}]},{"id":168,"name":"spr_deco_jar_02","type":"prop","x":220,"y":490,"width":0,"height":0,"point":true,"visible":true,"rotation":0,"properties":[{"name":"layer","type":"string","value":"Assets_1"},{"name":"frames","type":"int","value":1},{"name":"fps","type":"float","value":10},{"name":"originX","type":"float","value":0},{"name":"originY","type":"float","value":0},{"name":"scaleX","type":"float","value":1},{"name":"scaleY","type":"float","value":1}]},{"id":169,"name":"spr_deco_waterbowl","type":"prop","x":284,"y":492,"width":0,"height":0,"point":true,"visible":true,"rotation":0,"properties":[{"name":"layer","type":"string","value":"Assets_1"},{"name":"frames","type":"int","value":1},{"name":"fps","type":"float","value":10},{"name":"originX","type":"float","value":0},{"name":"originY","type":"float","value":0},{"name":"scaleX","type":"float","value":1},{"name":"scaleY","type":"float","value":1}]},{"id":170,"name":"spr_deco_tree_02","type":"prop","x":618,"y":118,"width":0,"height":0,"point":true,"visible":true,"rotation":0,"properties":[{"name":"layer","type":"string","value":"Assets_1"},{"name":"frames","type":"int","value":4},{"name":"fps","type":"float","value":4},{"name":"originX","type":"float","value":0.5},{"name":"originY","type":"float","value":1},{"name":"scaleX","type":"float","value":1},{"name":"scaleY","type":"float","value":1}]},{"id":171,"name":"spr_deco_tree_02","type":"prop","x":266,"y":127,"width":0,"height":0,"point":true,"visible":true,"rotation":0,"properties":[{"name":"layer","type":"string","value":"Assets_1"},{"name":"frames","type":"int","value":4},{"name":"fps","type":"float","value":4},{"name":"originX","type":"float","value":0.5},{"name":"originY","type":"float","value":1},{"name":"scaleX","type":"float","value":1},{"name":"scaleY","type":"float","value":1}]},{"id":172,"name":"spr_deco_waterbowl","type":"prop","x":994,"y":453,"width":0,"height":0,"point":true,"visible":true,"rotation":0,"properties":[{"name":"layer","type":"string","value":"Assets_1"},{"name":"frames","type":"int","value":1},{"name":"fps","type":"float","value":10},{"name":"originX","type":"float","value":0},{"name":"originY","type":"float","value":0},{"name":"scaleX","type":"float","value":1},{"name":"scaleY","type":"float","value":1}]},{"id":173,"name":"spr_deco_jar_01","type":"prop","x":945,"y":452,"width":0,"height":0,"point":true,"visible":true,"rotation":0,"properties":[{"name":"layer","type":"string","value":"Assets_1"},{"name":"frames","type":"int","value":1},{"name":"fps","type":"float","value":10},{"name":"originX","type":"float","value":0},{"name":"originY","type":"float","value":0},{"name":"scaleX","type":"float","value":1},{"name":"scaleY","type":"float","value":1}]},{"id":174,"name":"spr_deco_jar_01","type":"prop","x":1120,"y":453,"width":0,"height":0,"point":true,"visible":true,"rotation":0,"properties":[{"name":"layer","type":"string","value":"Assets_1"},{"name":"frames","type":"int","value":1},{"name":"fps","type":"float","value":10},{"name":"originX","type":"float","value":0},{"name":"originY","type":"float","value":0},{"name":"scaleX","type":"float","value":1},{"name":"scaleY","type":"float","value":1}]},{"id":175,"name":"spr_deco_jar_02","type":"prop","x":1125,"y":458,"width":0,"height":0,"point":true,"visible":true,"rotation":0,"properties":[{"name":"layer","type":"string","value":"Assets_1"},{"name":"frames","type":"int","value":1},{"name":"fps","type":"float","value":10},{"name":"originX","type":"float","value":0},{"name":"originY","type":"float","value":0},{"name":"scaleX","type":"float","value":1},{"name":"scaleY","type":"float","value":1}]},{"id":176,"name":"spr_deco_blinking","type":"prop","x":904,"y":359,"width":0,"height":0,"point":true,"visible":true,"rotation":0,"properties":[{"name":"layer","type":"string","value":"Assets_1"},{"name":"frames","type":"int","value":12},{"name":"fps","type":"float","value":10},{"name":"originX","type":"float","value":0.5},{"name":"originY","type":"float","value":0.5},{"name":"scaleX","type":"float","value":0.59374994},{"name":"scaleY","type":"float","value":0.59374994}]},{"id":177,"name":"fish","type":"prop","x":1203,"y":465,"width":0,"height":0,"point":true,"visible":true,"rotation":0,"properties":[{"name":"layer","type":"string","value":"Assets_1"},{"name":"frames","type":"int","value":1},{"name":"fps","type":"float","value":10},{"name":"originX","type":"float","value":0},{"name":"originY","type":"float","value":0},{"name":"scaleX","type":"float","value":1},{"name":"scaleY","type":"float","value":1}]},{"id":178,"name":"spr_deco_charactershadow","type":"prop","x":941,"y":87,"width":0,"height":0,"point":true,"visible":true,"rotation":0,"properties":[{"name":"layer","type":"string","value":"Assets_1"},{"name":"frames","type":"int","value":1},{"name":"fps","type":"float","value":10},{"name":"originX","type":"float","value":0.5},{"name":"originY","type":"float","value":0.5},{"name":"scaleX","type":"float","value":1},{"name":"scaleY","type":"float","value":1}]},{"id":179,"name":"egg","type":"prop","x":936,"y":77,"width":0,"height":0,"point":true,"visible":true,"rotation":0,"properties":[{"name":"layer","type":"string","value":"Assets_1"},{"name":"frames","type":"int","value":1},{"name":"fps","type":"float","value":10},{"name":"originX","type":"float","value":0},{"name":"originY","type":"float","value":0},{"name":"scaleX","type":"float","value":1},{"name":"scaleY","type":"float","value":1}]},{"id":180,"name":"kale_05","type":"prop","x":1137,"y":477,"width":0,"height":0,"point":true,"visible":true,"rotation":0,"properties":[{"name":"layer","type":"string","value":"Assets_1"},{"name":"frames","type":"int","value":1},{"name":"fps","type":"float","value":10},{"name":"originX","type":"float","value":0},{"name":"originY","type":"float","value":0},{"name":"scaleX","type":"float","value":1},{"name":"scaleY","type":"float","value":1}]},{"id":181,"name":"kale_05","type":"prop","x":1121,"y":477,"width":0,"height":0,"point":true,"visible":true,"rotation":0,"properties":[{"name":"layer","type":"string","value":"Assets_1"},{"name":"frames","type":"int","value":1},{"name":"fps","type":"float","value":10},{"name":"originX","type":"float","value":0},{"name":"originY","type":"float","value":0},{"name":"scaleX","type":"float","value":1},{"name":"scaleY","type":"float","value":1}]},{"id":182,"name":"kale_05","type":"prop","x":1084,"y":459,"width":0,"height":0,"point":true,"visible":true,"rotation":0,"properties":[{"name":"layer","type":"string","value":"Assets_1"},{"name":"frames","type":"int","value":1},{"name":"fps","type":"float","value":10},{"name":"originX","type":"float","value":0},{"name":"originY","type":"float","value":0},{"name":"scaleX","type":"float","value":1},{"name":"scaleY","type":"float","value":1}]},{"id":183,"name":"kale_05","type":"prop","x":831,"y":602,"width":0,"height":0,"point":true,"visible":true,"rotation":0,"properties":[{"name":"layer","type":"string","value":"Assets_1"},{"name":"frames","type":"int","value":1},{"name":"fps","type":"float","value":10},{"name":"originX","type":"float","value":0},{"name":"originY","type":"float","value":0},{"name":"scaleX","type":"float","value":1},{"name":"scaleY","type":"float","value":1}]},{"id":184,"name":"kale_05","type":"prop","x":742,"y":598,"width":0,"height":0,"point":true,"visible":true,"rotation":0,"properties":[{"name":"layer","type":"string","value":"Assets_1"},{"name":"frames","type":"int","value":1},{"name":"fps","type":"float","value":10},{"name":"originX","type":"float","value":0},{"name":"originY","type":"float","value":0},{"name":"scaleX","type":"float","value":1},{"name":"scaleY","type":"float","value":1}]},{"id":185,"name":"kale_05","type":"prop","x":455,"y":486,"width":0,"height":0,"point":true,"visible":true,"rotation":0,"properties":[{"name":"layer","type":"string","value":"Assets_1"},{"name":"frames","type":"int","value":1},{"name":"fps","type":"float","value":10},{"name":"originX","type":"float","value":0},{"name":"originY","type":"float","value":0},{"name":"scaleX","type":"float","value":1},{"name":"scaleY","type":"float","value":1}]},{"id":186,"name":"kale_05","type":"prop","x":300,"y":359,"width":0,"height":0,"point":true,"visible":true,"rotation":0,"properties":[{"name":"layer","type":"string","value":"Assets_1"},{"name":"frames","type":"int","value":1},{"name":"fps","type":"float","value":10},{"name":"originX","type":"float","value":0},{"name":"originY","type":"float","value":0},{"name":"scaleX","type":"float","value":1},{"name":"scaleY","type":"float","value":1}]},{"id":187,"name":"kale_05","type":"prop","x":226,"y":509,"width":0,"height":0,"point":true,"visible":true,"rotation":0,"properties":[{"name":"layer","type":"string","value":"Assets_1"},{"name":"frames","type":"int","value":1},{"name":"fps","type":"float","value":10},{"name":"originX","type":"float","value":0},{"name":"originY","type":"float","value":0},{"name":"scaleX","type":"float","value":1},{"name":"scaleY","type":"float","value":1}]},{"id":188,"name":"kale_05","type":"prop","x":232,"y":568,"width":0,"height":0,"point":true,"visible":true,"rotation":0,"properties":[{"name":"layer","type":"string","value":"Assets_1"},{"name":"frames","type":"int","value":1},{"name":"fps","type":"float","value":10},{"name":"originX","type":"float","value":0},{"name":"originY","type":"float","value":0},{"name":"scaleX","type":"float","value":1},{"name":"scaleY","type":"float","value":1}]},{"id":189,"name":"kale_05","type":"prop","x":116,"y":574,"width":0,"height":0,"point":true,"visible":true,"rotation":0,"properties":[{"name":"layer","type":"string","value":"Assets_1"},{"name":"frames","type":"int","value":1},{"name":"fps","type":"float","value":10},{"name":"originX","type":"float","value":0},{"name":"originY","type":"float","value":0},{"name":"scaleX","type":"float","value":1},{"name":"scaleY","type":"float","value":1}]},{"id":190,"name":"milk","type":"prop","x":196,"y":526,"width":0,"height":0,"point":true,"visible":true,"rotation":0,"properties":[{"name":"layer","type":"string","value":"Assets_1"},{"name":"frames","type":"int","value":1},{"name":"fps","type":"float","value":10},{"name":"originX","type":"float","value":0},{"name":"originY","type":"float","value":0},{"name":"scaleX","type":"float","value":1},{"name":"scaleY","type":"float","value":1}]},{"id":191,"name":"spr_deco_coracle","type":"prop","x":1264,"y":566,"width":0,"height":0,"point":true,"visible":true,"rotation":0,"properties":[{"name":"layer","type":"string","value":"Assets_1"},{"name":"frames","type":"int","value":4},{"name":"fps","type":"float","value":5},{"name":"originX","type":"float","value":0.5},{"name":"originY","type":"float","value":0.4864864864864865},{"name":"scaleX","type":"float","value":1},{"name":"scaleY","type":"float","value":1}]},{"id":192,"name":"spr_deco_coracle","type":"prop","x":332,"y":679,"width":0,"height":0,"point":true,"visible":true,"rotation":0,"properties":[{"name":"layer","type":"string","value":"Assets_1"},{"name":"frames","type":"int","value":4},{"name":"fps","type":"float","value":5},{"name":"originX","type":"float","value":0.5},{"name":"originY","type":"float","value":0.4864864864864865},{"name":"scaleX","type":"float","value":-1},{"name":"scaleY","type":"float","value":1}]},{"id":193,"name":"spr_deco_coracle","type":"prop","x":917,"y":649,"width":0,"height":0,"point":true,"visible":true,"rotation":0,"properties":[{"name":"layer","type":"string","value":"Assets_1"},{"name":"frames","type":"int","value":4},{"name":"fps","type":"float","value":5},{"name":"originX","type":"float","value":0.5},{"name":"originY","type":"float","value":0.4864864864864865},{"name":"scaleX","type":"float","value":-1},{"name":"scaleY","type":"float","value":1}]},{"id":194,"name":"spr_deco_coracle","type":"prop","x":70,"y":519,"width":0,"height":0,"point":true,"visible":true,"rotation":0,"properties":[{"name":"layer","type":"string","value":"Assets_1"},{"name":"frames","type":"int","value":4},{"name":"fps","type":"float","value":5},{"name":"originX","type":"float","value":0.5},{"name":"originY","type":"float","value":0.4864864864864865},{"name":"scaleX","type":"float","value":1},{"name":"scaleY","type":"float","value":1}]},{"id":195,"name":"spr_deco_duck_01","type":"prop","x":8,"y":325,"width":0,"height":0,"point":true,"visible":true,"rotation":0,"properties":[{"name":"layer","type":"string","value":"Assets_1"},{"name":"frames","type":"int","value":4},{"name":"fps","type":"float","value":4},{"name":"originX","type":"float","value":0.5},{"name":"originY","type":"float","value":0.5},{"name":"scaleX","type":"float","value":-1},{"name":"scaleY","type":"float","value":1}]},{"id":196,"name":"spr_deco_coracle","type":"prop","x":1275,"y":592,"width":0,"height":0,"point":true,"visible":true,"rotation":0,"properties":[{"name":"layer","type":"string","value":"Assets_1"},{"name":"frames","type":"int","value":4},{"name":"fps","type":"float","value":5},{"name":"originX","type":"float","value":0.5},{"name":"originY","type":"float","value":0.4864864864864865},{"name":"scaleX","type":"float","value":-1},{"name":"scaleY","type":"float","value":1}]},{"id":197,"name":"fish","type":"prop","x":343,"y":672,"width":0,"height":0,"point":true,"visible":true,"rotation":-51.425762,"properties":[{"name":"layer","type":"string","value":"Assets_1"},{"name":"frames","type":"int","value":1},{"name":"fps","type":"float","value":10},{"name":"originX","type":"float","value":0},{"name":"originY","type":"float","value":0},{"name":"scaleX","type":"float","value":-0.68181825},{"name":"scaleY","type":"float","value":0.68181825}]},{"id":198,"name":"fish","type":"prop","x":341,"y":673,"width":0,"height":0,"point":true,"visible":true,"rotation":-16.408321,"properties":[{"name":"layer","type":"string","value":"Assets_1"},{"name":"frames","type":"int","value":1},{"name":"fps","type":"float","value":10},{"name":"originX","type":"float","value":0},{"name":"originY","type":"float","value":0},{"name":"scaleX","type":"float","value":-0.68181825},{"name":"scaleY","type":"float","value":0.68181825}]},{"id":199,"name":"spr_deco_coracle_land","type":"prop","x":1103.8066,"y":394.00623,"width":0,"height":0,"point":true,"visible":true,"rotation":0,"properties":[{"name":"layer","type":"string","value":"Assets_1"},{"name":"frames","type":"int","value":1},{"name":"fps","type":"float","value":10},{"name":"originX","type":"float","value":0.5},{"name":"originY","type":"float","value":0.5},{"name":"scaleX","type":"float","value":0.8004158},{"name":"scaleY","type":"float","value":0.8004158}]},{"id":200,"name":"spr_deco_oar","type":"prop","x":1095,"y":402,"width":0,"height":0,"point":true,"visible":true,"rotation":0,"properties":[{"name":"layer","type":"string","value":"Assets_1"},{"name":"frames","type":"int","value":1},{"name":"fps","type":"float","value":10},{"name":"originX","type":"float","value":0.5},{"name":"originY","type":"float","value":0.5},{"name":"scaleX","type":"float","value":1},{"name":"scaleY","type":"float","value":1}]},{"id":201,"name":"spr_deco_oar","type":"prop","x":1231,"y":158,"width":0,"height":0,"point":true,"visible":true,"rotation":0,"properties":[{"name":"layer","type":"string","value":"Assets_1"},{"name":"frames","type":"int","value":1},{"name":"fps","type":"float","value":10},{"name":"originX","type":"float","value":0.5},{"name":"originY","type":"float","value":0.5},{"name":"scaleX","type":"float","value":1},{"name":"scaleY","type":"float","value":1}]},{"id":202,"name":"spr_deco_coracle_land","type":"prop","x":1141,"y":508,"width":0,"height":0,"point":true,"visible":true,"rotation":0,"properties":[{"name":"layer","type":"string","value":"Assets_1"},{"name":"frames","type":"int","value":1},{"name":"fps","type":"float","value":10},{"name":"originX","type":"float","value":0.5},{"name":"originY","type":"float","value":0.5},{"name":"scaleX","type":"float","value":1},{"name":"scaleY","type":"float","value":1}]},{"id":203,"name":"spr_deco_oar","type":"prop","x":1137,"y":505,"width":0,"height":0,"point":true,"visible":true,"rotation":-44.217094,"properties":[{"name":"layer","type":"string","value":"Assets_1"},{"name":"frames","type":"int","value":1},{"name":"fps","type":"float","value":10},{"name":"originX","type":"float","value":0.5},{"name":"originY","type":"float","value":0.5},{"name":"scaleX","type":"float","value":-1},{"name":"scaleY","type":"float","value":1}]},{"id":204,"name":"spr_deco_oar","type":"prop","x":1159,"y":512,"width":0,"height":0,"point":true,"visible":true,"rotation":-60.167435,"properties":[{"name":"layer","type":"string","value":"Assets_1"},{"name":"frames","type":"int","value":1},{"name":"fps","type":"float","value":10},{"name":"originX","type":"float","value":0.5},{"name":"originY","type":"float","value":0.5},{"name":"scaleX","type":"float","value":-1},{"name":"scaleY","type":"float","value":1}]},{"id":205,"name":"spr_deco_cow","type":"prop","x":1030,"y":565,"width":0,"height":0,"point":true,"visible":true,"rotation":0,"properties":[{"name":"layer","type":"string","value":"Assets_1"},{"name":"frames","type":"int","value":4},{"name":"fps","type":"float","value":10},{"name":"originX","type":"float","value":0.5},{"name":"originY","type":"float","value":0.71875},{"name":"scaleX","type":"float","value":1},{"name":"scaleY","type":"float","value":1}]},{"id":206,"name":"spr_deco_cow","type":"prop","x":348,"y":474,"width":0,"height":0,"point":true,"visible":true,"rotation":0,"properties":[{"name":"layer","type":"string","value":"Assets_1"},{"name":"frames","type":"int","value":4},{"name":"fps","type":"float","value":10},{"name":"originX","type":"float","value":0.5},{"name":"originY","type":"float","value":0.71875},{"name":"scaleX","type":"float","value":1},{"name":"scaleY","type":"float","value":1}]},{"id":207,"name":"spr_deco_cow","type":"prop","x":376,"y":489,"width":0,"height":0,"point":true,"visible":true,"rotation":0,"properties":[{"name":"layer","type":"string","value":"Assets_1"},{"name":"frames","type":"int","value":4},{"name":"fps","type":"float","value":10},{"name":"originX","type":"float","value":0.5},{"name":"originY","type":"float","value":0.71875},{"name":"scaleX","type":"float","value":-1},{"name":"scaleY","type":"float","value":1}]},{"id":208,"name":"spr_deco_cow","type":"prop","x":183,"y":215,"width":0,"height":0,"point":true,"visible":true,"rotation":0,"properties":[{"name":"layer","type":"string","value":"Assets_1"},{"name":"frames","type":"int","value":4},{"name":"fps","type":"float","value":10},{"name":"originX","type":"float","value":0.5},{"name":"originY","type":"float","value":0.71875},{"name":"scaleX","type":"float","value":1},{"name":"scaleY","type":"float","value":1}]},{"id":209,"name":"spr_deco_windmill_withshadow","type":"prop","x":664,"y":263,"width":0,"height":0,"point":true,"visible":true,"rotation":0,"properties":[{"name":"layer","type":"string","value":"Assets_1"},{"name":"frames","type":"int","value":9},{"name":"fps","type":"float","value":6},{"name":"originX","type":"float","value":0.5},{"name":"originY","type":"float","value":0.5},{"name":"scaleX","type":"float","value":1},{"name":"scaleY","type":"float","value":1}]},{"id":210,"name":"spr_deco_windmill","type":"prop","x":489.25,"y":110.75,"width":0,"height":0,"point":true,"visible":true,"rotation":0,"properties":[{"name":"layer","type":"string","value":"Assets_1"},{"name":"frames","type":"int","value":9},{"name":"fps","type":"float","value":10},{"name":"originX","type":"float","value":0.5},{"name":"originY","type":"float","value":0.5},{"name":"scaleX","type":"float","value":-0.73660713},{"name":"scaleY","type":"float","value":0.73660713}]},{"id":211,"name":"spr_deco_windmill","type":"prop","x":40,"y":366,"width":0,"height":0,"point":true,"visible":true,"rotation":0,"properties":[{"name":"layer","type":"string","value":"Assets_1"},{"name":"frames","type":"int","value":9},{"name":"fps","type":"float","value":10},{"name":"originX","type":"float","value":0.5},{"name":"originY","type":"float","value":0.5},{"name":"scaleX","type":"float","value":0.6216517},{"name":"scaleY","type":"float","value":0.6216517}]},{"id":212,"name":"spr_deco_windmill","type":"prop","x":1169,"y":694,"width":0,"height":0,"point":true,"visible":true,"rotation":0,"properties":[{"name":"layer","type":"string","value":"Assets_1"},{"name":"frames","type":"int","value":9},{"name":"fps","type":"float","value":10},{"name":"originX","type":"float","value":0.5},{"name":"originY","type":"float","value":0.5},{"name":"scaleX","type":"float","value":1},{"name":"scaleY","type":"float","value":1}]},{"id":213,"name":"spr_deco_windmill","type":"prop","x":1184,"y":74,"width":0,"height":0,"point":true,"visible":true,"rotation":0,"properties":[{"name":"layer","type":"string","value":"Assets_1"},{"name":"frames","type":"int","value":9},{"name":"fps","type":"float","value":10},{"name":"originX","type":"float","value":0.5},{"name":"originY","type":"float","value":0.5},{"name":"scaleX","type":"float","value":1},{"name":"scaleY","type":"float","value":1}]},{"id":214,"name":"spr_deco_coracle","type":"prop","x":1173,"y":272,"width":0,"height":0,"point":true,"visible":true,"rotation":0,"properties":[{"name":"layer","type":"string","value":"Assets_1"},{"name":"frames","type":"int","value":4},{"name":"fps","type":"float","value":5},{"name":"originX","type":"float","value":0.5},{"name":"originY","type":"float","value":0.4864864864864865},{"name":"scaleX","type":"float","value":1},{"name":"scaleY","type":"float","value":1}]},{"id":215,"name":"spr_deco_crate_02","type":"prop","x":1193,"y":491,"width":0,"height":0,"point":true,"visible":true,"rotation":0,"properties":[{"name":"layer","type":"string","value":"Assets_1"},{"name":"frames","type":"int","value":1},{"name":"fps","type":"float","value":10},{"name":"originX","type":"float","value":0.5},{"name":"originY","type":"float","value":1},{"name":"scaleX","type":"float","value":1},{"name":"scaleY","type":"float","value":1}]},{"id":216,"name":"spr_deco_crate_02","type":"prop","x":392,"y":669,"width":0,"height":0,"point":true,"visible":true,"rotation":0,"properties":[{"name":"layer","type":"string","value":"Assets_1"},{"name":"frames","type":"int","value":1},{"name":"fps","type":"float","value":10},{"name":"originX","type":"float","value":0.5},{"name":"originY","type":"float","value":1},{"name":"scaleX","type":"float","value":1},{"name":"scaleY","type":"float","value":1}]},{"id":217,"name":"spr_deco_crate_02","type":"prop","x":716,"y":333,"width":0,"height":0,"point":true,"visible":true,"rotation":0,"properties":[{"name":"layer","type":"string","value":"Assets_1"},{"name":"frames","type":"int","value":1},{"name":"fps","type":"float","value":10},{"name":"originX","type":"float","value":0.5},{"name":"originY","type":"float","value":1},{"name":"scaleX","type":"float","value":1},{"name":"scaleY","type":"float","value":1}]},{"id":218,"name":"spr_deco_crate_02","type":"prop","x":792,"y":105,"width":0,"height":0,"point":true,"visible":true,"rotation":0,"properties":[{"name":"layer","type":"string","value":"Assets_1"},{"name":"frames","type":"int","value":1},{"name":"fps","type":"float","value":10},{"name":"originX","type":"float","value":0.5},{"name":"originY","type":"float","value":1},{"name":"scaleX","type":"float","value":1},{"name":"scaleY","type":"float","value":1}]},{"id":219,"name":"spr_deco_crate_02","type":"prop","x":844,"y":249,"width":0,"height":0,"point":true,"visible":true,"rotation":0,"properties":[{"name":"layer","type":"string","value":"Assets_1"},{"name":"frames","type":"int","value":1},{"name":"fps","type":"float","value":10},{"name":"originX","type":"float","value":0.5},{"name":"originY","type":"float","value":1},{"name":"scaleX","type":"float","value":1},{"name":"scaleY","type":"float","value":1}]},{"id":220,"name":"spr_deco_crate_02","type":"prop","x":827,"y":244,"width":0,"height":0,"point":true,"visible":true,"rotation":0,"properties":[{"name":"layer","type":"string","value":"Assets_1"},{"name":"frames","type":"int","value":1},{"name":"fps","type":"float","value":10},{"name":"originX","type":"float","value":0.5},{"name":"originY","type":"float","value":1},{"name":"scaleX","type":"float","value":1},{"name":"scaleY","type":"float","value":1}]},{"id":221,"name":"spr_deco_charactershadow","type":"prop","x":263,"y":387,"width":0,"height":0,"point":true,"visible":true,"rotation":0,"properties":[{"name":"layer","type":"string","value":"Assets_1"},{"name":"frames","type":"int","value":1},{"name":"fps","type":"float","value":10},{"name":"originX","type":"float","value":0.5},{"name":"originY","type":"float","value":0.5},{"name":"scaleX","type":"float","value":1},{"name":"scaleY","type":"float","value":1}]},{"id":222,"name":"spr_deco_charactershadow","type":"prop","x":299,"y":377,"width":0,"height":0,"point":true,"visible":true,"rotation":0,"properties":[{"name":"layer","type":"string","value":"Assets_1"},{"name":"frames","type":"int","value":1},{"name":"fps","type":"float","value":10},{"name":"originX","type":"float","value":0.5},{"name":"originY","type":"float","value":0.5},{"name":"scaleX","type":"float","value":1},{"name":"scaleY","type":"float","value":1}]},{"id":223,"name":"spr_deco_charactershadow","type":"prop","x":296,"y":363,"width":0,"height":0,"point":true,"visible":true,"rotation":0,"properties":[{"name":"layer","type":"string","value":"Assets_1"},{"name":"frames","type":"int","value":1},{"name":"fps","type":"float","value":10},{"name":"originX","type":"float","value":0.5},{"name":"originY","type":"float","value":0.5},{"name":"scaleX","type":"float","value":1},{"name":"scaleY","type":"float","value":1}]},{"id":224,"name":"spr_deco_charactershadow","type":"prop","x":289,"y":415,"width":0,"height":0,"point":true,"visible":true,"rotation":0,"properties":[{"name":"layer","type":"string","value":"Assets_1"},{"name":"frames","type":"int","value":1},{"name":"fps","type":"float","value":10},{"name":"originX","type":"float","value":0.5},{"name":"originY","type":"float","value":0.5},{"name":"scaleX","type":"float","value":1},{"name":"scaleY","type":"float","value":1}]},{"id":225,"name":"spr_deco_charactershadow","type":"prop","x":419,"y":402,"width":0,"height":0,"point":true,"visible":true,"rotation":0,"properties":[{"name":"layer","type":"string","value":"Assets_1"},{"name":"frames","type":"int","value":1},{"name":"fps","type":"float","value":10},{"name":"originX","type":"float","value":0.5},{"name":"originY","type":"float","value":0.5},{"name":"scaleX","type":"float","value":1},{"name":"scaleY","type":"float","value":1}]},{"id":226,"name":"spr_deco_charactershadow","type":"prop","x":493,"y":389,"width":0,"height":0,"point":true,"visible":true,"rotation":0,"properties":[{"name":"layer","type":"string","value":"Assets_1"},{"name":"frames","type":"int","value":1},{"name":"fps","type":"float","value":10},{"name":"originX","type":"float","value":0.5},{"name":"originY","type":"float","value":0.5},{"name":"scaleX","type":"float","value":1},{"name":"scaleY","type":"float","value":1}]},{"id":227,"name":"spr_deco_charactershadow","type":"prop","x":310,"y":261,"width":0,"height":0,"point":true,"visible":true,"rotation":0,"properties":[{"name":"layer","type":"string","value":"Assets_1"},{"name":"frames","type":"int","value":1},{"name":"fps","type":"float","value":10},{"name":"originX","type":"float","value":0.5},{"name":"originY","type":"float","value":0.5},{"name":"scaleX","type":"float","value":1},{"name":"scaleY","type":"float","value":1}]},{"id":228,"name":"spr_deco_charactershadow","type":"prop","x":201,"y":537,"width":0,"height":0,"point":true,"visible":true,"rotation":0,"properties":[{"name":"layer","type":"string","value":"Assets_1"},{"name":"frames","type":"int","value":1},{"name":"fps","type":"float","value":10},{"name":"originX","type":"float","value":0.5},{"name":"originY","type":"float","value":0.5},{"name":"scaleX","type":"float","value":1},{"name":"scaleY","type":"float","value":1}]},{"id":229,"name":"spr_deco_charactershadow","type":"prop","x":449,"y":564,"width":0,"height":0,"point":true,"visible":true,"rotation":0,"properties":[{"name":"layer","type":"string","value":"Assets_1"},{"name":"frames","type":"int","value":1},{"name":"fps","type":"float","value":10},{"name":"originX","type":"float","value":0.5},{"name":"originY","type":"float","value":0.5},{"name":"scaleX","type":"float","value":1},{"name":"scaleY","type":"float","value":1}]},{"id":230,"name":"spr_deco_charactershadow","type":"prop","x":738,"y":492,"width":0,"height":0,"point":true,"visible":true,"rotation":0,"properties":[{"name":"layer","type":"string","value":"Assets_1"},{"name":"frames","type":"int","value":1},{"name":"fps","type":"float","value":10},{"name":"originX","type":"float","value":0.5},{"name":"originY","type":"float","value":0.5},{"name":"scaleX","type":"float","value":1},{"name":"scaleY","type":"float","value":1}]},{"id":231,"name":"spr_deco_charactershadow","type":"prop","x":761,"y":437,"width":0,"height":0,"point":true,"visible":true,"rotation":0,"properties":[{"name":"layer","type":"string","value":"Assets_1"},{"name":"frames","type":"int","value":1},{"name":"fps","type":"float","value":10},{"name":"originX","type":"float","value":0.5},{"name":"originY","type":"float","value":0.5},{"name":"scaleX","type":"float","value":1},{"name":"scaleY","type":"float","value":1}]},{"id":232,"name":"spr_deco_charactershadow","type":"prop","x":507,"y":275,"width":0,"height":0,"point":true,"visible":true,"rotation":0,"properties":[{"name":"layer","type":"string","value":"Assets_1"},{"name":"frames","type":"int","value":1},{"name":"fps","type":"float","value":10},{"name":"originX","type":"float","value":0.5},{"name":"originY","type":"float","value":0.5},{"name":"scaleX","type":"float","value":1},{"name":"scaleY","type":"float","value":1}]},{"id":233,"name":"spr_deco_charactershadow","type":"prop","x":745,"y":189,"width":0,"height":0,"point":true,"visible":true,"rotation":0,"properties":[{"name":"layer","type":"string","value":"Assets_1"},{"name":"frames","type":"int","value":1},{"name":"fps","type":"float","value":10},{"name":"originX","type":"float","value":0.5},{"name":"originY","type":"float","value":0.5},{"name":"scaleX","type":"float","value":1},{"name":"scaleY","type":"float","value":1}]},{"id":234,"name":"spr_deco_charactershadow","type":"prop","x":1048,"y":268,"width":0,"height":0,"point":true,"visible":true,"rotation":0,"properties":[{"name":"layer","type":"string","value":"Assets_1"},{"name":"frames","type":"int","value":1},{"name":"fps","type":"float","value":10},{"name":"originX","type":"float","value":0.5},{"name":"originY","type":"float","value":0.5},{"name":"scaleX","type":"float","value":1},{"name":"scaleY","type":"float","value":1}]},{"id":235,"name":"spr_deco_charactershadow","type":"prop","x":930,"y":112,"width":0,"height":0,"point":true,"visible":true,"rotation":0,"properties":[{"name":"layer","type":"string","value":"Assets_1"},{"name":"frames","type":"int","value":1},{"name":"fps","type":"float","value":10},{"name":"originX","type":"float","value":0.5},{"name":"originY","type":"float","value":0.5},{"name":"scaleX","type":"float","value":1},{"name":"scaleY","type":"float","value":1}]},{"id":236,"name":"spr_deco_charactershadow","type":"prop","x":948,"y":109,"width":0,"height":0,"point":true,"visible":true,"rotation":0,"properties":[{"name":"layer","type":"string","value":"Assets_1"},{"name":"frames","type":"int","value":1},{"name":"fps","type":"float","value":10},{"name":"originX","type":"float","value":0.5},{"name":"originY","type":"float","value":0.5},{"name":"scaleX","type":"float","value":1},{"name":"scaleY","type":"float","value":1}]},{"id":237,"name":"spr_deco_charactershadow","type":"prop","x":957,"y":112,"width":0,"height":0,"point":true,"visible":true,"rotation":0,"properties":[{"name":"layer","type":"string","value":"Assets_1"},{"name":"frames","type":"int","value":1},{"name":"fps","type":"float","value":10},{"name":"originX","type":"float","value":0.5},{"name":"originY","type":"float","value":0.5},{"name":"scaleX","type":"float","value":1},{"name":"scaleY","type":"float","value":1}]},{"id":238,"name":"spr_deco_charactershadow","type":"prop","x":959,"y":106,"width":0,"height":0,"point":true,"visible":true,"rotation":0,"properties":[{"name":"layer","type":"string","value":"Assets_1"},{"name":"frames","type":"int","value":1},{"name":"fps","type":"float","value":10},{"name":"originX","type":"float","value":0.5},{"name":"originY","type":"float","value":0.5},{"name":"scaleX","type":"float","value":1},{"name":"scaleY","type":"float","value":1}]},{"id":239,"name":"wheat_01","type":"prop","x":412,"y":669,"width":0,"height":0,"point":true,"visible":true,"rotation":0,"properties":[{"name":"layer","type":"string","value":"Assets_1"},{"name":"frames","type":"int","value":1},{"name":"fps","type":"float","value":10},{"name":"originX","type":"float","value":0},{"name":"originY","type":"float","value":0},{"name":"scaleX","type":"float","value":1},{"name":"scaleY","type":"float","value":1}]},{"id":240,"name":"parsnip_03","type":"prop","x":385,"y":647.6588,"width":0,"height":0,"point":true,"visible":true,"rotation":0,"properties":[{"name":"layer","type":"string","value":"Assets_1"},{"name":"frames","type":"int","value":1},{"name":"fps","type":"float","value":10},{"name":"originX","type":"float","value":0},{"name":"originY","type":"float","value":0},{"name":"scaleX","type":"float","value":1.0705881},{"name":"scaleY","type":"float","value":1.070588}]},{"id":241,"name":"parsnip_03","type":"prop","x":390.9294,"y":647,"width":0,"height":0,"point":true,"visible":true,"rotation":0,"properties":[{"name":"layer","type":"string","value":"Assets_1"},{"name":"frames","type":"int","value":1},{"name":"fps","type":"float","value":10},{"name":"originX","type":"float","value":0},{"name":"originY","type":"float","value":0},{"name":"scaleX","type":"float","value":1.0705881},{"name":"scaleY","type":"float","value":1.070588}]},{"id":242,"name":"cabbage_05","type":"prop","x":1187,"y":468,"width":0,"height":0,"point":true,"visible":true,"rotation":0,"properties":[{"name":"layer","type":"string","value":"Assets_1"},{"name":"frames","type":"int","value":1},{"name":"fps","type":"float","value":10},{"name":"originX","type":"float","value":0},{"name":"originY","type":"float","value":0},{"name":"scaleX","type":"float","value":1},{"name":"scaleY","type":"float","value":1}]},{"id":243,"name":"cauliflower_05","type":"prop","x":838,"y":224,"width":0,"height":0,"point":true,"visible":true,"rotation":0,"properties":[{"name":"layer","type":"string","value":"Assets_1"},{"name":"frames","type":"int","value":1},{"name":"fps","type":"float","value":10},{"name":"originX","type":"float","value":0},{"name":"originY","type":"float","value":0},{"name":"scaleX","type":"float","value":1},{"name":"scaleY","type":"float","value":1}]},{"id":244,"name":"cauliflower_05","type":"prop","x":821,"y":220,"width":0,"height":0,"point":true,"visible":true,"rotation":0,"properties":[{"name":"layer","type":"string","value":"Assets_1"},{"name":"frames","type":"int","value":1},{"name":"fps","type":"float","value":10},{"name":"originX","type":"float","value":0},{"name":"originY","type":"float","value":0},{"name":"scaleX","type":"float","value":1},{"name":"scaleY","type":"float","value":1}]},{"id":245,"name":"kale_05","type":"prop","x":709,"y":309,"width":0,"height":0,"point":true,"visible":true,"rotation":0,"properties":[{"name":"layer","type":"string","value":"Assets_1"},{"name":"frames","type":"int","value":1},{"name":"fps","type":"float","value":10},{"name":"originX","type":"float","value":0},{"name":"originY","type":"float","value":0},{"name":"scaleX","type":"float","value":1},{"name":"scaleY","type":"float","value":1}]},{"id":246,"name":"wood","type":"prop","x":784,"y":88,"width":0,"height":0,"point":true,"visible":true,"rotation":38.526623,"properties":[{"name":"layer","type":"string","value":"Assets_1"},{"name":"frames","type":"int","value":1},{"name":"fps","type":"float","value":10},{"name":"originX","type":"float","value":0},{"name":"originY","type":"float","value":0},{"name":"scaleX","type":"float","value":1},{"name":"scaleY","type":"float","value":1}]},{"id":247,"name":"spr_deco_shadow","type":"prop","x":508,"y":343,"width":0,"height":0,"point":true,"visible":true,"rotation":0,"properties":[{"name":"layer","type":"string","value":"Assets_1"},{"name":"frames","type":"int","value":1},{"name":"fps","type":"float","value":10},{"name":"originX","type":"float","value":0.5},{"name":"originY","type":"float","value":0.5},{"name":"scaleX","type":"float","value":1.7499999},{"name":"scaleY","type":"float","value":1}]},{"id":248,"name":"wood","type":"prop","x":500,"y":336,"width":0,"height":0,"point":true,"visible":true,"rotation":44.502125,"properties":[{"name":"layer","type":"string","value":"Assets_1"},{"name":"frames","type":"int","value":1},{"name":"fps","type":"float","value":10},{"name":"originX","type":"float","value":0},{"name":"originY","type":"float","value":0},{"name":"scaleX","type":"float","value":1},{"name":"scaleY","type":"float","value":1}]},{"id":249,"name":"wood","type":"prop","x":504,"y":341,"width":0,"height":0,"point":true,"visible":true,"rotation":44.502125,"properties":[{"name":"layer","type":"string","value":"Assets_1"},{"name":"frames","type":"int","value":1},{"name":"fps","type":"float","value":10},{"name":"originX","type":"float","value":0},{"name":"originY","type":"float","value":0},{"name":"scaleX","type":"float","value":1},{"name":"scaleY","type":"float","value":1}]},{"id":250,"name":"wood","type":"prop","x":496,"y":341.14273,"width":0,"height":0,"point":true,"visible":true,"rotation":44.502125,"properties":[{"name":"layer","type":"string","value":"Assets_1"},{"name":"frames","type":"int","value":1},{"name":"fps","type":"float","value":10},{"name":"originX","type":"float","value":0},{"name":"originY","type":"float","value":0},{"name":"scaleX","type":"float","value":1},{"name":"scaleY","type":"float","value":1}]},{"id":251,"name":"spr_deco_crate_01","type":"prop","x":103,"y":159,"width":0,"height":0,"point":true,"visible":true,"rotation":0,"properties":[{"name":"layer","type":"string","value":"Assets_1"},{"name":"frames","type":"int","value":1},{"name":"fps","type":"float","value":10},{"name":"originX","type":"float","value":0.5},{"name":"originY","type":"float","value":1},{"name":"scaleX","type":"float","value":1},{"name":"scaleY","type":"float","value":1}]},{"id":252,"name":"spr_deco_crate_01","type":"prop","x":119,"y":155,"width":0,"height":0,"point":true,"visible":true,"rotation":0,"properties":[{"name":"layer","type":"string","value":"Assets_1"},{"name":"frames","type":"int","value":1},{"name":"fps","type":"float","value":10},{"name":"originX","type":"float","value":0.5},{"name":"originY","type":"float","value":1},{"name":"scaleX","type":"float","value":1},{"name":"scaleY","type":"float","value":1}]},{"id":253,"name":"spr_deco_crate_01","type":"prop","x":101,"y":171,"width":0,"height":0,"point":true,"visible":true,"rotation":0,"properties":[{"name":"layer","type":"string","value":"Assets_1"},{"name":"frames","type":"int","value":1},{"name":"fps","type":"float","value":10},{"name":"originX","type":"float","value":0.5},{"name":"originY","type":"float","value":1},{"name":"scaleX","type":"float","value":1},{"name":"scaleY","type":"float","value":1}]},{"id":254,"name":"spr_deco_crate_02","type":"prop","x":135,"y":149,"width":0,"height":0,"point":true,"visible":true,"rotation":0,"properties":[{"name":"layer","type":"string","value":"Assets_1"},{"name":"frames","type":"int","value":1},{"name":"fps","type":"float","value":10},{"name":"originX","type":"float","value":0.5},{"name":"originY","type":"float","value":1},{"name":"scaleX","type":"float","value":1},{"name":"scaleY","type":"float","value":1}]},{"id":255,"name":"spr_deco_crate_02","type":"prop","x":120,"y":167,"width":0,"height":0,"point":true,"visible":true,"rotation":0,"properties":[{"name":"layer","type":"string","value":"Assets_1"},{"name":"frames","type":"int","value":1},{"name":"fps","type":"float","value":10},{"name":"originX","type":"float","value":0.5},{"name":"originY","type":"float","value":1},{"name":"scaleX","type":"float","value":1},{"name":"scaleY","type":"float","value":1}]},{"id":256,"name":"spr_deco_crate_02","type":"prop","x":284,"y":179,"width":0,"height":0,"point":true,"visible":true,"rotation":0,"properties":[{"name":"layer","type":"string","value":"Assets_1"},{"name":"frames","type":"int","value":1},{"name":"fps","type":"float","value":10},{"name":"originX","type":"float","value":0.5},{"name":"originY","type":"float","value":1},{"name":"scaleX","type":"float","value":1},{"name":"scaleY","type":"float","value":1}]},{"id":257,"name":"spr_deco_crate_01","type":"prop","x":302,"y":183,"width":0,"height":0,"point":true,"visible":true,"rotation":0,"properties":[{"name":"layer","type":"string","value":"Assets_1"},{"name":"frames","type":"int","value":1},{"name":"fps","type":"float","value":10},{"name":"originX","type":"float","value":0.5},{"name":"originY","type":"float","value":1},{"name":"scaleX","type":"float","value":1},{"name":"scaleY","type":"float","value":1}]},{"id":258,"name":"cauliflower_05","type":"prop","x":278,"y":155,"width":0,"height":0,"point":true,"visible":true,"rotation":0,"properties":[{"name":"layer","type":"string","value":"Assets_1"},{"name":"frames","type":"int","value":1},{"name":"fps","type":"float","value":10},{"name":"originX","type":"float","value":0},{"name":"originY","type":"float","value":0},{"name":"scaleX","type":"float","value":1},{"name":"scaleY","type":"float","value":1}]},{"id":259,"name":"cauliflower_05","type":"prop","x":114,"y":143,"width":0,"height":0,"point":true,"visible":true,"rotation":0,"properties":[{"name":"layer","type":"string","value":"Assets_1"},{"name":"frames","type":"int","value":1},{"name":"fps","type":"float","value":10},{"name":"originX","type":"float","value":0},{"name":"originY","type":"float","value":0},{"name":"scaleX","type":"float","value":1},{"name":"scaleY","type":"float","value":1}]},{"id":260,"name":"cabbage_05","type":"prop","x":129,"y":126,"width":0,"height":0,"point":true,"visible":true,"rotation":0,"properties":[{"name":"layer","type":"string","value":"Assets_1"},{"name":"frames","type":"int","value":1},{"name":"fps","type":"float","value":10},{"name":"originX","type":"float","value":0},{"name":"originY","type":"float","value":0},{"name":"scaleX","type":"float","value":1},{"name":"scaleY","type":"float","value":1}]},{"id":261,"name":"spr_deco_barrel_closed","type":"prop","x":101,"y":171,"width":0,"height":0,"point":true,"visible":true,"rotation":0,"properties":[{"name":"layer","type":"string","value":"Assets_1"},{"name":"frames","type":"int","value":1},{"name":"fps","type":"float","value":10},{"name":"originX","type":"float","value":0.46153846153846156},{"name":"originY","type":"float","value":0.5},{"name":"scaleX","type":"float","value":1},{"name":"scaleY","type":"float","value":1}]},{"id":262,"name":"spr_deco_barrel_closed","type":"prop","x":287,"y":177,"width":0,"height":0,"point":true,"visible":true,"rotation":0,"properties":[{"name":"layer","type":"string","value":"Assets_1"},{"name":"frames","type":"int","value":1},{"name":"fps","type":"float","value":10},{"name":"originX","type":"float","value":0.46153846153846156},{"name":"originY","type":"float","value":0.5},{"name":"scaleX","type":"float","value":1},{"name":"scaleY","type":"float","value":1}]},{"id":263,"name":"spr_deco_barrel_closed","type":"prop","x":299,"y":182,"width":0,"height":0,"point":true,"visible":true,"rotation":0,"properties":[{"name":"layer","type":"string","value":"Assets_1"},{"name":"frames","type":"int","value":1},{"name":"fps","type":"float","value":10},{"name":"originX","type":"float","value":0.46153846153846156},{"name":"originY","type":"float","value":0.5},{"name":"scaleX","type":"float","value":1},{"name":"scaleY","type":"float","value":1}]},{"id":264,"name":"spr_deco_trough","type":"prop","x":403,"y":500,"width":0,"height":0,"point":true,"visible":true,"rotation":0,"properties":[{"name":"layer","type":"string","value":"Assets_1"},{"name":"frames","type":"int","value":1},{"name":"fps","type":"float","value":10},{"name":"originX","type":"float","value":0.4827586206896552},{"name":"originY","type":"float","value":0.5},{"name":"scaleX","type":"float","value":1},{"name":"scaleY","type":"float","value":1}]},{"id":265,"name":"chimneysmoke_01","type":"prop","x":407,"y":535,"width":0,"height":0,"point":true,"visible":true,"rotation":0,"properties":[{"name":"layer","type":"string","value":"Assets_1"},{"name":"frames","type":"int","value":30},{"name":"fps","type":"float","value":10},{"name":"originX","type":"float","value":0.4666666666666667},{"name":"originY","type":"float","value":1},{"name":"scaleX","type":"float","value":1},{"name":"scaleY","type":"float","value":1}]},{"id":266,"name":"spr_deco_chicken_01","type":"prop","x":427,"y":498,"width":0,"height":0,"point":true,"visible":true,"rotation":0,"properties":[{"name":"layer","type":"string","value":"Assets_1"},{"name":"frames","type":"int","value":4},{"name":"fps","type":"float","value":10},{"name":"originX","type":"float","value":0.5},{"name":"originY","type":"float","value":0.71875},{"name":"scaleX","type":"float","value":1},{"name":"scaleY","type":"float","value":1}]},{"id":267,"name":"spr_deco_charactershadow","type":"prop","x":701,"y":670.5,"width":0,"height":0,"point":true,"visible":true,"rotation":0,"properties":[{"name":"layer","type":"string","value":"Assets_1"},{"name":"frames","type":"int","value":1},{"name":"fps","type":"float","value":10},{"name":"originX","type":"float","value":0.5},{"name":"originY","type":"float","value":0.5},{"name":"scaleX","type":"float","value":1},{"name":"scaleY","type":"float","value":1}]},{"id":268,"name":"skeleton_idle","type":"prop","x":701,"y":679,"width":0,"height":0,"point":true,"visible":true,"rotation":0,"properties":[{"name":"layer","type":"string","value":"Assets_1"},{"name":"frames","type":"int","value":6},{"name":"fps","type":"float","value":14},{"name":"originX","type":"float","value":0.5},{"name":"originY","type":"float","value":1},{"name":"scaleX","type":"float","value":1},{"name":"scaleY","type":"float","value":1}]},{"id":269,"name":"spr_deco_jar_02","type":"prop","x":671,"y":385,"width":0,"height":0,"point":true,"visible":true,"rotation":0,"properties":[{"name":"layer","type":"string","value":"Assets_1"},{"name":"frames","type":"int","value":1},{"name":"fps","type":"float","value":10},{"name":"originX","type":"float","value":0},{"name":"originY","type":"float","value":0},{"name":"scaleX","type":"float","value":1},{"name":"scaleY","type":"float","value":1}]},{"id":270,"name":"spr_deco_jar_02","type":"prop","x":311,"y":537.5,"width":0,"height":0,"point":true,"visible":true,"rotation":0,"properties":[{"name":"layer","type":"string","value":"Assets_1"},{"name":"frames","type":"int","value":1},{"name":"fps","type":"float","value":10},{"name":"originX","type":"float","value":0},{"name":"originY","type":"float","value":0},{"name":"scaleX","type":"float","value":1},{"name":"scaleY","type":"float","value":1}]},{"id":271,"name":"spr_deco_jar_01","type":"prop","x":291,"y":540,"width":0,"height":0,"point":true,"visible":true,"rotation":0,"properties":[{"name":"layer","type":"string","value":"Assets_1"},{"name":"frames","type":"int","value":1},{"name":"fps","type":"float","value":10},{"name":"originX","type":"float","value":0},{"name":"originY","type":"float","value":0},{"name":"scaleX","type":"float","value":1},{"name":"scaleY","type":"float","value":1}]},{"id":272,"name":"spr_deco_jar_02","type":"prop","x":304,"y":542,"width":0,"height":0,"point":true,"visible":true,"rotation":0,"properties":[{"name":"layer","type":"string","value":"Assets_1"},{"name":"frames","type":"int","value":1},{"name":"fps","type":"float","value":10},{"name":"originX","type":"float","value":0},{"name":"originY","type":"float","value":0},{"name":"scaleX","type":"float","value":1},{"name":"scaleY","type":"float","value":1}]},{"id":273,"name":"spr_deco_jar_01","type":"prop","x":311,"y":547,"width":0,"height":0,"point":true,"visible":true,"rotation":0,"properties":[{"name":"layer","type":"string","value":"Assets_1"},{"name":"frames","type":"int","value":1},{"name":"fps","type":"float","value":10},{"name":"originX","type":"float","value":0},{"name":"originY","type":"float","value":0},{"name":"scaleX","type":"float","value":1},{"name":"scaleY","type":"float","value":1}]},{"id":274,"name":"spr_deco_flowers_house_01","type":"prop","x":560,"y":198,"width":0,"height":0,"point":true,"visible":true,"rotation":0,"properties":[{"name":"layer","type":"string","value":"Assets_1"},{"name":"frames","type":"int","value":1},{"name":"fps","type":"float","value":10},{"name":"originX","type":"float","value":0},{"name":"originY","type":"float","value":0},{"name":"scaleX","type":"float","value":1},{"name":"scaleY","type":"float","value":1}]},{"id":275,"name":"spr_deco_mug_02","type":"prop","x":703,"y":471,"width":0,"height":0,"point":true,"visible":true,"rotation":0,"properties":[{"name":"layer","type":"string","value":"Assets_1"},{"name":"frames","type":"int","value":1},{"name":"fps","type":"float","value":10},{"name":"originX","type":"float","value":0},{"name":"originY","type":"float","value":0},{"name":"scaleX","type":"float","value":1},{"name":"scaleY","type":"float","value":1}]},{"id":276,"name":"spr_deco_mug_02","type":"prop","x":1203,"y":429,"width":0,"height":0,"point":true,"visible":true,"rotation":0,"properties":[{"name":"layer","type":"string","value":"Assets_1"},{"name":"frames","type":"int","value":1},{"name":"fps","type":"float","value":10},{"name":"originX","type":"float","value":0},{"name":"originY","type":"float","value":0},{"name":"scaleX","type":"float","value":1},{"name":"scaleY","type":"float","value":1}]},{"id":277,"name":"spr_deco_mug_01","type":"prop","x":1035,"y":396,"width":0,"height":0,"point":true,"visible":true,"rotation":0,"properties":[{"name":"layer","type":"string","value":"Assets_1"},{"name":"frames","type":"int","value":1},{"name":"fps","type":"float","value":10},{"name":"originX","type":"float","value":0},{"name":"originY","type":"float","value":0},{"name":"scaleX","type":"float","value":1},{"name":"scaleY","type":"float","value":1}]},{"id":278,"name":"spr_deco_book_02","type":"prop","x":852,"y":249,"width":0,"height":0,"point":true,"visible":true,"rotation":0,"properties":[{"name":"layer","type":"string","value":"Assets_1"},{"name":"frames","type":"int","value":1},{"name":"fps","type":"float","value":10},{"name":"originX","type":"float","value":0},{"name":"originY","type":"float","value":0},{"name":"scaleX","type":"float","value":1},{"name":"scaleY","type":"float","value":1}]},{"id":279,"name":"spr_deco_book_01","type":"prop","x":331,"y":543,"width":0,"height":0,"point":true,"visible":true,"rotation":0,"properties":[{"name":"layer","type":"string","value":"Assets_1"},{"name":"frames","type":"int","value":1},{"name":"fps","type":"float","value":10},{"name":"originX","type":"float","value":0},{"name":"originY","type":"float","value":0},{"name":"scaleX","type":"float","value":1},{"name":"scaleY","type":"float","value":1}]},{"id":280,"name":"spr_deco_minecart","type":"prop","x":869,"y":725,"width":0,"height":0,"point":true,"visible":true,"rotation":0,"properties":[{"name":"layer","type":"string","value":"Assets_1"},{"name":"frames","type":"int","value":1},{"name":"fps","type":"float","value":10},{"name":"originX","type":"float","value":0.5},{"name":"originY","type":"float","value":0.4782608695652174},{"name":"scaleX","type":"float","value":1},{"name":"scaleY","type":"float","value":1}]},{"id":281,"name":"spr_deco_minecart","type":"prop","x":885,"y":725,"width":0,"height":0,"point":true,"visible":true,"rotation":0,"properties":[{"name":"layer","type":"string","value":"Assets_1"},{"name":"frames","type":"int","value":1},{"name":"fps","type":"float","value":10},{"name":"originX","type":"float","value":0.5},{"name":"originY","type":"float","value":0.4782608695652174},{"name":"scaleX","type":"float","value":1},{"name":"scaleY","type":"float","value":1}]},{"id":282,"name":"spr_deco_minecart","type":"prop","x":821,"y":700,"width":0,"height":0,"point":true,"visible":true,"rotation":0,"properties":[{"name":"layer","type":"string","value":"Assets_1"},{"name":"frames","type":"int","value":1},{"name":"fps","type":"float","value":10},{"name":"originX","type":"float","value":0.5},{"name":"originY","type":"float","value":0.4782608695652174},{"name":"scaleX","type":"float","value":1},{"name":"scaleY","type":"float","value":1}]},{"id":283,"name":"spr_deco_minecart","type":"prop","x":815,"y":743,"width":0,"height":0,"point":true,"visible":true,"rotation":0,"properties":[{"name":"layer","type":"string","value":"Assets_1"},{"name":"frames","type":"int","value":1},{"name":"fps","type":"float","value":10},{"name":"originX","type":"float","value":0.5},{"name":"originY","type":"float","value":0.4782608695652174},{"name":"scaleX","type":"float","value":1},{"name":"scaleY","type":"float","value":1}]},{"id":284,"name":"spr_deco_minecart","type":"prop","x":804,"y":753,"width":0,"height":0,"point":true,"visible":true,"rotation":0,"properties":[{"name":"layer","type":"string","value":"Assets_1"},{"name":"frames","type":"int","value":1},{"name":"fps","type":"float","value":10},{"name":"originX","type":"float","value":0.5},{"name":"originY","type":"float","value":0.4782608695652174},{"name":"scaleX","type":"float","value":1},{"name":"scaleY","type":"float","value":1}]},{"id":285,"name":"spr_deco_minecart","type":"prop","x":662,"y":758,"width":0,"height":0,"point":true,"visible":true,"rotation":0,"properties":[{"name":"layer","type":"string","value":"Assets_1"},{"name":"frames","type":"int","value":1},{"name":"fps","type":"float","value":10},{"name":"originX","type":"float","value":0.5},{"name":"originY","type":"float","value":0.4782608695652174},{"name":"scaleX","type":"float","value":1},{"name":"scaleY","type":"float","value":1}]},{"id":286,"name":"spr_deco_minecart","type":"prop","x":676,"y":758,"width":0,"height":0,"point":true,"visible":true,"rotation":0,"properties":[{"name":"layer","type":"string","value":"Assets_1"},{"name":"frames","type":"int","value":1},{"name":"fps","type":"float","value":10},{"name":"originX","type":"float","value":0.5},{"name":"originY","type":"float","value":0.4782608695652174},{"name":"scaleX","type":"float","value":1},{"name":"scaleY","type":"float","value":1}]},{"id":287,"name":"spr_deco_minecart","type":"prop","x":634,"y":758,"width":0,"height":0,"point":true,"visible":true,"rotation":0,"properties":[{"name":"layer","type":"string","value":"Assets_1"},{"name":"frames","type":"int","value":1},{"name":"fps","type":"float","value":10},{"name":"originX","type":"float","value":0.5},{"name":"originY","type":"float","value":0.4782608695652174},{"name":"scaleX","type":"float","value":1},{"name":"scaleY","type":"float","value":1}]},{"id":288,"name":"spr_deco_minecart","type":"prop","x":648,"y":758,"width":0,"height":0,"point":true,"visible":true,"rotation":0,"properties":[{"name":"layer","type":"string","value":"Assets_1"},{"name":"frames","type":"int","value":1},{"name":"fps","type":"float","value":10},{"name":"originX","type":"float","value":0.5},{"name":"originY","type":"float","value":0.4782608695652174},{"name":"scaleX","type":"float","value":1},{"name":"scaleY","type":"float","value":1}]},{"id":289,"name":"rock","type":"prop","x":880,"y":712,"width":0,"height":0,"point":true,"visible":true,"rotation":0,"properties":[{"name":"layer","type":"string","value":"Assets_1"},{"name":"frames","type":"int","value":1},{"name":"fps","type":"float","value":10},{"name":"originX","type":"float","value":0},{"name":"originY","type":"float","value":0},{"name":"scaleX","type":"float","value":1},{"name":"scaleY","type":"float","value":1}]},{"id":290,"name":"spr_deco_charactershadow","type":"prop","x":902,"y":716,"width":0,"height":0,"point":true,"visible":true,"rotation":0,"properties":[{"name":"layer","type":"string","value":"Assets_1"},{"name":"frames","type":"int","value":1},{"name":"fps","type":"float","value":10},{"name":"originX","type":"float","value":0.5},{"name":"originY","type":"float","value":0.5},{"name":"scaleX","type":"float","value":1},{"name":"scaleY","type":"float","value":1}]},{"id":291,"name":"spr_deco_charactershadow","type":"prop","x":945,"y":702,"width":0,"height":0,"point":true,"visible":true,"rotation":0,"properties":[{"name":"layer","type":"string","value":"Assets_1"},{"name":"frames","type":"int","value":1},{"name":"fps","type":"float","value":10},{"name":"originX","type":"float","value":0.5},{"name":"originY","type":"float","value":0.5},{"name":"scaleX","type":"float","value":1},{"name":"scaleY","type":"float","value":1}]},{"id":292,"name":"rock","type":"prop","x":864,"y":712,"width":0,"height":0,"point":true,"visible":true,"rotation":0,"properties":[{"name":"layer","type":"string","value":"Assets_1"},{"name":"frames","type":"int","value":1},{"name":"fps","type":"float","value":10},{"name":"originX","type":"float","value":0},{"name":"originY","type":"float","value":0},{"name":"scaleX","type":"float","value":1},{"name":"scaleY","type":"float","value":1}]},{"id":293,"name":"rock","type":"prop","x":806,"y":702,"width":0,"height":0,"point":true,"visible":true,"rotation":0,"properties":[{"name":"layer","type":"string","value":"Assets_1"},{"name":"frames","type":"int","value":1},{"name":"fps","type":"float","value":10},{"name":"originX","type":"float","value":0},{"name":"originY","type":"float","value":0},{"name":"scaleX","type":"float","value":1},{"name":"scaleY","type":"float","value":1}]},{"id":294,"name":"rock","type":"prop","x":816,"y":688,"width":0,"height":0,"point":true,"visible":true,"rotation":0,"properties":[{"name":"layer","type":"string","value":"Assets_1"},{"name":"frames","type":"int","value":1},{"name":"fps","type":"float","value":10},{"name":"originX","type":"float","value":0},{"name":"originY","type":"float","value":0},{"name":"scaleX","type":"float","value":0.70000017},{"name":"scaleY","type":"float","value":0.70000017}]},{"id":295,"name":"rock","type":"prop","x":819,"y":689,"width":0,"height":0,"point":true,"visible":true,"rotation":0,"properties":[{"name":"layer","type":"string","value":"Assets_1"},{"name":"frames","type":"int","value":1},{"name":"fps","type":"float","value":10},{"name":"originX","type":"float","value":0},{"name":"originY","type":"float","value":0},{"name":"scaleX","type":"float","value":0.70000017},{"name":"scaleY","type":"float","value":0.70000017}]},{"id":296,"name":"rock","type":"prop","x":799,"y":741,"width":0,"height":0,"point":true,"visible":true,"rotation":0,"properties":[{"name":"layer","type":"string","value":"Assets_1"},{"name":"frames","type":"int","value":1},{"name":"fps","type":"float","value":10},{"name":"originX","type":"float","value":0},{"name":"originY","type":"float","value":0},{"name":"scaleX","type":"float","value":0.70000017},{"name":"scaleY","type":"float","value":0.70000017}]},{"id":297,"name":"rock","type":"prop","x":802,"y":742,"width":0,"height":0,"point":true,"visible":true,"rotation":0,"properties":[{"name":"layer","type":"string","value":"Assets_1"},{"name":"frames","type":"int","value":1},{"name":"fps","type":"float","value":10},{"name":"originX","type":"float","value":0},{"name":"originY","type":"float","value":0},{"name":"scaleX","type":"float","value":0.70000017},{"name":"scaleY","type":"float","value":0.70000017}]},{"id":298,"name":"rock","type":"prop","x":629,"y":747,"width":0,"height":0,"point":true,"visible":true,"rotation":0,"properties":[{"name":"layer","type":"string","value":"Assets_1"},{"name":"frames","type":"int","value":1},{"name":"fps","type":"float","value":10},{"name":"originX","type":"float","value":0},{"name":"originY","type":"float","value":0},{"name":"scaleX","type":"float","value":0.70000017},{"name":"scaleY","type":"float","value":0.70000017}]},{"id":299,"name":"rock","type":"prop","x":632,"y":748,"width":0,"height":0,"point":true,"visible":true,"rotation":0,"properties":[{"name":"layer","type":"string","value":"Assets_1"},{"name":"frames","type":"int","value":1},{"name":"fps","type":"float","value":10},{"name":"originX","type":"float","value":0},{"name":"originY","type":"float","value":0},{"name":"scaleX","type":"float","value":0.70000017},{"name":"scaleY","type":"float","value":0.70000017}]},{"id":300,"name":"rock","type":"prop","x":644,"y":746,"width":0,"height":0,"point":true,"visible":true,"rotation":0,"properties":[{"name":"layer","type":"string","value":"Assets_1"},{"name":"frames","type":"int","value":1},{"name":"fps","type":"float","value":10},{"name":"originX","type":"float","value":0},{"name":"originY","type":"float","value":0},{"name":"scaleX","type":"float","value":0.7500001},{"name":"scaleY","type":"float","value":0.7500001}]},{"id":301,"name":"spr_deco_ore_gold","type":"prop","x":676,"y":750,"width":0,"height":0,"point":true,"visible":true,"rotation":0,"properties":[{"name":"layer","type":"string","value":"Assets_1"},{"name":"frames","type":"int","value":1},{"name":"fps","type":"float","value":10},{"name":"originX","type":"float","value":0.5},{"name":"originY","type":"float","value":0.5},{"name":"scaleX","type":"float","value":1},{"name":"scaleY","type":"float","value":1}]},{"id":302,"name":"spr_deco_ore_coal","type":"prop","x":815,"y":735,"width":0,"height":0,"point":true,"visible":true,"rotation":0,"properties":[{"name":"layer","type":"string","value":"Assets_1"},{"name":"frames","type":"int","value":1},{"name":"fps","type":"float","value":10},{"name":"originX","type":"float","value":0.5},{"name":"originY","type":"float","value":0.5},{"name":"scaleX","type":"float","value":1},{"name":"scaleY","type":"float","value":1}]},{"id":303,"name":"spr_deco_ore_coal","type":"prop","x":936,"y":701,"width":0,"height":0,"point":true,"visible":true,"rotation":0,"properties":[{"name":"layer","type":"string","value":"Assets_1"},{"name":"frames","type":"int","value":1},{"name":"fps","type":"float","value":10},{"name":"originX","type":"float","value":0.5},{"name":"originY","type":"float","value":0.5},{"name":"scaleX","type":"float","value":1},{"name":"scaleY","type":"float","value":1}]},{"id":304,"name":"spr_deco_ore_coal","type":"prop","x":945,"y":701,"width":0,"height":0,"point":true,"visible":true,"rotation":0,"properties":[{"name":"layer","type":"string","value":"Assets_1"},{"name":"frames","type":"int","value":1},{"name":"fps","type":"float","value":10},{"name":"originX","type":"float","value":0.5},{"name":"originY","type":"float","value":0.5},{"name":"scaleX","type":"float","value":0.8000001},{"name":"scaleY","type":"float","value":0.8000001}]},{"id":305,"name":"spr_deco_ore_coal","type":"prop","x":902,"y":713,"width":0,"height":0,"point":true,"visible":true,"rotation":0,"properties":[{"name":"layer","type":"string","value":"Assets_1"},{"name":"frames","type":"int","value":1},{"name":"fps","type":"float","value":10},{"name":"originX","type":"float","value":0.5},{"name":"originY","type":"float","value":0.5},{"name":"scaleX","type":"float","value":1},{"name":"scaleY","type":"float","value":1}]},{"id":306,"name":"spr_deco_ore_coal","type":"prop","x":979,"y":744,"width":0,"height":0,"point":true,"visible":true,"rotation":0,"properties":[{"name":"layer","type":"string","value":"Assets_1"},{"name":"frames","type":"int","value":1},{"name":"fps","type":"float","value":10},{"name":"originX","type":"float","value":0.5},{"name":"originY","type":"float","value":0.5},{"name":"scaleX","type":"float","value":1},{"name":"scaleY","type":"float","value":1}]},{"id":307,"name":"spr_deco_minecart","type":"prop","x":955,"y":725,"width":0,"height":0,"point":true,"visible":true,"rotation":0,"properties":[{"name":"layer","type":"string","value":"Assets_1"},{"name":"frames","type":"int","value":1},{"name":"fps","type":"float","value":10},{"name":"originX","type":"float","value":0.5},{"name":"originY","type":"float","value":0.4782608695652174},{"name":"scaleX","type":"float","value":1},{"name":"scaleY","type":"float","value":1}]},{"id":308,"name":"spr_deco_minecart","type":"prop","x":971,"y":725,"width":0,"height":0,"point":true,"visible":true,"rotation":0,"properties":[{"name":"layer","type":"string","value":"Assets_1"},{"name":"frames","type":"int","value":1},{"name":"fps","type":"float","value":10},{"name":"originX","type":"float","value":0.5},{"name":"originY","type":"float","value":0.4782608695652174},{"name":"scaleX","type":"float","value":1},{"name":"scaleY","type":"float","value":1}]},{"id":309,"name":"rock","type":"prop","x":966,"y":712,"width":0,"height":0,"point":true,"visible":true,"rotation":0,"properties":[{"name":"layer","type":"string","value":"Assets_1"},{"name":"frames","type":"int","value":1},{"name":"fps","type":"float","value":10},{"name":"originX","type":"float","value":0},{"name":"originY","type":"float","value":0},{"name":"scaleX","type":"float","value":1},{"name":"scaleY","type":"float","value":1}]},{"id":310,"name":"spr_deco_charactershadow","type":"prop","x":773,"y":747,"width":0,"height":0,"point":true,"visible":true,"rotation":0,"properties":[{"name":"layer","type":"string","value":"Assets_1"},{"name":"frames","type":"int","value":1},{"name":"fps","type":"float","value":10},{"name":"originX","type":"float","value":0.5},{"name":"originY","type":"float","value":0.5},{"name":"scaleX","type":"float","value":1},{"name":"scaleY","type":"float","value":1}]},{"id":311,"name":"spr_deco_ore_gold","type":"prop","x":833,"y":659,"width":0,"height":0,"point":true,"visible":true,"rotation":0,"properties":[{"name":"layer","type":"string","value":"Assets_1"},{"name":"frames","type":"int","value":1},{"name":"fps","type":"float","value":10},{"name":"originX","type":"float","value":0.5},{"name":"originY","type":"float","value":0.5},{"name":"scaleX","type":"float","value":1},{"name":"scaleY","type":"float","value":1}]},{"id":312,"name":"spr_deco_shadow","type":"prop","x":797,"y":599,"width":0,"height":0,"point":true,"visible":true,"rotation":0,"properties":[{"name":"layer","type":"string","value":"Assets_1"},{"name":"frames","type":"int","value":1},{"name":"fps","type":"float","value":10},{"name":"originX","type":"float","value":0.5},{"name":"originY","type":"float","value":0.5},{"name":"scaleX","type":"float","value":1},{"name":"scaleY","type":"float","value":1}]},{"id":313,"name":"spr_deco_shadow","type":"prop","x":791,"y":635.99994,"width":0,"height":0,"point":true,"visible":true,"rotation":0,"properties":[{"name":"layer","type":"string","value":"Assets_1"},{"name":"frames","type":"int","value":1},{"name":"fps","type":"float","value":10},{"name":"originX","type":"float","value":0.5},{"name":"originY","type":"float","value":0.5},{"name":"scaleX","type":"float","value":1.7499999},{"name":"scaleY","type":"float","value":1}]},{"id":314,"name":"wood","type":"prop","x":783,"y":628.71027,"width":0,"height":0,"point":true,"visible":true,"rotation":44.502125,"properties":[{"name":"layer","type":"string","value":"Assets_1"},{"name":"frames","type":"int","value":1},{"name":"fps","type":"float","value":10},{"name":"originX","type":"float","value":0},{"name":"originY","type":"float","value":0},{"name":"scaleX","type":"float","value":1},{"name":"scaleY","type":"float","value":1}]},{"id":315,"name":"wood","type":"prop","x":787,"y":634.14264,"width":0,"height":0,"point":true,"visible":true,"rotation":44.502125,"properties":[{"name":"layer","type":"string","value":"Assets_1"},{"name":"frames","type":"int","value":1},{"name":"fps","type":"float","value":10},{"name":"originX","type":"float","value":0},{"name":"originY","type":"float","value":0},{"name":"scaleX","type":"float","value":1},{"name":"scaleY","type":"float","value":1}]},{"id":316,"name":"wood","type":"prop","x":779,"y":634.14264,"width":0,"height":0,"point":true,"visible":true,"rotation":44.502125,"properties":[{"name":"layer","type":"string","value":"Assets_1"},{"name":"frames","type":"int","value":1},{"name":"fps","type":"float","value":10},{"name":"originX","type":"float","value":0},{"name":"originY","type":"float","value":0},{"name":"scaleX","type":"float","value":1},{"name":"scaleY","type":"float","value":1}]},{"id":317,"name":"spr_deco_charactershadow","type":"prop","x":979,"y":521.5,"width":0,"height":0,"point":true,"visible":true,"rotation":0,"properties":[{"name":"layer","type":"string","value":"Assets_1"},{"name":"frames","type":"int","value":1},{"name":"fps","type":"float","value":10},{"name":"originX","type":"float","value":0.5},{"name":"originY","type":"float","value":0.5},{"name":"scaleX","type":"float","value":1},{"name":"scaleY","type":"float","value":1}]},{"id":318,"name":"egg","type":"prop","x":974,"y":510.5,"width":0,"height":0,"point":true,"visible":true,"rotation":0,"properties":[{"name":"layer","type":"string","value":"Assets_1"},{"name":"frames","type":"int","value":1},{"name":"fps","type":"float","value":10},{"name":"originX","type":"float","value":0},{"name":"originY","type":"float","value":0},{"name":"scaleX","type":"float","value":1},{"name":"scaleY","type":"float","value":1}]},{"id":319,"name":"spr_deco_coins","type":"prop","x":659,"y":672,"width":0,"height":0,"point":true,"visible":true,"rotation":0,"properties":[{"name":"layer","type":"string","value":"Assets_1"},{"name":"frames","type":"int","value":1},{"name":"fps","type":"float","value":10},{"name":"originX","type":"float","value":0.5},{"name":"originY","type":"float","value":0.45454545454545453},{"name":"scaleX","type":"float","value":1},{"name":"scaleY","type":"float","value":1}]},{"id":320,"name":"spr_deco_coins","type":"prop","x":1048,"y":607,"width":0,"height":0,"point":true,"visible":true,"rotation":0,"properties":[{"name":"layer","type":"string","value":"Assets_1"},{"name":"frames","type":"int","value":1},{"name":"fps","type":"float","value":10},{"name":"originX","type":"float","value":0.5},{"name":"originY","type":"float","value":0.45454545454545453},{"name":"scaleX","type":"float","value":1},{"name":"scaleY","type":"float","value":1}]},{"id":321,"name":"spr_deco_chest_02_closed","type":"prop","x":669,"y":675,"width":0,"height":0,"point":true,"visible":true,"rotation":0,"properties":[{"name":"layer","type":"string","value":"Assets_1"},{"name":"frames","type":"int","value":1},{"name":"fps","type":"float","value":10},{"name":"originX","type":"float","value":0.5},{"name":"originY","type":"float","value":0.47619047619047616},{"name":"scaleX","type":"float","value":1},{"name":"scaleY","type":"float","value":1}]},{"id":322,"name":"spr_deco_chest_01_open","type":"prop","x":1057,"y":607,"width":0,"height":0,"point":true,"visible":true,"rotation":0,"properties":[{"name":"layer","type":"string","value":"Assets_1"},{"name":"frames","type":"int","value":1},{"name":"fps","type":"float","value":10},{"name":"originX","type":"float","value":0.5},{"name":"originY","type":"float","value":0.48},{"name":"scaleX","type":"float","value":1},{"name":"scaleY","type":"float","value":1}]},{"id":323,"name":"spr_deco_chest_02_closed","type":"prop","x":1267,"y":50,"width":0,"height":0,"point":true,"visible":true,"rotation":0,"properties":[{"name":"layer","type":"string","value":"Assets_1"},{"name":"frames","type":"int","value":1},{"name":"fps","type":"float","value":10},{"name":"originX","type":"float","value":0.5},{"name":"originY","type":"float","value":0.47619047619047616},{"name":"scaleX","type":"float","value":1},{"name":"scaleY","type":"float","value":1}]},{"id":324,"name":"spr_deco_coins","type":"prop","x":1057,"y":603,"width":0,"height":0,"point":true,"visible":true,"rotation":0,"properties":[{"name":"layer","type":"string","value":"Assets_1"},{"name":"frames","type":"int","value":1},{"name":"fps","type":"float","value":10},{"name":"originX","type":"float","value":0.5},{"name":"originY","type":"float","value":0.45454545454545453},{"name":"scaleX","type":"float","value":0.78647214},{"name":"scaleY","type":"float","value":0.78647214}]},{"id":325,"name":"spr_deco_coin","type":"prop","x":678,"y":681,"width":0,"height":0,"point":true,"visible":true,"rotation":0,"properties":[{"name":"layer","type":"string","value":"Assets_1"},{"name":"frames","type":"int","value":1},{"name":"fps","type":"float","value":10},{"name":"originX","type":"float","value":0.5},{"name":"originY","type":"float","value":0.42857142857142855},{"name":"scaleX","type":"float","value":1},{"name":"scaleY","type":"float","value":1}]},{"id":326,"name":"spr_deco_coin","type":"prop","x":1066,"y":615,"width":0,"height":0,"point":true,"visible":true,"rotation":0,"properties":[{"name":"layer","type":"string","value":"Assets_1"},{"name":"frames","type":"int","value":1},{"name":"fps","type":"float","value":10},{"name":"originX","type":"float","value":0.5},{"name":"originY","type":"float","value":0.42857142857142855},{"name":"scaleX","type":"float","value":1},{"name":"scaleY","type":"float","value":1}]},{"id":327,"name":"spr_deco_coin","type":"prop","x":1073,"y":608,"width":0,"height":0,"point":true,"visible":true,"rotation":0,"properties":[{"name":"layer","type":"string","value":"Assets_1"},{"name":"frames","type":"int","value":1},{"name":"fps","type":"float","value":10},{"name":"originX","type":"float","value":0.5},{"name":"originY","type":"float","value":0.42857142857142855},{"name":"scaleX","type":"float","value":1},{"name":"scaleY","type":"float","value":1}]},{"id":328,"name":"spr_deco_coin","type":"prop","x":1259,"y":56,"width":0,"height":0,"point":true,"visible":true,"rotation":0,"properties":[{"name":"layer","type":"string","value":"Assets_1"},{"name":"frames","type":"int","value":1},{"name":"fps","type":"float","value":10},{"name":"originX","type":"float","value":0.5},{"name":"originY","type":"float","value":0.42857142857142855},{"name":"scaleX","type":"float","value":1},{"name":"scaleY","type":"float","value":1}]},{"id":329,"name":"spr_deco_coin","type":"prop","x":1276,"y":58,"width":0,"height":0,"point":true,"visible":true,"rotation":0,"properties":[{"name":"layer","type":"string","value":"Assets_1"},{"name":"frames","type":"int","value":1},{"name":"fps","type":"float","value":10},{"name":"originX","type":"float","value":0.5},{"name":"originY","type":"float","value":0.42857142857142855},{"name":"scaleX","type":"float","value":1},{"name":"scaleY","type":"float","value":1}]},{"id":330,"name":"spr_deco_coin","type":"prop","x":1273,"y":61,"width":0,"height":0,"point":true,"visible":true,"rotation":0,"properties":[{"name":"layer","type":"string","value":"Assets_1"},{"name":"frames","type":"int","value":1},{"name":"fps","type":"float","value":10},{"name":"originX","type":"float","value":0.5},{"name":"originY","type":"float","value":0.42857142857142855},{"name":"scaleX","type":"float","value":1},{"name":"scaleY","type":"float","value":1}]},{"id":331,"name":"spr_deco_coin","type":"prop","x":1317,"y":117,"width":0,"height":0,"point":true,"visible":true,"rotation":0,"properties":[{"name":"layer","type":"string","value":"Assets_1"},{"name":"frames","type":"int","value":1},{"name":"fps","type":"float","value":10},{"name":"originX","type":"float","value":0.5},{"name":"originY","type":"float","value":0.42857142857142855},{"name":"scaleX","type":"float","value":1},{"name":"scaleY","type":"float","value":1}]},{"id":332,"name":"spr_deco_chest_01_open","type":"prop","x":348,"y":720,"width":0,"height":0,"point":true,"visible":true,"rotation":0,"properties":[{"name":"layer","type":"string","value":"Assets_1"},{"name":"frames","type":"int","value":1},{"name":"fps","type":"float","value":10},{"name":"originX","type":"float","value":0.5},{"name":"originY","type":"float","value":0.48},{"name":"scaleX","type":"float","value":1},{"name":"scaleY","type":"float","value":1}]},{"id":333,"name":"spr_deco_coins","type":"prop","x":348,"y":716.2812,"width":0,"height":0,"point":true,"visible":true,"rotation":0,"properties":[{"name":"layer","type":"string","value":"Assets_1"},{"name":"frames","type":"int","value":1},{"name":"fps","type":"float","value":10},{"name":"originX","type":"float","value":0.5},{"name":"originY","type":"float","value":0.45454545454545453},{"name":"scaleX","type":"float","value":0.78647214},{"name":"scaleY","type":"float","value":0.78647214}]},{"id":334,"name":"spr_deco_chest_02_closed","type":"prop","x":78,"y":446,"width":0,"height":0,"point":true,"visible":true,"rotation":0,"properties":[{"name":"layer","type":"string","value":"Assets_1"},{"name":"frames","type":"int","value":1},{"name":"fps","type":"float","value":10},{"name":"originX","type":"float","value":0.5},{"name":"originY","type":"float","value":0.47619047619047616},{"name":"scaleX","type":"float","value":1},{"name":"scaleY","type":"float","value":1}]},{"id":335,"name":"spr_deco_bird_01","type":"prop","x":70,"y":482,"width":0,"height":0,"point":true,"visible":true,"rotation":0,"properties":[{"name":"layer","type":"string","value":"Assets_1"},{"name":"frames","type":"int","value":4},{"name":"fps","type":"float","value":8},{"name":"originX","type":"float","value":0.5},{"name":"originY","type":"float","value":1},{"name":"scaleX","type":"float","value":-1},{"name":"scaleY","type":"float","value":1}]},{"id":336,"name":"cauliflower_05","type":"prop","x":545,"y":481,"width":0,"height":0,"point":true,"visible":true,"rotation":0,"properties":[{"name":"layer","type":"string","value":"Assets_1"},{"name":"frames","type":"int","value":1},{"name":"fps","type":"float","value":10},{"name":"originX","type":"float","value":0},{"name":"originY","type":"float","value":0},{"name":"scaleX","type":"float","value":0.62500006},{"name":"scaleY","type":"float","value":0.62500006}]},{"id":337,"name":"cauliflower_05","type":"prop","x":552,"y":481,"width":0,"height":0,"point":true,"visible":true,"rotation":0,"properties":[{"name":"layer","type":"string","value":"Assets_1"},{"name":"frames","type":"int","value":1},{"name":"fps","type":"float","value":10},{"name":"originX","type":"float","value":0},{"name":"originY","type":"float","value":0},{"name":"scaleX","type":"float","value":0.62500006},{"name":"scaleY","type":"float","value":0.62500006}]},{"id":338,"name":"beetroot_00","type":"prop","x":561,"y":483,"width":0,"height":0,"point":true,"visible":true,"rotation":0,"properties":[{"name":"layer","type":"string","value":"Assets_1"},{"name":"frames","type":"int","value":1},{"name":"fps","type":"float","value":10},{"name":"originX","type":"float","value":0},{"name":"originY","type":"float","value":0},{"name":"scaleX","type":"float","value":1},{"name":"scaleY","type":"float","value":1}]},{"id":339,"name":"beetroot_00","type":"prop","x":565,"y":484,"width":0,"height":0,"point":true,"visible":true,"rotation":0,"properties":[{"name":"layer","type":"string","value":"Assets_1"},{"name":"frames","type":"int","value":1},{"name":"fps","type":"float","value":10},{"name":"originX","type":"float","value":0},{"name":"originY","type":"float","value":0},{"name":"scaleX","type":"float","value":1},{"name":"scaleY","type":"float","value":1}]},{"id":340,"name":"beetroot_00","type":"prop","x":569,"y":483,"width":0,"height":0,"point":true,"visible":true,"rotation":0,"properties":[{"name":"layer","type":"string","value":"Assets_1"},{"name":"frames","type":"int","value":1},{"name":"fps","type":"float","value":10},{"name":"originX","type":"float","value":0},{"name":"originY","type":"float","value":0},{"name":"scaleX","type":"float","value":1},{"name":"scaleY","type":"float","value":1}]},{"id":341,"name":"beetroot_00","type":"prop","x":563,"y":480,"width":0,"height":0,"point":true,"visible":true,"rotation":0,"properties":[{"name":"layer","type":"string","value":"Assets_1"},{"name":"frames","type":"int","value":1},{"name":"fps","type":"float","value":10},{"name":"originX","type":"float","value":0},{"name":"originY","type":"float","value":0},{"name":"scaleX","type":"float","value":1},{"name":"scaleY","type":"float","value":1}]},{"id":342,"name":"beetroot_00","type":"prop","x":567,"y":480,"width":0,"height":0,"point":true,"visible":true,"rotation":0,"properties":[{"name":"layer","type":"string","value":"Assets_1"},{"name":"frames","type":"int","value":1},{"name":"fps","type":"float","value":10},{"name":"originX","type":"float","value":0},{"name":"originY","type":"float","value":0},{"name":"scaleX","type":"float","value":1},{"name":"scaleY","type":"float","value":1}]},{"id":343,"name":"fish","type":"prop","x":790,"y":465,"width":0,"height":0,"point":true,"visible":true,"rotation":0,"properties":[{"name":"layer","type":"string","value":"Assets_1"},{"name":"frames","type":"int","value":1},{"name":"fps","type":"float","value":10},{"name":"originX","type":"float","value":0},{"name":"originY","type":"float","value":0},{"name":"scaleX","type":"float","value":1},{"name":"scaleY","type":"float","value":1}]},{"id":344,"name":"fish","type":"prop","x":785,"y":466,"width":0,"height":0,"point":true,"visible":true,"rotation":0,"properties":[{"name":"layer","type":"string","value":"Assets_1"},{"name":"frames","type":"int","value":1},{"name":"fps","type":"float","value":10},{"name":"originX","type":"float","value":0},{"name":"originY","type":"float","value":0},{"name":"scaleX","type":"float","value":1},{"name":"scaleY","type":"float","value":1}]},{"id":345,"name":"spr_deco_sword_floor","type":"prop","x":1067,"y":471,"width":0,"height":0,"point":true,"visible":true,"rotation":0,"properties":[{"name":"layer","type":"string","value":"Assets_1"},{"name":"frames","type":"int","value":1},{"name":"fps","type":"float","value":10},{"name":"originX","type":"float","value":0.5},{"name":"originY","type":"float","value":0.45454545454545453},{"name":"scaleX","type":"float","value":1},{"name":"scaleY","type":"float","value":1}]},{"id":346,"name":"spr_deco_sword_floor","type":"prop","x":1057,"y":471,"width":0,"height":0,"point":true,"visible":true,"rotation":0,"properties":[{"name":"layer","type":"string","value":"Assets_1"},{"name":"frames","type":"int","value":1},{"name":"fps","type":"float","value":10},{"name":"originX","type":"float","value":0.5},{"name":"originY","type":"float","value":0.45454545454545453},{"name":"scaleX","type":"float","value":1},{"name":"scaleY","type":"float","value":1}]},{"id":347,"name":"spr_deco_sword_floor","type":"prop","x":1047,"y":470,"width":0,"height":0,"point":true,"visible":true,"rotation":0,"properties":[{"name":"layer","type":"string","value":"Assets_1"},{"name":"frames","type":"int","value":1},{"name":"fps","type":"float","value":10},{"name":"originX","type":"float","value":0.5},{"name":"originY","type":"float","value":0.45454545454545453},{"name":"scaleX","type":"float","value":1},{"name":"scaleY","type":"float","value":1}]},{"id":348,"name":"spr_deco_shadow","type":"prop","x":1050,"y":470,"width":0,"height":0,"point":true,"visible":true,"rotation":0,"properties":[{"name":"layer","type":"string","value":"Assets_1"},{"name":"frames","type":"int","value":1},{"name":"fps","type":"float","value":10},{"name":"originX","type":"float","value":0.5},{"name":"originY","type":"float","value":0.5},{"name":"scaleX","type":"float","value":1},{"name":"scaleY","type":"float","value":1}]},{"id":349,"name":"chimneysmoke_04","type":"prop","x":531,"y":308,"width":0,"height":0,"point":true,"visible":true,"rotation":0,"properties":[{"name":"layer","type":"string","value":"Assets_1"},{"name":"frames","type":"int","value":30},{"name":"fps","type":"float","value":10},{"name":"originX","type":"float","value":0.5},{"name":"originY","type":"float","value":1},{"name":"scaleX","type":"float","value":1},{"name":"scaleY","type":"float","value":1}]},{"id":350,"name":"spr_deco_tree_01","type":"prop","x":427,"y":237,"width":0,"height":0,"point":true,"visible":true,"rotation":0,"properties":[{"name":"layer","type":"string","value":"Assets_1"},{"name":"frames","type":"int","value":4},{"name":"fps","type":"float","value":4},{"name":"originX","type":"float","value":0},{"name":"originY","type":"float","value":0},{"name":"scaleX","type":"float","value":1},{"name":"scaleY","type":"float","value":1}]},{"id":351,"name":"spr_deco_chest_02_closed","type":"prop","x":359,"y":215,"width":0,"height":0,"point":true,"visible":true,"rotation":0,"properties":[{"name":"layer","type":"string","value":"Assets_1"},{"name":"frames","type":"int","value":1},{"name":"fps","type":"float","value":10},{"name":"originX","type":"float","value":0.5},{"name":"originY","type":"float","value":0.47619047619047616},{"name":"scaleX","type":"float","value":1},{"name":"scaleY","type":"float","value":1}]},{"id":352,"name":"spr_deco_glint_01","type":"prop","x":345,"y":709,"width":0,"height":0,"point":true,"visible":true,"rotation":0,"properties":[{"name":"layer","type":"string","value":"Assets_1"},{"name":"frames","type":"int","value":6},{"name":"fps","type":"float","value":4},{"name":"originX","type":"float","value":0},{"name":"originY","type":"float","value":0},{"name":"scaleX","type":"float","value":1},{"name":"scaleY","type":"float","value":1}]},{"id":353,"name":"spr_deco_glint_02","type":"prop","x":1061,"y":607.5,"width":0,"height":0,"point":true,"visible":true,"rotation":0,"properties":[{"name":"layer","type":"string","value":"Assets_1"},{"name":"frames","type":"int","value":4},{"name":"fps","type":"float","value":5},{"name":"originX","type":"float","value":0},{"name":"originY","type":"float","value":0},{"name":"scaleX","type":"float","value":0.6428571},{"name":"scaleY","type":"float","value":0.6428571}]},{"id":354,"name":"spr_deco_glint_01","type":"prop","x":1051,"y":598,"width":0,"height":0,"point":true,"visible":true,"rotation":0,"properties":[{"name":"layer","type":"string","value":"Assets_1"},{"name":"frames","type":"int","value":6},{"name":"fps","type":"float","value":4},{"name":"originX","type":"float","value":0},{"name":"originY","type":"float","value":0},{"name":"scaleX","type":"float","value":0.75},{"name":"scaleY","type":"float","value":0.75}]},{"id":355,"name":"spr_deco_glint_01","type":"prop","x":672,"y":664,"width":0,"height":0,"point":true,"visible":true,"rotation":0,"properties":[{"name":"layer","type":"string","value":"Assets_1"},{"name":"frames","type":"int","value":6},{"name":"fps","type":"float","value":4},{"name":"originX","type":"float","value":0},{"name":"originY","type":"float","value":0},{"name":"scaleX","type":"float","value":1},{"name":"scaleY","type":"float","value":1}]},{"id":356,"name":"spr_deco_glint_01","type":"prop","x":354,"y":211,"width":0,"height":0,"point":true,"visible":true,"rotation":0,"properties":[{"name":"layer","type":"string","value":"Assets_1"},{"name":"frames","type":"int","value":6},{"name":"fps","type":"float","value":4},{"name":"originX","type":"float","value":0},{"name":"originY","type":"float","value":0},{"name":"scaleX","type":"float","value":1},{"name":"scaleY","type":"float","value":1}]},{"id":357,"name":"spr_deco_campfire","type":"prop","x":482,"y":287,"width":0,"height":0,"point":true,"visible":true,"rotation":0,"properties":[{"name":"layer","type":"string","value":"Assets_1"},{"name":"frames","type":"int","value":1},{"name":"fps","type":"float","value":10},{"name":"originX","type":"float","value":0.4782608695652174},{"name":"originY","type":"float","value":0.5},{"name":"scaleX","type":"float","value":1},{"name":"scaleY","type":"float","value":1}]},{"id":358,"name":"wood","type":"prop","x":474,"y":283,"width":0,"height":0,"point":true,"visible":true,"rotation":44.502125,"properties":[{"name":"layer","type":"string","value":"Assets_1"},{"name":"frames","type":"int","value":1},{"name":"fps","type":"float","value":10},{"name":"originX","type":"float","value":0},{"name":"originY","type":"float","value":0},{"name":"scaleX","type":"float","value":1},{"name":"scaleY","type":"float","value":1}]},{"id":359,"name":"spr_deco_fire_02","type":"prop","x":481,"y":283,"width":0,"height":0,"point":true,"visible":true,"rotation":0,"properties":[{"name":"layer","type":"string","value":"Assets_1"},{"name":"frames","type":"int","value":4},{"name":"fps","type":"float","value":10},{"name":"originX","type":"float","value":0.5},{"name":"originY","type":"float","value":1},{"name":"scaleX","type":"float","value":1},{"name":"scaleY","type":"float","value":1}]},{"id":360,"name":"spr_deco_shadow","type":"prop","x":979,"y":448,"width":0,"height":0,"point":true,"visible":true,"rotation":0,"properties":[{"name":"layer","type":"string","value":"Assets_1"},{"name":"frames","type":"int","value":1},{"name":"fps","type":"float","value":10},{"name":"originX","type":"float","value":0.5},{"name":"originY","type":"float","value":0.5},{"name":"scaleX","type":"float","value":1},{"name":"scaleY","type":"float","value":1}]},{"id":361,"name":"spr_deco_mug_01","type":"prop","x":22,"y":667,"width":0,"height":0,"point":true,"visible":true,"rotation":0,"properties":[{"name":"layer","type":"string","value":"Assets_1"},{"name":"frames","type":"int","value":1},{"name":"fps","type":"float","value":10},{"name":"originX","type":"float","value":0},{"name":"originY","type":"float","value":0},{"name":"scaleX","type":"float","value":1},{"name":"scaleY","type":"float","value":1}]},{"id":362,"name":"spr_deco_mug_01","type":"prop","x":101,"y":678,"width":0,"height":0,"point":true,"visible":true,"rotation":0,"properties":[{"name":"layer","type":"string","value":"Assets_1"},{"name":"frames","type":"int","value":1},{"name":"fps","type":"float","value":10},{"name":"originX","type":"float","value":0},{"name":"originY","type":"float","value":0},{"name":"scaleX","type":"float","value":1},{"name":"scaleY","type":"float","value":1}]},{"id":363,"name":"spr_deco_mug_01","type":"prop","x":182,"y":709,"width":0,"height":0,"point":true,"visible":true,"rotation":0,"properties":[{"name":"layer","type":"string","value":"Assets_1"},{"name":"frames","type":"int","value":1},{"name":"fps","type":"float","value":10},{"name":"originX","type":"float","value":0},{"name":"originY","type":"float","value":0},{"name":"scaleX","type":"float","value":1},{"name":"scaleY","type":"float","value":1}]},{"id":364,"name":"spr_deco_fire_01","type":"prop","x":184,"y":712,"width":0,"height":0,"point":true,"visible":true,"rotation":0,"properties":[{"name":"layer","type":"string","value":"Assets_1"},{"name":"frames","type":"int","value":4},{"name":"fps","type":"float","value":10},{"name":"originX","type":"float","value":0.4},{"name":"originY","type":"float","value":1},{"name":"scaleX","type":"float","value":1},{"name":"scaleY","type":"float","value":1}]},{"id":365,"name":"spr_deco_fire_01","type":"prop","x":24,"y":670,"width":0,"height":0,"point":true,"visible":true,"rotation":0,"properties":[{"name":"layer","type":"string","value":"Assets_1"},{"name":"frames","type":"int","value":4},{"name":"fps","type":"float","value":10},{"name":"originX","type":"float","value":0.4},{"name":"originY","type":"float","value":1},{"name":"scaleX","type":"float","value":1},{"name":"scaleY","type":"float","value":1}]},{"id":366,"name":"spr_deco_fire_01","type":"prop","x":103,"y":681,"width":0,"height":0,"point":true,"visible":true,"rotation":0,"properties":[{"name":"layer","type":"string","value":"Assets_1"},{"name":"frames","type":"int","value":4},{"name":"fps","type":"float","value":10},{"name":"originX","type":"float","value":0.4},{"name":"originY","type":"float","value":1},{"name":"scaleX","type":"float","value":1},{"name":"scaleY","type":"float","value":1}]},{"id":367,"name":"spr_deco_crate_01","type":"prop","x":40,"y":672,"width":0,"height":0,"point":true,"visible":true,"rotation":0,"properties":[{"name":"layer","type":"string","value":"Assets_1"},{"name":"frames","type":"int","value":1},{"name":"fps","type":"float","value":10},{"name":"originX","type":"float","value":0.5},{"name":"originY","type":"float","value":1},{"name":"scaleX","type":"float","value":1},{"name":"scaleY","type":"float","value":1}]},{"id":368,"name":"spr_deco_crate_01","type":"prop","x":56,"y":672,"width":0,"height":0,"point":true,"visible":true,"rotation":0,"properties":[{"name":"layer","type":"string","value":"Assets_1"},{"name":"frames","type":"int","value":1},{"name":"fps","type":"float","value":10},{"name":"originX","type":"float","value":0.5},{"name":"originY","type":"float","value":1},{"name":"scaleX","type":"float","value":1},{"name":"scaleY","type":"float","value":1}]},{"id":369,"name":"spr_deco_crate_01","type":"prop","x":48,"y":661,"width":0,"height":0,"point":true,"visible":true,"rotation":0,"properties":[{"name":"layer","type":"string","value":"Assets_1"},{"name":"frames","type":"int","value":1},{"name":"fps","type":"float","value":10},{"name":"originX","type":"float","value":0.5},{"name":"originY","type":"float","value":1},{"name":"scaleX","type":"float","value":1},{"name":"scaleY","type":"float","value":1}]},{"id":370,"name":"spr_deco_crate_02","type":"prop","x":24,"y":710,"width":0,"height":0,"point":true,"visible":true,"rotation":0,"properties":[{"name":"layer","type":"string","value":"Assets_1"},{"name":"frames","type":"int","value":1},{"name":"fps","type":"float","value":10},{"name":"originX","type":"float","value":0.5},{"name":"originY","type":"float","value":1},{"name":"scaleX","type":"float","value":1},{"name":"scaleY","type":"float","value":1}]},{"id":371,"name":"spr_deco_chest_02_closed","type":"prop","x":144,"y":704,"width":0,"height":0,"point":true,"visible":true,"rotation":0,"properties":[{"name":"layer","type":"string","value":"Assets_1"},{"name":"frames","type":"int","value":1},{"name":"fps","type":"float","value":10},{"name":"originX","type":"float","value":0.5},{"name":"originY","type":"float","value":0.47619047619047616},{"name":"scaleX","type":"float","value":1},{"name":"scaleY","type":"float","value":1}]},{"id":372,"name":"spr_deco_barrel_closed","type":"prop","x":6,"y":717,"width":0,"height":0,"point":true,"visible":true,"rotation":0,"properties":[{"name":"layer","type":"string","value":"Assets_1"},{"name":"frames","type":"int","value":1},{"name":"fps","type":"float","value":10},{"name":"originX","type":"float","value":0.46153846153846156},{"name":"originY","type":"float","value":0.5},{"name":"scaleX","type":"float","value":1},{"name":"scaleY","type":"float","value":1}]},{"id":373,"name":"spr_deco_barrel_closed","type":"prop","x":6,"y":725,"width":0,"height":0,"point":true,"visible":true,"rotation":0,"properties":[{"name":"layer","type":"string","value":"Assets_1"},{"name":"frames","type":"int","value":1},{"name":"fps","type":"float","value":10},{"name":"originX","type":"float","value":0.46153846153846156},{"name":"originY","type":"float","value":0.5},{"name":"scaleX","type":"float","value":1},{"name":"scaleY","type":"float","value":1}]},{"id":374,"name":"spr_deco_barrel_water","type":"prop","x":16,"y":709,"width":0,"height":0,"point":true,"visible":true,"rotation":0,"properties":[{"name":"layer","type":"string","value":"Assets_1"},{"name":"frames","type":"int","value":1},{"name":"fps","type":"float","value":10},{"name":"originX","type":"float","value":0.46153846153846156},{"name":"originY","type":"float","value":0.5},{"name":"scaleX","type":"float","value":1},{"name":"scaleY","type":"float","value":1}]},{"id":375,"name":"spr_deco_ore_gold","type":"prop","x":24,"y":692,"width":0,"height":0,"point":true,"visible":true,"rotation":0,"properties":[{"name":"layer","type":"string","value":"Assets_1"},{"name":"frames","type":"int","value":1},{"name":"fps","type":"float","value":10},{"name":"originX","type":"float","value":0.5},{"name":"originY","type":"float","value":0.5},{"name":"scaleX","type":"float","value":1},{"name":"scaleY","type":"float","value":1}]},{"id":376,"name":"spr_deco_ore_gold","type":"prop","x":86,"y":716,"width":0,"height":0,"point":true,"visible":true,"rotation":0,"properties":[{"name":"layer","type":"string","value":"Assets_1"},{"name":"frames","type":"int","value":1},{"name":"fps","type":"float","value":10},{"name":"originX","type":"float","value":0.5},{"name":"originY","type":"float","value":0.5},{"name":"scaleX","type":"float","value":0.65000004},{"name":"scaleY","type":"float","value":0.65000004}]},{"id":377,"name":"spr_deco_ore_gold","type":"prop","x":90,"y":718,"width":0,"height":0,"point":true,"visible":true,"rotation":0,"properties":[{"name":"layer","type":"string","value":"Assets_1"},{"name":"frames","type":"int","value":1},{"name":"fps","type":"float","value":10},{"name":"originX","type":"float","value":0.5},{"name":"originY","type":"float","value":0.5},{"name":"scaleX","type":"float","value":0.65000004},{"name":"scaleY","type":"float","value":0.65000004}]},{"id":378,"name":"spr_deco_ore_gold","type":"prop","x":102,"y":716.25,"width":0,"height":0,"point":true,"visible":true,"rotation":0,"properties":[{"name":"layer","type":"string","value":"Assets_1"},{"name":"frames","type":"int","value":1},{"name":"fps","type":"float","value":10},{"name":"originX","type":"float","value":0.5},{"name":"originY","type":"float","value":0.5},{"name":"scaleX","type":"float","value":0.65000004},{"name":"scaleY","type":"float","value":0.65000004}]},{"id":379,"name":"spr_deco_ore_gold","type":"prop","x":106,"y":718,"width":0,"height":0,"point":true,"visible":true,"rotation":0,"properties":[{"name":"layer","type":"string","value":"Assets_1"},{"name":"frames","type":"int","value":1},{"name":"fps","type":"float","value":10},{"name":"originX","type":"float","value":0.5},{"name":"originY","type":"float","value":0.5},{"name":"scaleX","type":"float","value":0.65000004},{"name":"scaleY","type":"float","value":0.65000004}]},{"id":380,"name":"spr_deco_tree_02","type":"prop","x":217.41835,"y":680.5,"width":0,"height":0,"point":true,"visible":true,"rotation":0,"properties":[{"name":"layer","type":"string","value":"Assets_1"},{"name":"frames","type":"int","value":4},{"name":"fps","type":"float","value":4},{"name":"originX","type":"float","value":0.5},{"name":"originY","type":"float","value":1},{"name":"scaleX","type":"float","value":-1},{"name":"scaleY","type":"float","value":1}]},{"id":381,"name":"spr_deco_tree_02","type":"prop","x":225.41835,"y":687.5,"width":0,"height":0,"point":true,"visible":true,"rotation":0,"properties":[{"name":"layer","type":"string","value":"Assets_1"},{"name":"frames","type":"int","value":4},{"name":"fps","type":"float","value":4},{"name":"originX","type":"float","value":0.5},{"name":"originY","type":"float","value":1},{"name":"scaleX","type":"float","value":-0.7973793},{"name":"scaleY","type":"float","value":0.7973793}]},{"id":382,"name":"spr_deco_tree_02","type":"prop","x":86,"y":641,"width":0,"height":0,"point":true,"visible":true,"rotation":0,"properties":[{"name":"layer","type":"string","value":"Assets_1"},{"name":"frames","type":"int","value":4},{"name":"fps","type":"float","value":4},{"name":"originX","type":"float","value":0.5},{"name":"originY","type":"float","value":1},{"name":"scaleX","type":"float","value":-1},{"name":"scaleY","type":"float","value":1}]},{"id":383,"name":"spr_deco_mushroom_blue_03","type":"prop","x":107,"y":690,"width":0,"height":0,"point":true,"visible":true,"rotation":0,"properties":[{"name":"layer","type":"string","value":"Assets_1"},{"name":"frames","type":"int","value":4},{"name":"fps","type":"float","value":4},{"name":"originX","type":"float","value":0.5},{"name":"originY","type":"float","value":0.5},{"name":"scaleX","type":"float","value":1},{"name":"scaleY","type":"float","value":1}]},{"id":384,"name":"spr_deco_mushroom_blue_02","type":"prop","x":73,"y":677,"width":0,"height":0,"point":true,"visible":true,"rotation":0,"properties":[{"name":"layer","type":"string","value":"Assets_1"},{"name":"frames","type":"int","value":4},{"name":"fps","type":"float","value":4},{"name":"originX","type":"float","value":0.5},{"name":"originY","type":"float","value":1},{"name":"scaleX","type":"float","value":1},{"name":"scaleY","type":"float","value":1}]},{"id":385,"name":"spr_deco_mushroom_blue_01","type":"prop","x":67,"y":682,"width":0,"height":0,"point":true,"visible":true,"rotation":0,"properties":[{"name":"layer","type":"string","value":"Assets_1"},{"name":"frames","type":"int","value":4},{"name":"fps","type":"float","value":4},{"name":"originX","type":"float","value":0.5},{"name":"originY","type":"float","value":1},{"name":"scaleX","type":"float","value":1},{"name":"scaleY","type":"float","value":1}]},{"id":386,"name":"spr_deco_mushroom_blue_01","type":"prop","x":71,"y":766,"width":0,"height":0,"point":true,"visible":true,"rotation":0,"properties":[{"name":"layer","type":"string","value":"Assets_1"},{"name":"frames","type":"int","value":4},{"name":"fps","type":"float","value":4},{"name":"originX","type":"float","value":0.5},{"name":"originY","type":"float","value":1},{"name":"scaleX","type":"float","value":1},{"name":"scaleY","type":"float","value":1}]},{"id":387,"name":"spr_deco_mushroom_red_01","type":"prop","x":935,"y":588,"width":0,"height":0,"point":true,"visible":true,"rotation":0,"properties":[{"name":"layer","type":"string","value":"Assets_1"},{"name":"frames","type":"int","value":4},{"name":"fps","type":"float","value":4},{"name":"originX","type":"float","value":0.5},{"name":"originY","type":"float","value":0.5},{"name":"scaleX","type":"float","value":1},{"name":"scaleY","type":"float","value":1}]},{"id":388,"name":"spr_deco_mushroom_red_01","type":"prop","x":962.25,"y":578.25,"width":0,"height":0,"point":true,"visible":true,"rotation":0,"properties":[{"name":"layer","type":"string","value":"Assets_1"},{"name":"frames","type":"int","value":4},{"name":"fps","type":"float","value":4},{"name":"originX","type":"float","value":0.5},{"name":"originY","type":"float","value":0.5},{"name":"scaleX","type":"float","value":1.21875},{"name":"scaleY","type":"float","value":1.21875}]},{"id":389,"name":"spr_deco_mushroom_red_01","type":"prop","x":968,"y":585,"width":0,"height":0,"point":true,"visible":true,"rotation":0,"properties":[{"name":"layer","type":"string","value":"Assets_1"},{"name":"frames","type":"int","value":4},{"name":"fps","type":"float","value":4},{"name":"originX","type":"float","value":0.5},{"name":"originY","type":"float","value":0.5},{"name":"scaleX","type":"float","value":0.87499994},{"name":"scaleY","type":"float","value":0.87499994}]},{"id":390,"name":"spr_deco_mushroom_red_01","type":"prop","x":102,"y":635,"width":0,"height":0,"point":true,"visible":true,"rotation":0,"properties":[{"name":"layer","type":"string","value":"Assets_1"},{"name":"frames","type":"int","value":4},{"name":"fps","type":"float","value":4},{"name":"originX","type":"float","value":0.5},{"name":"originY","type":"float","value":0.5},{"name":"scaleX","type":"float","value":1},{"name":"scaleY","type":"float","value":1}]},{"id":391,"name":"expression_alerted","type":"prop","x":919,"y":619,"width":0,"height":0,"point":true,"visible":true,"rotation":0,"properties":[{"name":"layer","type":"string","value":"Assets_1"},{"name":"frames","type":"int","value":1},{"name":"fps","type":"float","value":10},{"name":"originX","type":"float","value":0},{"name":"originY","type":"float","value":0},{"name":"scaleX","type":"float","value":1},{"name":"scaleY","type":"float","value":1}]},{"id":392,"name":"expression_attack","type":"prop","x":525,"y":541,"width":0,"height":0,"point":true,"visible":true,"rotation":0,"properties":[{"name":"layer","type":"string","value":"Assets_1"},{"name":"frames","type":"int","value":1},{"name":"fps","type":"float","value":10},{"name":"originX","type":"float","value":0},{"name":"originY","type":"float","value":0},{"name":"scaleX","type":"float","value":1},{"name":"scaleY","type":"float","value":1}]},{"id":393,"name":"expression_attack","type":"prop","x":521,"y":532,"width":0,"height":0,"point":true,"visible":true,"rotation":0,"properties":[{"name":"layer","type":"string","value":"Assets_1"},{"name":"frames","type":"int","value":1},{"name":"fps","type":"float","value":10},{"name":"originX","type":"float","value":0},{"name":"originY","type":"float","value":0},{"name":"scaleX","type":"float","value":1},{"name":"scaleY","type":"float","value":1}]},{"id":394,"name":"expression_attack","type":"prop","x":534,"y":545,"width":0,"height":0,"point":true,"visible":true,"rotation":0,"properties":[{"name":"layer","type":"string","value":"Assets_1"},{"name":"frames","type":"int","value":1},{"name":"fps","type":"float","value":10},{"name":"originX","type":"float","value":0},{"name":"originY","type":"float","value":0},{"name":"scaleX","type":"float","value":1},{"name":"scaleY","type":"float","value":1}]},{"id":395,"name":"expression_working","type":"prop","x":842,"y":690,"width":0,"height":0,"point":true,"visible":true,"rotation":0,"properties":[{"name":"layer","type":"string","value":"Assets_1"},{"name":"frames","type":"int","value":1},{"name":"fps","type":"float","value":10},{"name":"originX","type":"float","value":0},{"name":"originY","type":"float","value":0},{"name":"scaleX","type":"float","value":1},{"name":"scaleY","type":"float","value":1}]},{"id":396,"name":"expression_working","type":"prop","x":961,"y":726,"width":0,"height":0,"point":true,"visible":true,"rotation":0,"properties":[{"name":"layer","type":"string","value":"Assets_1"},{"name":"frames","type":"int","value":1},{"name":"fps","type":"float","value":10},{"name":"originX","type":"float","value":0},{"name":"originY","type":"float","value":0},{"name":"scaleX","type":"float","value":1},{"name":"scaleY","type":"float","value":1}]},{"id":397,"name":"expression_stress","type":"prop","x":933,"y":695,"width":0,"height":0,"point":true,"visible":true,"rotation":0,"properties":[{"name":"layer","type":"string","value":"Assets_1"},{"name":"frames","type":"int","value":1},{"name":"fps","type":"float","value":10},{"name":"originX","type":"float","value":0},{"name":"originY","type":"float","value":0},{"name":"scaleX","type":"float","value":1},{"name":"scaleY","type":"float","value":1}]},{"id":398,"name":"expression_chat","type":"prop","x":798,"y":695,"width":0,"height":0,"point":true,"visible":true,"rotation":0,"properties":[{"name":"layer","type":"string","value":"Assets_1"},{"name":"frames","type":"int","value":1},{"name":"fps","type":"float","value":10},{"name":"originX","type":"float","value":0},{"name":"originY","type":"float","value":0},{"name":"scaleX","type":"float","value":1},{"name":"scaleY","type":"float","value":1}]},{"id":399,"name":"expression_love","type":"prop","x":697,"y":643,"width":0,"height":0,"point":true,"visible":true,"rotation":0,"properties":[{"name":"layer","type":"string","value":"Assets_1"},{"name":"frames","type":"int","value":1},{"name":"fps","type":"float","value":10},{"name":"originX","type":"float","value":0},{"name":"originY","type":"float","value":0},{"name":"scaleX","type":"float","value":1},{"name":"scaleY","type":"float","value":1}]},{"id":400,"name":"expression_alerted","type":"prop","x":916,"y":617,"width":0,"height":0,"point":true,"visible":true,"rotation":0,"properties":[{"name":"layer","type":"string","value":"Assets_1"},{"name":"frames","type":"int","value":1},{"name":"fps","type":"float","value":10},{"name":"originX","type":"float","value":0},{"name":"originY","type":"float","value":0},{"name":"scaleX","type":"float","value":1},{"name":"scaleY","type":"float","value":1}]},{"id":401,"name":"expression_alerted","type":"prop","x":922,"y":617,"width":0,"height":0,"point":true,"visible":true,"rotation":0,"properties":[{"name":"layer","type":"string","value":"Assets_1"},{"name":"frames","type":"int","value":1},{"name":"fps","type":"float","value":10},{"name":"originX","type":"float","value":0},{"name":"originY","type":"float","value":0},{"name":"scaleX","type":"float","value":1},{"name":"scaleY","type":"float","value":1}]},{"id":402,"name":"happiness_01","type":"prop","x":970,"y":423,"width":0,"height":0,"point":true,"visible":true,"rotation":0,"properties":[{"name":"layer","type":"string","value":"Assets_1"},{"name":"frames","type":"int","value":1},{"name":"fps","type":"float","value":10},{"name":"originX","type":"float","value":0},{"name":"originY","type":"float","value":0},{"name":"scaleX","type":"float","value":1},{"name":"scaleY","type":"float","value":1}]},{"id":403,"name":"happiness_03","type":"prop","x":1047,"y":449,"width":0,"height":0,"point":true,"visible":true,"rotation":0,"properties":[{"name":"layer","type":"string","value":"Assets_1"},{"name":"frames","type":"int","value":1},{"name":"fps","type":"float","value":10},{"name":"originX","type":"float","value":0},{"name":"originY","type":"float","value":0},{"name":"scaleX","type":"float","value":1},{"name":"scaleY","type":"float","value":1}]},{"id":404,"name":"spr_deco_cow","type":"prop","x":906,"y":285,"width":0,"height":0,"point":true,"visible":true,"rotation":0,"properties":[{"name":"layer","type":"string","value":"Assets_1"},{"name":"frames","type":"int","value":4},{"name":"fps","type":"float","value":10},{"name":"originX","type":"float","value":0.5},{"name":"originY","type":"float","value":0.71875},{"name":"scaleX","type":"float","value":-1},{"name":"scaleY","type":"float","value":1}]},{"id":405,"name":"spr_deco_coracle","type":"prop","x":1341,"y":559,"width":0,"height":0,"point":true,"visible":true,"rotation":0,"properties":[{"name":"layer","type":"string","value":"Assets_1"},{"name":"frames","type":"int","value":4},{"name":"fps","type":"float","value":5},{"name":"originX","type":"float","value":0.5},{"name":"originY","type":"float","value":0.4864864864864865},{"name":"scaleX","type":"float","value":-1},{"name":"scaleY","type":"float","value":1}]},{"id":406,"name":"expression_attack","type":"prop","x":1338,"y":523,"width":0,"height":0,"point":true,"visible":true,"rotation":0,"properties":[{"name":"layer","type":"string","value":"Assets_1"},{"name":"frames","type":"int","value":1},{"name":"fps","type":"float","value":10},{"name":"originX","type":"float","value":0},{"name":"originY","type":"float","value":0},{"name":"scaleX","type":"float","value":1},{"name":"scaleY","type":"float","value":1}]},{"id":407,"name":"expression_attack","type":"prop","x":1347,"y":532,"width":0,"height":0,"point":true,"visible":true,"rotation":0,"properties":[{"name":"layer","type":"string","value":"Assets_1"},{"name":"frames","type":"int","value":1},{"name":"fps","type":"float","value":10},{"name":"originX","type":"float","value":0},{"name":"originY","type":"float","value":0},{"name":"scaleX","type":"float","value":1},{"name":"scaleY","type":"float","value":1}]},{"id":408,"name":"expression_attack","type":"prop","x":1332,"y":534,"width":0,"height":0,"point":true,"visible":true,"rotation":0,"properties":[{"name":"layer","type":"string","value":"Assets_1"},{"name":"frames","type":"int","value":1},{"name":"fps","type":"float","value":10},{"name":"originX","type":"float","value":0},{"name":"originY","type":"float","value":0},{"name":"scaleX","type":"float","value":1},{"name":"scaleY","type":"float","value":1}]},{"id":409,"name":"skeleton_attack","type":"prop","x":1167,"y":576,"width":0,"height":0,"point":true,"visible":true,"rotation":0,"properties":[{"name":"layer","type":"string","value":"Assets_1"},{"name":"frames","type":"int","value":7},{"name":"fps","type":"float","value":14},{"name":"originX","type":"float","value":0.5},{"name":"originY","type":"float","value":1},{"name":"scaleX","type":"float","value":1},{"name":"scaleY","type":"float","value":1}]},{"id":410,"name":"skeleton_hurt","type":"prop","x":1181,"y":541,"width":0,"height":0,"point":true,"visible":true,"rotation":0,"properties":[{"name":"layer","type":"string","value":"Assets_1"},{"name":"frames","type":"int","value":7},{"name":"fps","type":"float","value":14},{"name":"originX","type":"float","value":0.5},{"name":"originY","type":"float","value":1},{"name":"scaleX","type":"float","value":1},{"name":"scaleY","type":"float","value":1}]},{"id":411,"name":"skeleton_attack","type":"prop","x":1197,"y":519,"width":0,"height":0,"point":true,"visible":true,"rotation":0,"properties":[{"name":"layer","type":"string","value":"Assets_1"},{"name":"frames","type":"int","value":7},{"name":"fps","type":"float","value":14},{"name":"originX","type":"float","value":0.5},{"name":"originY","type":"float","value":1},{"name":"scaleX","type":"float","value":1},{"name":"scaleY","type":"float","value":1}]},{"id":412,"name":"spr_deco_charactershadow","type":"prop","x":1166,"y":568,"width":0,"height":0,"point":true,"visible":true,"rotation":0,"properties":[{"name":"layer","type":"string","value":"Assets_1"},{"name":"frames","type":"int","value":1},{"name":"fps","type":"float","value":10},{"name":"originX","type":"float","value":0.5},{"name":"originY","type":"float","value":0.5},{"name":"scaleX","type":"float","value":1},{"name":"scaleY","type":"float","value":1}]},{"id":413,"name":"spr_deco_charactershadow","type":"prop","x":1181,"y":532,"width":0,"height":0,"point":true,"visible":true,"rotation":0,"properties":[{"name":"layer","type":"string","value":"Assets_1"},{"name":"frames","type":"int","value":1},{"name":"fps","type":"float","value":10},{"name":"originX","type":"float","value":0.5},{"name":"originY","type":"float","value":0.5},{"name":"scaleX","type":"float","value":1},{"name":"scaleY","type":"float","value":1}]},{"id":414,"name":"spr_deco_shadow","type":"prop","x":477,"y":385,"width":0,"height":0,"point":true,"visible":true,"rotation":0,"properties":[{"name":"layer","type":"string","value":"Assets_1"},{"name":"frames","type":"int","value":1},{"name":"fps","type":"float","value":10},{"name":"originX","type":"float","value":0.5},{"name":"originY","type":"float","value":0.5},{"name":"scaleX","type":"float","value":1.7499999},{"name":"scaleY","type":"float","value":1}]},{"id":415,"name":"wood","type":"prop","x":469,"y":378,"width":0,"height":0,"point":true,"visible":true,"rotation":44.502125,"properties":[{"name":"layer","type":"string","value":"Assets_1"},{"name":"frames","type":"int","value":1},{"name":"fps","type":"float","value":10},{"name":"originX","type":"float","value":0},{"name":"originY","type":"float","value":0},{"name":"scaleX","type":"float","value":1},{"name":"scaleY","type":"float","value":1}]},{"id":416,"name":"wood","type":"prop","x":473,"y":383,"width":0,"height":0,"point":true,"visible":true,"rotation":44.502125,"properties":[{"name":"layer","type":"string","value":"Assets_1"},{"name":"frames","type":"int","value":1},{"name":"fps","type":"float","value":10},{"name":"originX","type":"float","value":0},{"name":"originY","type":"float","value":0},{"name":"scaleX","type":"float","value":1},{"name":"scaleY","type":"float","value":1}]},{"id":417,"name":"wood","type":"prop","x":465,"y":383.14273,"width":0,"height":0,"point":true,"visible":true,"rotation":44.502125,"properties":[{"name":"layer","type":"string","value":"Assets_1"},{"name":"frames","type":"int","value":1},{"name":"fps","type":"float","value":10},{"name":"originX","type":"float","value":0},{"name":"originY","type":"float","value":0},{"name":"scaleX","type":"float","value":1},{"name":"scaleY","type":"float","value":1}]},{"id":418,"name":"wood","type":"prop","x":411,"y":399.93243,"width":0,"height":0,"point":true,"visible":true,"rotation":44.502125,"properties":[{"name":"layer","type":"string","value":"Assets_1"},{"name":"frames","type":"int","value":1},{"name":"fps","type":"float","value":10},{"name":"originX","type":"float","value":0},{"name":"originY","type":"float","value":0},{"name":"scaleX","type":"float","value":1},{"name":"scaleY","type":"float","value":1}]},{"id":419,"name":"wood","type":"prop","x":486.2221,"y":386.15454,"width":0,"height":0,"point":true,"visible":true,"rotation":44.502125,"properties":[{"name":"layer","type":"string","value":"Assets_1"},{"name":"frames","type":"int","value":1},{"name":"fps","type":"float","value":10},{"name":"originX","type":"float","value":0},{"name":"originY","type":"float","value":0},{"name":"scaleX","type":"float","value":1},{"name":"scaleY","type":"float","value":1}]},{"id":420,"name":"wood","type":"prop","x":502,"y":370,"width":0,"height":0,"point":true,"visible":true,"rotation":0,"properties":[{"name":"layer","type":"string","value":"Assets_1"},{"name":"frames","type":"int","value":1},{"name":"fps","type":"float","value":10},{"name":"originX","type":"float","value":0},{"name":"originY","type":"float","value":0},{"name":"scaleX","type":"float","value":1},{"name":"scaleY","type":"float","value":1}]},{"id":421,"name":"milk","type":"prop","x":439,"y":496,"width":0,"height":0,"point":true,"visible":true,"rotation":0,"properties":[{"name":"layer","type":"string","value":"Assets_1"},{"name":"frames","type":"int","value":1},{"name":"fps","type":"float","value":10},{"name":"originX","type":"float","value":0},{"name":"originY","type":"float","value":0},{"name":"scaleX","type":"float","value":1},{"name":"scaleY","type":"float","value":1}]},{"id":422,"name":"cauliflower_05","type":"prop","x":163,"y":329,"width":0,"height":0,"point":true,"visible":true,"rotation":0,"properties":[{"name":"layer","type":"string","value":"Assets_1"},{"name":"frames","type":"int","value":1},{"name":"fps","type":"float","value":10},{"name":"originX","type":"float","value":0},{"name":"originY","type":"float","value":0},{"name":"scaleX","type":"float","value":1},{"name":"scaleY","type":"float","value":1}]},{"id":423,"name":"cabbage_05","type":"prop","x":116,"y":181,"width":0,"height":0,"point":true,"visible":true,"rotation":0,"properties":[{"name":"layer","type":"string","value":"Assets_1"},{"name":"frames","type":"int","value":1},{"name":"fps","type":"float","value":10},{"name":"originX","type":"float","value":0},{"name":"originY","type":"float","value":0},{"name":"scaleX","type":"float","value":1},{"name":"scaleY","type":"float","value":1}]},{"id":424,"name":"spr_deco_wool","type":"prop","x":974,"y":223,"width":0,"height":0,"point":true,"visible":true,"rotation":0,"properties":[{"name":"layer","type":"string","value":"Assets_1"},{"name":"frames","type":"int","value":1},{"name":"fps","type":"float","value":10},{"name":"originX","type":"float","value":0.5},{"name":"originY","type":"float","value":0.5},{"name":"scaleX","type":"float","value":1},{"name":"scaleY","type":"float","value":1}]},{"id":425,"name":"spr_deco_wool","type":"prop","x":958,"y":104,"width":0,"height":0,"point":true,"visible":true,"rotation":0,"properties":[{"name":"layer","type":"string","value":"Assets_1"},{"name":"frames","type":"int","value":1},{"name":"fps","type":"float","value":10},{"name":"originX","type":"float","value":0.5},{"name":"originY","type":"float","value":0.5},{"name":"scaleX","type":"float","value":1},{"name":"scaleY","type":"float","value":1}]},{"id":426,"name":"spr_deco_wool","type":"prop","x":950,"y":106,"width":0,"height":0,"point":true,"visible":true,"rotation":0,"properties":[{"name":"layer","type":"string","value":"Assets_1"},{"name":"frames","type":"int","value":1},{"name":"fps","type":"float","value":10},{"name":"originX","type":"float","value":0.5},{"name":"originY","type":"float","value":0.5},{"name":"scaleX","type":"float","value":1},{"name":"scaleY","type":"float","value":1}]},{"id":427,"name":"spr_deco_wool","type":"prop","x":954,"y":100,"width":0,"height":0,"point":true,"visible":true,"rotation":0,"properties":[{"name":"layer","type":"string","value":"Assets_1"},{"name":"frames","type":"int","value":1},{"name":"fps","type":"float","value":10},{"name":"originX","type":"float","value":0.5},{"name":"originY","type":"float","value":0.5},{"name":"scaleX","type":"float","value":1},{"name":"scaleY","type":"float","value":1}]},{"id":428,"name":"spr_deco_wool","type":"prop","x":957,"y":108,"width":0,"height":0,"point":true,"visible":true,"rotation":0,"properties":[{"name":"layer","type":"string","value":"Assets_1"},{"name":"frames","type":"int","value":1},{"name":"fps","type":"float","value":10},{"name":"originX","type":"float","value":0.5},{"name":"originY","type":"float","value":0.5},{"name":"scaleX","type":"float","value":1},{"name":"scaleY","type":"float","value":1}]},{"id":429,"name":"spr_deco_wool","type":"prop","x":930,"y":109,"width":0,"height":0,"point":true,"visible":true,"rotation":0,"properties":[{"name":"layer","type":"string","value":"Assets_1"},{"name":"frames","type":"int","value":1},{"name":"fps","type":"float","value":10},{"name":"originX","type":"float","value":0.5},{"name":"originY","type":"float","value":0.5},{"name":"scaleX","type":"float","value":1},{"name":"scaleY","type":"float","value":1}]},{"id":430,"name":"spr_deco_truffle","type":"prop","x":761,"y":433,"width":0,"height":0,"point":true,"visible":true,"rotation":0,"properties":[{"name":"layer","type":"string","value":"Assets_1"},{"name":"frames","type":"int","value":1},{"name":"fps","type":"float","value":10},{"name":"originX","type":"float","value":0.5},{"name":"originY","type":"float","value":0.5},{"name":"scaleX","type":"float","value":1},{"name":"scaleY","type":"float","value":1}]},{"id":431,"name":"spr_deco_truffle","type":"prop","x":745,"y":185,"width":0,"height":0,"point":true,"visible":true,"rotation":0,"properties":[{"name":"layer","type":"string","value":"Assets_1"},{"name":"frames","type":"int","value":1},{"name":"fps","type":"float","value":10},{"name":"originX","type":"float","value":0.5},{"name":"originY","type":"float","value":0.5},{"name":"scaleX","type":"float","value":1},{"name":"scaleY","type":"float","value":1}]},{"id":432,"name":"spr_deco_acron","type":"prop","x":737,"y":488,"width":0,"height":0,"point":true,"visible":true,"rotation":0,"properties":[{"name":"layer","type":"string","value":"Assets_1"},{"name":"frames","type":"int","value":1},{"name":"fps","type":"float","value":10},{"name":"originX","type":"float","value":0.5},{"name":"originY","type":"float","value":0.4444444444444444},{"name":"scaleX","type":"float","value":1},{"name":"scaleY","type":"float","value":1}]},{"id":433,"name":"spr_deco_acron","type":"prop","x":506,"y":271,"width":0,"height":0,"point":true,"visible":true,"rotation":0,"properties":[{"name":"layer","type":"string","value":"Assets_1"},{"name":"frames","type":"int","value":1},{"name":"fps","type":"float","value":10},{"name":"originX","type":"float","value":0.5},{"name":"originY","type":"float","value":0.4444444444444444},{"name":"scaleX","type":"float","value":1},{"name":"scaleY","type":"float","value":1}]},{"id":434,"name":"spr_deco_acron","type":"prop","x":310,"y":258,"width":0,"height":0,"point":true,"visible":true,"rotation":0,"properties":[{"name":"layer","type":"string","value":"Assets_1"},{"name":"frames","type":"int","value":1},{"name":"fps","type":"float","value":10},{"name":"originX","type":"float","value":0.5},{"name":"originY","type":"float","value":0.4444444444444444},{"name":"scaleX","type":"float","value":-1},{"name":"scaleY","type":"float","value":1}]},{"id":435,"name":"spr_deco_acron","type":"prop","x":288,"y":411,"width":0,"height":0,"point":true,"visible":true,"rotation":0,"properties":[{"name":"layer","type":"string","value":"Assets_1"},{"name":"frames","type":"int","value":1},{"name":"fps","type":"float","value":10},{"name":"originX","type":"float","value":0.5},{"name":"originY","type":"float","value":0.4444444444444444},{"name":"scaleX","type":"float","value":1},{"name":"scaleY","type":"float","value":1}]},{"id":436,"name":"spr_deco_acron","type":"prop","x":299,"y":373,"width":0,"height":0,"point":true,"visible":true,"rotation":0,"properties":[{"name":"layer","type":"string","value":"Assets_1"},{"name":"frames","type":"int","value":1},{"name":"fps","type":"float","value":10},{"name":"originX","type":"float","value":0.5},{"name":"originY","type":"float","value":0.4444444444444444},{"name":"scaleX","type":"float","value":-1},{"name":"scaleY","type":"float","value":1}]},{"id":437,"name":"spr_deco_acron","type":"prop","x":262,"y":382,"width":0,"height":0,"point":true,"visible":true,"rotation":0,"properties":[{"name":"layer","type":"string","value":"Assets_1"},{"name":"frames","type":"int","value":1},{"name":"fps","type":"float","value":10},{"name":"originX","type":"float","value":0.5},{"name":"originY","type":"float","value":0.4444444444444444},{"name":"scaleX","type":"float","value":1},{"name":"scaleY","type":"float","value":1}]},{"id":438,"name":"spr_deco_acron","type":"prop","x":448,"y":560,"width":0,"height":0,"point":true,"visible":true,"rotation":0,"properties":[{"name":"layer","type":"string","value":"Assets_1"},{"name":"frames","type":"int","value":1},{"name":"fps","type":"float","value":10},{"name":"originX","type":"float","value":0.5},{"name":"originY","type":"float","value":0.4444444444444444},{"name":"scaleX","type":"float","value":1},{"name":"scaleY","type":"float","value":1}]},{"id":439,"name":"pumpkin_05","type":"prop","x":207,"y":328,"width":0,"height":0,"point":true,"visible":true,"rotation":0,"properties":[{"name":"layer","type":"string","value":"Assets_1"},{"name":"frames","type":"int","value":1},{"name":"fps","type":"float","value":10},{"name":"originX","type":"float","value":0},{"name":"originY","type":"float","value":0},{"name":"scaleX","type":"float","value":1},{"name":"scaleY","type":"float","value":1}]},{"id":440,"name":"spr_deco_jar_02","type":"prop","x":678,"y":389,"width":0,"height":0,"point":true,"visible":true,"rotation":0,"properties":[{"name":"layer","type":"string","value":"Assets_1"},{"name":"frames","type":"int","value":1},{"name":"fps","type":"float","value":10},{"name":"originX","type":"float","value":0},{"name":"originY","type":"float","value":0},{"name":"scaleX","type":"float","value":1},{"name":"scaleY","type":"float","value":1}]},{"id":441,"name":"spr_deco_coins","type":"prop","x":673,"y":403,"width":0,"height":0,"point":true,"visible":true,"rotation":0,"properties":[{"name":"layer","type":"string","value":"Assets_1"},{"name":"frames","type":"int","value":1},{"name":"fps","type":"float","value":10},{"name":"originX","type":"float","value":0.5},{"name":"originY","type":"float","value":0.45454545454545453},{"name":"scaleX","type":"float","value":1},{"name":"scaleY","type":"float","value":1}]},{"id":442,"name":"spr_deco_chest_02_closed","type":"prop","x":680,"y":408,"width":0,"height":0,"point":true,"visible":true,"rotation":0,"properties":[{"name":"layer","type":"string","value":"Assets_1"},{"name":"frames","type":"int","value":1},{"name":"fps","type":"float","value":10},{"name":"originX","type":"float","value":0.5},{"name":"originY","type":"float","value":0.47619047619047616},{"name":"scaleX","type":"float","value":1},{"name":"scaleY","type":"float","value":1}]},{"id":443,"name":"spr_deco_glint_01","type":"prop","x":683,"y":397,"width":0,"height":0,"point":true,"visible":true,"rotation":0,"properties":[{"name":"layer","type":"string","value":"Assets_1"},{"name":"frames","type":"int","value":6},{"name":"fps","type":"float","value":4},{"name":"originX","type":"float","value":0},{"name":"originY","type":"float","value":0},{"name":"scaleX","type":"float","value":1},{"name":"scaleY","type":"float","value":1}]},{"id":444,"name":"spr_deco_charactershadow","type":"prop","x":571,"y":431,"width":0,"height":0,"point":true,"visible":true,"rotation":0,"properties":[{"name":"layer","type":"string","value":"Assets_1"},{"name":"frames","type":"int","value":1},{"name":"fps","type":"float","value":10},{"name":"originX","type":"float","value":0.5},{"name":"originY","type":"float","value":0.5},{"name":"scaleX","type":"float","value":1},{"name":"scaleY","type":"float","value":1}]},{"id":445,"name":"wood","type":"prop","x":579,"y":429.97318,"width":0,"height":0,"point":true,"visible":true,"rotation":-46.454937,"properties":[{"name":"layer","type":"string","value":"Assets_1"},{"name":"frames","type":"int","value":1},{"name":"fps","type":"float","value":10},{"name":"originX","type":"float","value":0},{"name":"originY","type":"float","value":0},{"name":"scaleX","type":"float","value":-1},{"name":"scaleY","type":"float","value":1}]},{"id":446,"name":"spr_deco_charactershadow","type":"prop","x":613,"y":415.88892,"width":0,"height":0,"point":true,"visible":true,"rotation":0,"properties":[{"name":"layer","type":"string","value":"Assets_1"},{"name":"frames","type":"int","value":1},{"name":"fps","type":"float","value":10},{"name":"originX","type":"float","value":0.5},{"name":"originY","type":"float","value":0.5},{"name":"scaleX","type":"float","value":1},{"name":"scaleY","type":"float","value":1}]},{"id":447,"name":"wood","type":"prop","x":605,"y":413.82135,"width":0,"height":0,"point":true,"visible":true,"rotation":44.502125,"properties":[{"name":"layer","type":"string","value":"Assets_1"},{"name":"frames","type":"int","value":1},{"name":"fps","type":"float","value":10},{"name":"originX","type":"float","value":0},{"name":"originY","type":"float","value":0},{"name":"scaleX","type":"float","value":1},{"name":"scaleY","type":"float","value":1}]}]},{"id":15,"name":"walls","type":"tilelayer","x":0,"y":0,"width":86,"height":48,"opacity":1,"visible":false,"data":[1,1,1,1,1,1,1,1,1,1,1,1,1,1,1,1,1,1,1,1,1,1,1,1,1,1,1,1,1,1,1,1,1,1,1,1,1,1,1,1,1,1,1,1,1,1,1,1,1,1,1,1,1,1,1,1,1,1,1,1,1,1,1,1,1,1,1,1,1,1,1,1,1,1,1,1,1,1,1,1,1,1,1,1,1,1,1,1,1,1,1,1,1,1,1,1,1,1,1,1,1,1,1,1,1,1,1,1,1,1,1,1,1,1,1,1,1,1,1,1,1,1,1,1,1,1,1,1,1,1,1,1,1,1,1,1,1,1,1,0,1,1,1,1,1,1,1,1,1,1,1,1,1,1,1,1,1,1,1,1,1,1,1,1,1,1,1,1,1,1,1,1,1,1,1,1,1,1,1,1,1,1,1,1,1,1,1,1,1,1,1,1,1,1,1,1,1,1,1,1,1,1,1,1,1,1,1,1,1,1,1,1,1,1,1,1,1,1,1,1,1,1,1,0,0,0,1,1,1,1,1,1,1,1,1,1,1,1,1,1,1,1,1,1,1,1,1,1,1,1,1,1,1,1,1,1,1,1,1,1,1,1,1,1,1,1,1,1,1,1,1,1,1,1,1,1,1,1,1,1,1,1,1,1,1,1,1,1,1,1,1,1,1,1,1,1,1,1,1,1,1,1,1,1,1,1,1,1,0,0,0,0,1,1,1,1,1,1,1,1,1,1,1,1,1,1,1,1,1,1,1,1,1,1,1,1,1,1,1,1,1,1,1,1,1,1,1,1,1,1,1,1,1,1,1,1,1,1,1,1,1,1,1,1,1,1,1,1,1,1,1,1,1,1,1,1,1,1,1,1,1,1,1,1,1,1,1,1,1,1,1,1,1,0,0,0,0,0,0,0,0,0,0,0,0,1,1,1,1,1,1,1,1,1,1,1,1,1,1,1,1,1,1,1,1,1,1,1,1,1,1,1,1,1,1,1,1,1,1,1,1,1,1,1,1,1,1,1,1,1,1,1,1,1,1,1,1,1,1,1,1,1,1,1,1,1,1,1,1,1,1,1,1,1,1,1,1,1,0,0,0,0,0,0,0,0,0,0,0,0,0,0,1,1,1,1,1,1,1,1,1,1,1,1,1,1,1,1,1,1,1,1,1,1,1,1,1,1,1,1,1,1,1,1,1,1,1,1,1,1,1,1,1,1,1,1,1,1,1,1,1,1,1,1,1,1,1,1,1,1,1,1,1,1,1,1,1,1,1,1,0,0,0,0,0,1,0,1,1,1,1,1,0,0,0,0,0,0,1,1,1,1,1,1,1,1,1,1,1,1,1,1,1,1,1,1,1,1,1,1,1,1,1,1,1,1,1,1,1,1,1,1,1,1,1,1,1,1,1,1,1,1,1,1,1,1,1,1,1,1,1,1,1,1,1,1,1,1,1,1,1,1,1,1,1,1,1,0,0,0,0,0,1,1,1,1,1,1,1,0,0,0,0,0,0,1,1,1,1,1,1,1,1,1,1,1,1,1,1,1,1,1,1,1,1,1,1,1,1,1,1,1,1,1,1,1,1,1,1,1,1,1,1,1,1,1,1,1,1,1,1,1,1,1,1,1,1,1,1,1,1,1,1,1,1,1,1,1,1,1,1,1,1,0,1,0,0,0,1,1,1,1,1,1,0,0,0,0,0,1,1,1,1,1,1,1,1,1,1,1,1,1,1,1,1,1,1,1,1,1,1,1,1,1,1,1,1,1,1,1,1,1,1,1,1,1,1,1,1,1,1,1,1,1,1,1,1,1,1,1,1,1,1,1,1,1,1,1,1,1,1,1,1,1,1,1,1,1,1,1,0,1,1,0,1,1,1,1,1,1,0,0,0,0,0,1,1,1,1,1,1,1,1,1,1,1,1,1,1,1,1,1,1,1,1,1,1,1,1,1,1,1,1,1,1,1,1,1,1,1,1,1,1,1,1,1,1,1,1,1,1,1,1,1,1,1,1,1,1,1,1,1,1,1,1,1,1,1,1,1,1,1,1,1,0,0,0,0,0,0,0,0,0,0,0,0,0,0,1,0,0,1,1,1,1,1,1,1,1,1,1,1,1,1,1,1,1,1,1,1,1,1,1,1,1,1,1,1,1,1,1,1,1,1,1,1,1,1,1,1,1,1,1,1,1,1,1,1,1,1,1,1,1,1,1,1,1,1,1,1,1,1,1,1,1,0,0,0,1,1,0,0,0,0,0,1,0,1,1,1,1,0,0,0,0,0,0,0,0,0,1,1,1,1,1,1,1,1,1,1,1,1,1,1,1,1,1,1,1,1,1,1,1,1,1,1,1,1,0,0,0,1,1,1,1,1,1,1,1,1,1,1,1,1,1,1,1,1,1,1,1,1,1,1,1,1,1,1,1,0,0,0,0,0,0,0,0,0,0,0,1,0,1,1,1,1,1,1,1,0,0,0,0,0,0,0,1,1,1,1,1,1,1,1,1,1,1,1,1,1,1,1,1,1,1,1,1,1,1,1,1,1,1,1,0,0,0,0,0,1,1,1,1,1,1,1,1,1,1,1,1,1,1,1,1,1,1,1,1,1,1,1,1,1,1,0,0,0,0,0,0,1,0,0,0,0,0,0,1,1,1,1,1,1,1,0,0,0,0,0,1,0,1,1,1,1,1,1,1,1,1,1,1,1,1,1,1,1,1,1,1,1,1,1,1,1,1,1,1,1,0,0,1,0,1,1,1,1,1,1,1,1,1,1,1,1,1,1,1,1,1,1,1,0,0,1,1,1,1,1,1,0,0,0,1,1,1,1,0,0,0,0,0,0,1,1,1,1,1,1,1,1,1,0,0,0,1,1,1,1,1,1,1,1,1,1,1,1,1,1,1,1,1,1,1,1,1,1,1,1,1,1,1,1,1,1,1,0,1,1,1,1,1,1,1,1,1,1,1,1,1,1,1,1,1,1,1,1,1,0,1,0,0,1,0,0,0,0,0,0,1,1,1,1,0,1,1,0,0,0,1,1,1,1,1,1,1,0,0,0,0,0,0,0,1,1,1,1,1,1,1,1,1,1,1,1,1,1,1,1,1,1,1,1,1,1,1,1,1,1,1,1,1,0,1,1,1,1,1,1,1,1,1,1,1,1,1,1,1,1,1,0,0,1,0,0,0,0,0,0,1,1,0,0,0,1,1,1,1,1,0,1,1,1,0,0,0,0,0,0,0,0,0,1,0,1,0,1,1,0,1,1,1,1,1,1,1,1,1,1,1,1,1,1,1,1,1,1,1,1,1,1,1,1,1,1,1,1,1,0,1,1,1,1,1,1,1,1,1,1,1,1,1,1,1,1,1,0,0,0,0,0,0,0,0,0,0,1,0,0,1,1,1,1,1,1,0,1,1,1,1,1,0,0,0,0,0,0,1,0,0,0,0,0,0,0,0,0,0,0,1,1,1,1,1,1,1,1,1,1,1,1,1,1,1,1,1,1,1,1,1,1,1,1,1,0,1,1,1,1,1,1,1,1,1,1,1,1,1,1,1,1,1,0,0,0,0,0,0,0,0,0,0,0,0,0,1,1,1,1,1,1,0,0,1,1,1,1,1,1,0,0,0,0,0,0,0,0,0,0,0,0,0,0,1,0,0,1,1,1,1,1,1,1,1,1,1,1,1,1,1,1,1,1,1,1,1,1,1,1,1,0,1,1,1,1,1,1,1,1,1,1,1,1,1,1,1,1,1,0,0,0,0,0,0,0,1,1,1,1,1,0,1,1,1,1,1,1,0,0,0,0,1,1,0,0,1,0,0,0,0,0,0,0,0,0,1,0,1,1,0,0,0,1,1,1,1,1,1,1,1,1,1,1,1,1,1,1,1,1,1,1,1,1,1,1,0,0,0,1,1,1,1,1,1,1,1,1,0,0,1,0,1,0,0,0,0,0,0,0,0,0,1,1,1,1,1,0,0,0,0,0,0,1,1,0,0,0,0,0,0,0,0,1,0,0,0,0,0,0,0,0,0,1,1,1,1,0,0,1,1,1,1,1,1,1,1,1,1,1,1,1,1,1,1,1,1,1,1,1,1,1,0,0,0,0,0,1,1,1,0,0,0,0,0,0,1,0,0,0,0,0,0,0,0,0,1,0,1,1,1,1,1,0,0,0,0,0,0,0,0,0,0,0,0,0,0,0,0,0,1,1,0,1,0,1,0,1,1,1,1,1,1,0,0,0,0,1,1,1,1,1,1,1,1,1,1,1,1,1,1,1,1,1,1,1,1,1,0,0,0,0,0,0,0,0,0,0,0,0,0,1,1,1,1,0,0,0,0,0,0,0,0,0,1,1,1,1,1,0,0,0,0,0,0,1,0,0,0,0,0,1,0,0,0,0,0,0,1,1,1,1,1,1,1,1,1,1,1,0,0,0,0,1,1,1,1,1,1,1,1,1,1,1,1,1,1,1,1,1,1,1,1,1,0,0,0,0,1,0,0,0,0,0,0,0,0,0,0,0,1,1,0,0,0,0,0,0,0,0,1,1,1,1,1,0,0,0,0,0,0,1,0,0,0,0,0,0,0,0,0,1,1,1,1,1,1,1,1,1,1,1,1,1,1,0,1,0,0,1,1,1,1,1,1,1,1,1,1,1,1,1,1,1,1,1,1,1,1,1,1,0,1,1,1,0,0,1,1,0,0,0,0,0,0,0,0,1,0,0,0,0,0,0,0,0,0,0,0,0,1,0,0,0,1,1,1,1,1,0,0,0,0,0,0,1,0,1,1,1,1,1,1,1,1,1,1,1,1,1,1,1,0,0,0,0,1,1,1,1,1,1,1,1,1,1,1,1,1,1,1,1,1,1,1,1,1,1,1,1,1,1,1,1,1,0,0,0,0,0,0,1,1,1,1,0,1,1,1,1,1,0,0,0,0,0,0,0,0,1,1,1,1,1,1,1,1,1,0,0,1,1,1,1,1,1,1,1,1,1,1,1,1,1,0,0,1,0,0,0,0,0,0,0,0,1,1,1,1,1,1,1,1,1,1,1,1,1,1,1,1,1,1,1,1,1,1,1,1,1,1,1,1,1,1,0,1,1,1,1,1,1,1,0,0,1,1,1,1,1,0,0,0,0,1,1,1,1,1,1,1,1,1,1,0,0,1,1,1,1,1,1,1,1,1,1,1,1,1,1,0,0,0,0,0,0,1,1,1,1,0,0,1,1,1,1,1,1,1,1,1,1,1,1,1,1,1,1,1,1,1,1,1,1,1,1,1,1,1,1,1,0,1,1,1,1,1,0,0,0,0,1,1,1,1,1,0,0,0,1,1,1,1,1,1,1,1,1,1,1,0,0,1,1,1,1,1,1,1,1,1,1,1,1,1,1,0,0,1,0,0,0,1,1,1,1,0,0,0,1,1,1,1,1,1,1,1,1,1,1,1,1,1,1,1,1,1,1,1,1,1,1,1,1,1,1,1,0,1,1,1,1,1,0,0,0,0,1,1,1,1,1,1,1,1,1,1,1,1,1,1,1,1,1,1,1,0,0,1,1,1,1,1,1,1,1,1,1,1,1,0,0,0,0,0,0,0,0,1,1,1,1,0,0,0,1,1,1,0,1,1,1,1,1,1,1,1,1,1,1,1,1,1,1,1,1,1,1,1,1,1,1,1,0,1,1,1,1,0,0,0,0,0,1,1,1,1,1,0,0,0,1,1,1,1,1,1,1,1,1,0,0,0,0,0,0,0,0,0,0,0,1,1,1,1,1,0,0,0,0,0,0,0,0,1,1,1,1,0,0,0,1,1,1,0,1,1,1,1,1,1,1,1,1,1,1,1,1,1,1,1,1,1,1,1,1,1,1,1,0,1,1,1,1,0,0,0,0,0,0,0,0,0,0,0,0,0,0,1,0,0,0,0,0,0,0,0,0,0,0,0,0,0,0,0,0,0,0,0,1,1,1,0,0,0,0,0,0,1,0,0,0,0,0,1,0,0,0,1,1,0,1,1,1,1,1,1,1,1,1,1,1,1,1,1,1,1,1,1,1,1,1,1,1,0,0,0,0,0,0,0,1,0,0,0,0,0,0,0,0,0,0,0,0,0,0,0,0,0,0,0,0,0,0,0,0,0,0,0,0,0,0,1,1,1,1,0,0,0,0,0,0,0,0,1,0,0,0,0,0,0,0,0,0,1,1,0,1,1,1,1,1,1,1,1,1,1,1,1,1,1,1,1,1,1,1,0,0,0,0,0,0,0,0,0,0,0,0,0,0,0,0,0,0,0,0,0,0,0,0,0,0,0,0,0,0,0,0,0,0,0,0,1,0,0,0,0,1,1,1,1,1,1,0,0,0,0,0,0,0,0,0,0,1,0,0,0,0,0,0,0,0,0,0,1,1,1,1,1,1,1,1,1,1,1,1,1,1,1,1,0,0,0,0,0,1,1,1,1,1,1,1,1,1,1,1,0,0,0,0,0,0,0,0,0,0,1,0,1,1,1,1,1,0,0,0,0,0,0,0,0,1,0,1,1,1,1,1,1,0,0,0,0,0,0,0,0,0,0,0,0,0,0,0,0,0,1,1,0,1,1,1,1,1,1,1,1,1,1,1,1,1,1,1,1,1,0,0,0,0,0,1,1,1,1,1,1,1,1,1,1,1,0,1,1,1,1,1,1,1,1,1,1,1,1,1,1,1,1,0,0,1,1,1,1,0,0,0,0,1,1,1,1,1,1,0,0,0,0,0,0,0,0,0,0,0,0,0,0,0,0,0,1,1,0,1,1,1,1,1,1,1,1,1,1,1,1,1,1,1,1,1,0,0,0,0,0,1,1,1,1,1,1,1,1,1,1,1,0,1,1,1,1,1,1,1,1,1,1,1,1,1,1,1,1,0,0,0,0,0,0,0,0,0,0,0,0,0,0,0,0,1,1,0,0,0,0,0,0,0,0,0,0,0,0,0,1,1,1,1,0,1,1,1,1,1,1,1,1,1,1,1,1,1,1,1,1,1,1,1,1,1,1,1,1,1,1,1,1,1,1,1,1,1,0,1,1,1,1,1,1,1,1,1,1,1,1,1,1,1,1,0,0,0,0,0,0,0,0,0,0,0,0,0,0,0,0,0,0,0,0,0,0,0,0,0,0,0,0,0,0,1,1,1,1,1,1,1,1,1,1,1,1,1,1,1,1,1,1,1,1,1,1,1,1,1,1,1,1,1,1,1,1,1,1,1,1,1,1,1,0,0,0,1,1,1,1,1,1,1,1,0,1,1,1,1,1,1,0,0,0,0,0,0,1,0,1,0,1,0,0,0,0,1,0,0,0,1,0,0,0,0,0,0,0,0,1,1,1,1,1,1,1,1,1,1,1,1,1,1,1,1,1,1,1,1,1,1,1,1,1,1,1,1,1,1,1,1,1,1,1,0,0,0,0,0,0,0,0,1,1,1,1,1,1,1,1,0,0,0,0,0,0,0,0,0,0,0,0,0,0,1,1,1,1,1,1,0,1,1,1,0,0,0,0,0,0,0,0,0,0,1,1,1,1,1,1,1,1,1,1,1,1,1,1,1,1,1,1,1,1,1,1,1,1,1,1,1,1,1,1,1,1,1,1,1,1,1,1,1,1,1,1,1,1,1,1,1,1,1,1,1,1,1,1,1,1,1,0,1,0,0,0,0,0,0,1,1,1,1,1,1,1,1,1,1,1,1,1,1,1,1,1,1,1,1,1,1,1,1,1,1,1,1,1,1,1,1,1,1,1,1,1,1,1,1,1,1,1,1,1,1,1,1,1,1,1,1,1,1,1,1,1,1,1,1,1,1,1,1,1,1,1,1,1,1,1,1,1,1,1,1,1,1,1,1,1,1,0,0,0,0,1,1,1,1,1,1,1,1,1,1,1,1,1,1,1,1,1,1,1,1,1,1,1,1,1,1,1,1,1,1,1,1,1,1,1,1,1,1,1,1,1,1,1,1,1,1,1,1,1,1,1,1,1,1,1,1,1,1,1,1,1,1,1,1,1,1,1,1,1,1,1,1,1,1,1,1,1,1,1,1,1,1,1,0,0,0,1,1,1,1,1,1,1,1,1,1,1,1,1,1,1,1,1,1,1,1,1,1,1,1,1,1,1,1,1,1,1,1,1,1,1,1,1,1,1,1,1,1,1,1,1,1,1,1,1,1,1,1,1,1,1,1,1,1,1,1,1,1,1,1,1,1,1,1,1,1,1,1,1,1,1,1,1,1,1,1,1,1,1,0,0,0,0,1,1,1,1,1,1,1,1,1,1,1,1,1,1,1,1,1,1,1,1,1,1,1,1,1,1,1,1,1,1,1,1,1,1,1,1,1,1,1,1,1,1,1,1,1,1,1,1,1,1,1,1,1,1,1,1,1,1,1,1,1,1,1,1,1,1,1,1,1,1,1,1,1,1,1,1,1,1,1,1,1,1,1,0,0,0,0,1,1,0,0,0,0,0,0,1,1,1,1,1,1,1,1,1,1,1,1,1,1,1,1,1,1,1,1,1,1,1,1,1,1,1,1,1,1,1,1,1,1,1,1,1,1,1,1,1,1,1,1,1,1,1,1,1,1,1,1,1,1,1,1,1,1,1,1,1,1,1,1,1,1,1,1,1,1,1,1,1,1,0,0,0,0,0,0,0,0,0,0,0,0,0,1,1,1,1,1,1,1,1,1,1,1,1,1,1,1,1,1,1,1,1,1,1,1,1,1,1,1,1,1,1,1,1,1,1,1,1,1,1,1,1,1,1,1,1,1,1,1,1,1,1,1,1,1,1,1,1,1,1,1,1,1,1,1,1,1,1,1,1,1,1,1,1,0,0,0,0,0,1,1,0,0,0,1,1,0,0,0,1,1,1,1,1,1,1,1,1,1,1,1,1,1,1,1,1,1,1,1,1,1,1,1,1,1,1,1,1,1,1,1,1,1,1,1,1,1,1,1,1,1,1,1,1,1,1,1,1,1,1,1,1,1,1,1,1,1,1,1,1,1,1,0,0,0,0,0,0,0,0,0,0,0,0,0,0,0,0,0,0,0,0,0,0,0,0,1,1,1,1,1,1,1,1,1,1,1,1,1,1,1,1,1,1,1,1,1,1,1,1,1,1,1,1,1,1,1,1,1,1,1,1,1,1,1,1,1,1,1,1,1,1,1,1,1,1,1,1,1,1,1,1,1,1,1,1,1,1,1,0,0,0,0,0,0,0,0,0,0,0,0,0,0,0,0,0,0,0,0,0,0,0,1,1,1,1,1,1,1,1,1,1,1,1,1,1,1,1,1,1,1,1,1]},{"id":16,"name":"meta","type":"objectgroup","x":0,"y":0,"opacity":1,"visible":true,"draworder":"topdown","objects":[{"id":22,"name":"","type":"spawn","x":680,"y":376,"width":0,"height":0,"point":true,"rotation":0,"visible":true,"properties":[]},{"id":1,"name":"","type":"station","x":264,"y":528,"width":0,"height":0,"point":true,"rotation":0,"visible":true,"properties":[{"name":"region","type":"string","value":"public"},{"name":"slot","type":"int","value":0}]},{"id":2,"name":"","type":"station","x":360,"y":512,"width":0,"height":0,"point":true,"rotation":0,"visible":true,"properties":[{"name":"region","type":"string","value":"system"},{"name":"slot","type":"int","value":0}]},{"id":3,"name":"","type":"station","x":488,"y":272,"width":0,"height":0,"point":true,"rotation":0,"visible":true,"properties":[{"name":"region","type":"string","value":"feature"},{"name":"slot","type":"int","value":0}]},{"id":4,"name":"","type":"station","x":504,"y":496,"width":0,"height":0,"point":true,"rotation":0,"visible":true,"properties":[{"name":"region","type":"string","value":"public"},{"name":"slot","type":"int","value":1}]},{"id":5,"name":"","type":"station","x":552,"y":400,"width":0,"height":0,"point":true,"rotation":0,"visible":true,"properties":[{"name":"region","type":"string","value":"system"},{"name":"slot","type":"int","value":1}]},{"id":6,"name":"","type":"station","x":648,"y":336,"width":0,"height":0,"point":true,"rotation":0,"visible":true,"properties":[{"name":"region","type":"string","value":"feature"},{"name":"slot","type":"int","value":1}]},{"id":7,"name":"","type":"station","x":680,"y":624,"width":0,"height":0,"point":true,"rotation":0,"visible":true,"properties":[{"name":"region","type":"string","value":"public"},{"name":"slot","type":"int","value":2}]},{"id":8,"name":"","type":"station","x":696,"y":496,"width":0,"height":0,"point":true,"rotation":0,"visible":true,"properties":[{"name":"region","type":"string","value":"system"},{"name":"slot","type":"int","value":2}]},{"id":9,"name":"","type":"station","x":712,"y":624,"width":0,"height":0,"point":true,"rotation":0,"visible":true,"properties":[{"name":"region","type":"string","value":"feature"},{"name":"slot","type":"int","value":2}]},{"id":10,"name":"","type":"station","x":728,"y":176,"width":0,"height":0,"point":true,"rotation":0,"visible":true,"properties":[{"name":"region","type":"string","value":"public"},{"name":"slot","type":"int","value":3}]},{"id":11,"name":"","type":"station","x":760,"y":336,"width":0,"height":0,"point":true,"rotation":0,"visible":true,"properties":[{"name":"region","type":"string","value":"system"},{"name":"slot","type":"int","value":3}]},{"id":12,"name":"","type":"station","x":856,"y":272,"width":0,"height":0,"point":true,"rotation":0,"visible":true,"properties":[{"name":"region","type":"string","value":"feature"},{"name":"slot","type":"int","value":3}]},{"id":13,"name":"","type":"station","x":856,"y":176,"width":0,"height":0,"point":true,"rotation":0,"visible":true,"properties":[{"name":"region","type":"string","value":"public"},{"name":"slot","type":"int","value":4}]},{"id":14,"name":"","type":"station","x":904,"y":80,"width":0,"height":0,"point":true,"rotation":0,"visible":true,"properties":[{"name":"region","type":"string","value":"system"},{"name":"slot","type":"int","value":4}]},{"id":15,"name":"","type":"station","x":936,"y":576,"width":0,"height":0,"point":true,"rotation":0,"visible":true,"properties":[{"name":"region","type":"string","value":"feature"},{"name":"slot","type":"int","value":4}]},{"id":16,"name":"","type":"station","x":1160,"y":496,"width":0,"height":0,"point":true,"rotation":0,"visible":true,"properties":[{"name":"region","type":"string","value":"public"},{"name":"slot","type":"int","value":5}]},{"id":17,"name":"","type":"station","x":1176,"y":608,"width":0,"height":0,"point":true,"rotation":0,"visible":true,"properties":[{"name":"region","type":"string","value":"system"},{"name":"slot","type":"int","value":5}]},{"id":18,"name":"","type":"station","x":1208,"y":432,"width":0,"height":0,"point":true,"rotation":0,"visible":true,"properties":[{"name":"region","type":"string","value":"feature"},{"name":"slot","type":"int","value":5}]},{"id":19,"name":"","type":"station","x":120,"y":352,"width":0,"height":0,"point":true,"rotation":0,"visible":true,"properties":[{"name":"region","type":"string","value":"public"},{"name":"slot","type":"int","value":6}]},{"id":20,"name":"","type":"station","x":248,"y":368,"width":0,"height":0,"point":true,"rotation":0,"visible":true,"properties":[{"name":"region","type":"string","value":"system"},{"name":"slot","type":"int","value":6}]},{"id":21,"name":"","type":"station","x":392,"y":352,"width":0,"height":0,"point":true,"rotation":0,"visible":true,"properties":[{"name":"region","type":"string","value":"public"},{"name":"slot","type":"int","value":7}]},{"id":23,"name":"","type":"label","x":48,"y":32,"width":0,"height":0,"point":true,"rotation":0,"visible":true,"properties":[{"name":"text","type":"string","value":"Sunnyside"},{"name":"theme","type":"string","value":"forest"}]}]}]}