{"type":"map","version":"1.10","tiledversion":"1.10.2","orientation":"orthogonal","renderorder":"right-down","infinite":false,"width":64,"height":150,"tilewidth":16,"tileheight":16,"nextlayerid":9,"nextobjectid":51,"layers":[{"id":1,"name":"sea","type":"tilelayer","width":64,"height":150,"x":0,"y":0,"opacity":1,"visible":true,"data":[1164,1165,1166,1167,1164,1165,1166,1167,1164,1165,1166,1167,1164,1165,1166,1167,1164,1165,1166,1167,1164,1165,1166,1167,1164,1165,1166,1167,1164,1165,1166,1167,1164,1165,1166,1167,1164,1165,1166,1167,1164,1165,1166,1167,1164,1165,1166,1167,1164,1165,1166,1167,1164,1165,1166,1167,1164,1165,1166,1167,1164,1165,1166,1167,1228,1229,1230,1231,1228,1229,1230,1231,1228,1229,1230,1231,1228,1229,1230,1231,1228,1229,1230,1231,1228,1229,1230,1231,1228,1229,1230,1231,1228,1229,1230,1231,1228,1229,1230,1231,1228,1229,1230,1231,1228,1229,1230,1231,1228,1229,1230,1231,1228,1229,1230,1231,1228,1229,1230,1231,1228,1229,1230,1231,1228,1229,1230,1231,1292,1293,1294,1295,1292,1293,1294,1295,1292,1293,1294,1295,1292,1293,1294,1295,1292,1293,1294,1295,1292,1293,1294,1295,1292,1293,1294,1295,1292,1293,1294,1295,1292,1293,1294,1295,1292,1293,1294,1295,1292,1293,1294,1295,1292,1293,1294,1295,1292,1293,1294,1295,1292,1293,1294,1295,1292,1293,1294,1295,1292,1293,1294,1295,1356,1357,1358,1359,1356,1357,1358,1359,1356,1357,1358,1359,1356,1357,1358,1359,1356,1357,1358,1359,1356,1357,1358,1359,1356,1357,1358,1359,1356,1357,1358,1359,1356,1357,1358,1359,1356,1357,1358,1359,1356,1357,1358,1359,1356,1357,1358,1359,1356,1357,1358,1359,1356,1357,1358,1359,1356,1357,1358,1359,1356,1357,1358,1359,1164,1165,1166,1167,1164,1165,1166,1167,1164,1165,1166,1167,1164,1165,1166,1167,1164,1165,1166,1167,1164,1165,1166,1167,1164,1165,1166,1167,1164,1165,1166,1167,1164,1165,1166,1167,1164,1165,1166,1167,1164,1165,1166,1167,1164,1165,1166,1167,1164,1165,1166,1167,1164,1165,1166,1167,1164,1165,1166,1167,1164,1165,1166,1167,1228,1229,1230,1231,1228,1229,1230,1231,1228,1229,1230,1231,1228,1229,1230,1231,1228,1229,1230,1231,1228,1229,1230,1231,1228,1229,1230,1231,1228,1229,1230,1231,1228,1229,1230,1231,1228,1229,1230,1231,1228,1229,1230,1231,1228,1229,1230,1231,1228,1229,1230,1231,1228,1229,1230,1231,1228,1229,1230,1231,1228,1229,1230,1231,1292,1293,1294,1295,1292,1293,1294,1295,1292,1293,1294,1295,1292,1293,1294,1295,1292,1293,1294,1295,1292,1293,1294,1295,1292,1293,1294,1295,1292,1293,1294,1295,1292,1293,1294,1295,1292,1293,1294,1295,1292,1293,1294,1295,1292,1293,1294,1295,1292,1293,1294,1295,1292,1293,1294,1295,1292,1293,1294,1295,1292,1293,1294,1295,1356,1357,1358,1359,1356,1357,1358,1359,1356,1357,1358,1359,1356,1357,1358,1359,1356,1357,1358,1359,1356,1357,1358,1359,1356,1357,1358,1359,1356,1357,1358,1359,1356,1357,1358,1359,1356,1357,1358,1359,1356,1357,1358,1359,1356,1357,1358,1359,1356,1357,1358,1359,1356,1357,1358,1359,1356,1357,1358,1359,1356,1357,1358,1359,1164,1165,1166,1167,1164,1165,1166,1167,1164,1165,1166,1167,1164,1165,1166,1167,1164,1165,1166,1167,1164,1165,1166,1167,1164,1165,1166,1167,1164,1165,1166,1167,1164,1165,1166,1167,1164,1165,1166,1167,1164,1165,1166,1167,1164,1165,1166,1167,1164,1165,1166,1167,1164,1165,1166,1167,1164,1165,1166,1167,1164,1165,1166,1167,1228,1229,1230,1231,1228,1229,1230,1231,1228,1229,1230,1231,1228,1229,1230,1231,1228,1229,1230,1231,1228,1229,1230,1231,1228,1229,1230,1231,1228,1229,1230,1231,1228,1229,1230,1231,1228,1229,1230,1231,1228,1229,1230,1231,1228,1229,1230,1231,1228,1229,1230,1231,1228,1229,1230,1231,1228,1229,1230,1231,1228,1229,1230,1231,1292,1293,1294,1295,1292,1293,1294,1295,1292,1293,1294,1295,1292,1293,1294,1295,1292,1293,1294,1295,1292,1293,1294,1295,1292,1293,1294,1295,1292,1293,1294,1295,1292,1293,1294,1295,1292,1293,1294,1295,1292,1293,1294,1295,1292,1293,1294,1295,1292,1293,1294,1295,1292,1293,1294,1295,1292,1293,1294,1295,1292,1293,1294,1295,1356,1357,1358,1359,1356,1357,1358,1359,1356,1357,1358,1359,1356,1357,1358,1359,1356,1357,1358,1359,1356,1357,1358,1359,1356,1357,1358,1359,1356,1357,1358,1359,1356,1357,1358,1359,1356,1357,1358,1359,1356,1357,1358,1359,1356,1357,1358,1359,1356,1357,1358,1359,1356,1357,1358,1359,1356,1357,1358,1359,1356,1357,1358,1359,1164,1165,1166,1167,1164,1165,1166,1167,1164,1165,1166,1167,1164,1165,1166,1167,1164,1165,1166,1167,1164,1165,1166,1167,1164,1165,1166,1167,1164,1165,1166,1167,1164,1165,1166,1167,1164,1165,1166,1167,1164,1165,1166,1167,1164,1165,1166,1167,1164,1165,1166,1167,1164,1165,1166,1167,1164,1165,1166,1167,1164,1165,1166,1167,1228,1229,1230,1231,1228,1229,1230,1231,1228,1229,1230,1231,1228,1229,1230,1231,1228,1229,1230,1231,1228,1229,1230,1231,1228,1229,1230,1231,1228,1229,1230,1231,1228,1229,1230,1231,1228,1229,1230,1231,1228,1229,1230,1231,1228,1229,1230,1231,1228,1229,1230,1231,1228,1229,1230,1231,1228,1229,1230,1231,1228,1229,1230,1231,1292,1293,1294,1295,1292,1293,1294,1295,1292,1293,1294,1295,1292,1293,1294,1295,1292,1293,1294,1295,1292,1293,1294,1295,1292,1293,1294,1295,1292,1293,1294,1295,1292,1293,1294,1295,1292,1293,1294,1295,1292,1293,1294,1295,1292,1293,1294,1295,1292,1293,1294,1295,1292,1293,1294,1295,1292,1293,1294,1295,1292,1293,1294,1295,1356,1357,1358,1359,1356,1357,1358,1359,1356,1357,1358,1359,1356,1357,1358,1359,1356,1357,1358,1359,1356,1357,1358,1359,1356,1357,1358,1359,1356,1357,1358,1359,1356,1357,1358,1359,1356,1357,1358,1359,1356,1357,1358,1359,1356,1357,1358,1359,1356,1357,1358,1359,1356,1357,1358,1359,1356,1357,1358,1359,1356,1357,1358,1359,1164,1165,1166,1167,1164,1165,1166,1167,1164,1165,1166,1167,1164,1165,1166,1167,1164,1165,1166,1167,1164,1165,1166,1167,1164,1165,1166,1167,1164,1165,1166,1167,1164,1165,1166,1167,1164,1165,1166,1167,1164,1165,1166,1167,1164,1165,1166,1167,1164,1165,1166,1167,1164,1165,1166,1167,1164,1165,1166,1167,1164,1165,1166,1167,1228,1229,1230,1231,1228,1229,1230,1231,1228,1229,1230,1231,1228,1229,1230,1231,1228,1229,1230,1231,1228,1229,1230,1231,1228,1229,1230,1231,1228,1229,1230,1231,1228,1229,1230,1231,1228,1229,1230,1231,1228,1229,1230,1231,1228,1229,1230,1231,1228,1229,1230,1231,1228,1229,1230,1231,1228,1229,1230,1231,1228,1229,1230,1231,1292,1293,1294,1295,1292,1293,1294,1295,1292,1293,1294,1295,1292,1293,1294,1295,1292,1293,1294,1295,1292,1293,1294,1295,1292,1293,1294,1295,1292,1293,1294,1295,1292,1293,1294,1295,1292,1293,1294,1295,1292,1293,1294,1295,1292,1293,1294,1295,1292,1293,1294,1295,1292,1293,1294,1295,1292,1293,1294,1295,1292,1293,1294,1295,1356,1357,1358,1359,1356,1357,1358,1359,1356,1357,1358,1359,1356,1357,1358,1359,1356,1357,1358,1359,1356,1357,1358,1359,1356,1357,1358,1359,1356,1357,1358,1359,1356,1357,1358,1359,1356,1357,1358,1359,1356,1357,1358,1359,1356,1357,1358,1359,1356,1357,1358,1359,1356,1357,1358,1359,1356,1357,1358,1359,1356,1357,1358,1359,1164,1165,1166,1167,1164,1165,1166,1167,1164,1165,1166,1167,1164,1165,1166,1167,1164,1165,1166,1167,1164,1165,1166,1167,1164,1165,1166,1167,1164,1165,1166,1167,1164,1165,1166,1167,1164,1165,1166,1167,1164,1165,1166,1167,1164,1165,1166,1167,1164,1165,1166,1167,1164,1165,1166,1167,1164,1165,1166,1167,1164,1165,1166,1167,1228,1229,1230,1231,1228,1229,1230,1231,1228,1229,1230,1231,1228,1229,1230,1231,1228,1229,1230,1231,1228,1229,1230,1231,1228,1229,1230,1231,1228,1229,1230,1231,1228,1229,1230,1231,1228,1229,1230,1231,1228,1229,1230,1231,1228,1229,1230,1231,1228,1229,1230,1231,1228,1229,1230,1231,1228,1229,1230,1231,1228,1229,1230,1231,1292,1293,1294,1295,1292,1293,1294,1295,1292,1293,1294,1295,1292,1293,1294,1295,1292,1293,1294,1295,1292,1293,1294,1295,1292,1293,1294,1295,1292,1293,1294,1295,1292,1293,1294,1295,1292,1293,1294,1295,1292,1293,1294,1295,1292,1293,1294,1295,1292,1293,1294,1295,1292,1293,1294,1295,1292,1293,1294,1295,1292,1293,1294,1295,1356,1357,1358,1359,1356,1357,1358,1359,1356,1357,1358,1359,1356,1357,1358,1359,1356,1357,1358,1359,1356,1357,1358,1359,1356,1357,1358,1359,1356,1357,1358,1359,1356,1357,1358,1359,1356,1357,1358,1359,1356,1357,1358,1359,1356,1357,1358,1359,1356,1357,1358,1359,1356,1357,1358,1359,1356,1357,1358,1359,1356,1357,1358,1359,1164,1165,1166,1167,1164,1165,1166,1167,1164,1165,1166,1167,1164,1165,1166,1167,1164,1165,1166,1167,1164,1165,1166,1167,1164,1165,1166,1167,1164,1165,1166,1167,1164,1165,1166,1167,1164,1165,1166,1167,1164,1165,1166,1167,1164,1165,1166,1167,1164,1165,1166,1167,1164,1165,1166,1167,1164,1165,1166,1167,1164,1165,1166,1167,1228,1229,1230,1231,1228,1229,1230,1231,1228,1229,1230,1231,1228,1229,1230,1231,1228,1229,1230,1231,1228,1229,1230,1231,1228,1229,1230,1231,1228,1229,1230,1231,1228,1229,1230,1231,1228,1229,1230,1231,1228,1229,1230,1231,1228,1229,1230,1231,1228,1229,1230,1231,1228,1229,1230,1231,1228,1229,1230,1231,1228,1229,1230,1231,1292,1293,1294,1295,1292,1293,1294,1295,1292,1293,1294,1295,1292,1293,1294,1295,1292,1293,1294,1295,1292,1293,1294,1295,1292,1293,1294,1295,1292,1293,1294,1295,1292,1293,1294,1295,1292,1293,1294,1295,1292,1293,1294,1295,1292,1293,1294,1295,1292,1293,1294,1295,1292,1293,1294,1295,1292,1293,1294,1295,1292,1293,1294,1295,1356,1357,1358,1359,1356,1357,1358,1359,1356,1357,1358,1359,1356,1357,1358,1359,1356,1357,1358,1359,1356,1357,1358,1359,1356,1357,1358,1359,1356,1357,1358,1359,1356,1357,1358,1359,1356,1357,1358,1359,1356,1357,1358,1359,1356,1357,1358,1359,1356,1357,1358,1359,1356,1357,1358,1359,1356,1357,1358,1359,1356,1357,1358,1359,1164,1165,1166,1167,1164,1165,1166,1167,1164,1165,1166,1167,1164,1165,1166,1167,1164,1165,1166,1167,1164,1165,1166,1167,1164,1165,1166,1167,1164,1165,1166,1167,1164,1165,1166,1167,1164,1165,1166,1167,1164,1165,1166,1167,1164,1165,1166,1167,1164,1165,1166,1167,1164,1165,1166,1167,1164,1165,1166,1167,1164,1165,1166,1167,1228,1229,1230,1231,1228,1229,1230,1231,1228,1229,1230,1231,1228,1229,1230,1231,1228,1229,1230,1231,1228,1229,1230,1231,1228,1229,1230,1231,1228,1229,1230,1231,1228,1229,1230,1231,1228,1229,1230,1231,1228,1229,1230,1231,1228,1229,1230,1231,1228,1229,1230,1231,1228,1229,1230,1231,1228,1229,1230,1231,1228,1229,1230,1231,1292,1293,1294,1295,1292,1293,1294,1295,1292,1293,1294,1295,1292,1293,1294,1295,1292,1293,1294,1295,1292,1293,1294,1295,1292,1293,1294,1295,1292,1293,1294,1295,1292,1293,1294,1295,1292,1293,1294,1295,1292,1293,1294,1295,1292,1293,1294,1295,1292,1293,1294,1295,1292,1293,1294,1295,1292,1293,1294,1295,1292,1293,1294,1295,1356,1357,1358,1359,1356,1357,1358,1359,1356,1357,1358,1359,1356,1357,1358,1359,1356,1357,1358,1359,1356,1357,1358,1359,1356,1357,1358,1359,1356,1357,1358,1359,1356,1357,1358,1359,1356,1357,1358,1359,1356,1357,1358,1359,1356,1357,1358,1359,1356,1357,1358,1359,1356,1357,1358,1359,1356,1357,1358,1359,1356,1357,1358,1359,1164,1165,1166,1167,1164,1165,1166,1167,1164,1165,1166,1167,1164,1165,1166,1167,1164,1165,1166,1167,1164,1165,1166,1167,1164,1165,1166,1167,1164,1165,1166,1167,1164,1165,1166,1167,1164,1165,1166,1167,1164,1165,1166,1167,1164,1165,1166,1167,1164,1165,1166,1167,1164,1165,1166,1167,1164,1165,1166,1167,1164,1165,1166,1167,1228,1229,1230,1231,1228,1229,1230,1231,1228,1229,1230,1231,1228,1229,1230,1231,1228,1229,1230,1231,1228,1229,1230,1231,1228,1229,1230,1231,1228,1229,1230,1231,1228,1229,1230,1231,1228,1229,1230,1231,1228,1229,1230,1231,1228,1229,1230,1231,1228,1229,1230,1231,1228,1229,1230,1231,1228,1229,1230,1231,1228,1229,1230,1231,1292,1293,1294,1295,1292,1293,1294,1295,1292,1293,1294,1295,1292,1293,1294,1295,1292,1293,1294,1295,1292,1293,1294,1295,1292,1293,1294,1295,1292,1293,1294,1295,1292,1293,1294,1295,1292,1293,1294,1295,1292,1293,1294,1295,1292,1293,1294,1295,1292,1293,1294,1295,1292,1293,1294,1295,1292,1293,1294,1295,1292,1293,1294,1295,1356,1357,1358,1359,1356,1357,1358,1359,1356,1357,1358,1359,1356,1357,1358,1359,1356,1357,1358,1359,1356,1357,1358,1359,1356,1357,1358,1359,1356,1357,1358,1359,1356,1357,1358,1359,1356,1357,1358,1359,1356,1357,1358,1359,1356,1357,1358,1359,1356,1357,1358,1359,1356,1357,1358,1359,1356,1357,1358,1359,1356,1357,1358,1359,1164,1165,1166,1167,1164,1165,1166,1167,1164,1165,1166,1167,1164,1165,1166,1167,1164,1165,1166,1167,1164,1165,1166,1167,1164,1165,1166,1167,1164,1165,1166,1167,1164,1165,1166,1167,1164,1165,1166,1167,1164,1165,1166,1167,1164,1165,1166,1167,1164,1165,1166,1167,1164,1165,1166,1167,1164,1165,1166,1167,1164,1165,1166,1167,1228,1229,1230,1231,1228,1229,1230,1231,1228,1229,1230,1231,1228,1229,1230,1231,1228,1229,1230,1231,1228,1229,1230,1231,1228,1229,1230,1231,1228,1229,1230,1231,1228,1229,1230,1231,1228,1229,1230,1231,1228,1229,1230,1231,1228,1229,1230,1231,1228,1229,1230,1231,1228,1229,1230,1231,1228,1229,1230,1231,1228,1229,1230,1231,1292,1293,1294,1295,1292,1293,1294,1295,1292,1293,1294,1295,1292,1293,1294,1295,1292,1293,1294,1295,1292,1293,1294,1295,1292,1293,1294,1295,1292,1293,1294,1295,1292,1293,1294,1295,1292,1293,1294,1295,1292,1293,1294,1295,1292,1293,1294,1295,1292,1293,1294,1295,1292,1293,1294,1295,1292,1293,1294,1295,1292,1293,1294,1295,1356,1357,1358,1359,1356,1357,1358,1359,1356,1357,1358,1359,1356,1357,1358,1359,1356,1357,1358,1359,1356,1357,1358,1359,1356,1357,1358,1359,1356,1357,1358,1359,1356,1357,1358,1359,1356,1357,1358,1359,1356,1357,1358,1359,1356,1357,1358,1359,1356,1357,1358,1359,1356,1357,1358,1359,1356,1357,1358,1359,1356,1357,1358,1359,1164,1165,1166,1167,1164,1165,1166,1167,1164,1165,1166,1167,1164,1165,1166,1167,1164,1165,1166,1167,1164,1165,1166,1167,1164,1165,1166,1167,1164,1165,1166,1167,1164,1165,1166,1167,1164,1165,1166,1167,1164,1165,1166,1167,1164,1165,1166,1167,1164,1165,1166,1167,1164,1165,1166,1167,1164,1165,1166,1167,1164,1165,1166,1167,1228,1229,1230,1231,1228,1229,1230,1231,1228,1229,1230,1231,1228,1229,1230,1231,1228,1229,1230,1231,1228,1229,1230,1231,1228,1229,1230,1231,1228,1229,1230,1231,1228,1229,1230,1231,1228,1229,1230,1231,1228,1229,1230,1231,1228,1229,1230,1231,1228,1229,1230,1231,1228,1229,1230,1231,1228,1229,1230,1231,1228,1229,1230,1231,1292,1293,1294,1295,1292,1293,1294,1295,1292,1293,1294,1295,1292,1293,1294,1295,1292,1293,1294,1295,1292,1293,1294,1295,1292,1293,1294,1295,1292,1293,1294,1295,1292,1293,1294,1295,1292,1293,1294,1295,1292,1293,1294,1295,1292,1293,1294,1295,1292,1293,1294,1295,1292,1293,1294,1295,1292,1293,1294,1295,1292,1293,1294,1295,1356,1357,1358,1359,1356,1357,1358,1359,1356,1357,1358,1359,1356,1357,1358,1359,1356,1357,1358,1359,1356,1357,1358,1359,1356,1357,1358,1359,1356,1357,1358,1359,1356,1357,1358,1359,1356,1357,1358,1359,1356,1357,1358,1359,1356,1357,1358,1359,1356,1357,1358,1359,1356,1357,1358,1359,1356,1357,1358,1359,1356,1357,1358,1359,1164,1165,1166,1167,1164,1165,1166,1167,1164,1165,1166,1167,1164,1165,1166,1167,1164,1165,1166,1167,1164,1165,1166,1167,1164,1165,1166,1167,1164,1165,1166,1167,1164,1165,1166,1167,1164,1165,1166,1167,1164,1165,1166,1167,1164,1165,1166,1167,1164,1165,1166,1167,1164,1165,1166,1167,1164,1165,1166,1167,1164,1165,1166,1167,1228,1229,1230,1231,1228,1229,1230,1231,1228,1229,1230,1231,1228,1229,1230,1231,1228,1229,1230,1231,1228,1229,1230,1231,1228,1229,1230,1231,1228,1229,1230,1231,1228,1229,1230,1231,1228,1229,1230,1231,1228,1229,1230,1231,1228,1229,1230,1231,1228,1229,1230,1231,1228,1229,1230,1231,1228,1229,1230,1231,1228,1229,1230,1231,1292,1293,1294,1295,1292,1293,1294,1295,1292,1293,1294,1295,1292,1293,1294,1295,1292,1293,1294,1295,1292,1293,1294,1295,1292,1293,1294,1295,1292,1293,1294,1295,1292,1293,1294,1295,1292,1293,1294,1295,1292,1293,1294,1295,1292,1293,1294,1295,1292,1293,1294,1295,1292,1293,1294,1295,1292,1293,1294,1295,1292,1293,1294,1295,1356,1357,1358,1359,1356,1357,1358,1359,1356,1357,1358,1359,1356,1357,1358,1359,1356,1357,1358,1359,1356,1357,1358,1359,1356,1357,1358,1359,1356,1357,1358,1359,1356,1357,1358,1359,1356,1357,1358,1359,1356,1357,1358,1359,1356,1357,1358,1359,1356,1357,1358,1359,1356,1357,1358,1359,1356,1357,1358,1359,1356,1357,1358,1359,1164,1165,1166,1167,1164,1165,1166,1167,1164,1165,1166,1167,1164,1165,1166,1167,1164,1165,1166,1167,1164,1165,1166,1167,1164,1165,1166,1167,1164,1165,1166,1167,1164,1165,1166,1167,1164,1165,1166,1167,1164,1165,1166,1167,1164,1165,1166,1167,1164,1165,1166,1167,1164,1165,1166,1167,1164,1165,1166,1167,1164,1165,1166,1167,1228,1229,1230,1231,1228,1229,1230,1231,1228,1229,1230,1231,1228,1229,1230,1231,1228,1229,1230,1231,1228,1229,1230,1231,1228,1229,1230,1231,1228,1229,1230,1231,1228,1229,1230,1231,1228,1229,1230,1231,1228,1229,1230,1231,1228,1229,1230,1231,1228,1229,1230,1231,1228,1229,1230,1231,1228,1229,1230,1231,1228,1229,1230,1231,1292,1293,1294,1295,1292,1293,1294,1295,1292,1293,1294,1295,1292,1293,1294,1295,1292,1293,1294,1295,1292,1293,1294,1295,1292,1293,1294,1295,1292,1293,1294,1295,1292,1293,1294,1295,1292,1293,1294,1295,1292,1293,1294,1295,1292,1293,1294,1295,1292,1293,1294,1295,1292,1293,1294,1295,1292,1293,1294,1295,1292,1293,1294,1295,1356,1357,1358,1359,1356,1357,1358,1359,1356,1357,1358,1359,1356,1357,1358,1359,1356,1357,1358,1359,1356,1357,1358,1359,1356,1357,1358,1359,1356,1357,1358,1359,1356,1357,1358,1359,1356,1357,1358,1359,1356,1357,1358,1359,1356,1357,1358,1359,1356,1357,1358,1359,1356,1357,1358,1359,1356,1357,1358,1359,1356,1357,1358,1359,1164,1165,1166,1167,1164,1165,1166,1167,1164,1165,1166,1167,1164,1165,1166,1167,1164,1165,1166,1167,1164,1165,1166,1167,1164,1165,1166,1167,1164,1165,1166,1167,1164,1165,1166,1167,1164,1165,1166,1167,1164,1165,1166,1167,1164,1165,1166,1167,1164,1165,1166,1167,1164,1165,1166,1167,1164,1165,1166,1167,1164,1165,1166,1167,1228,1229,1230,1231,1228,1229,1230,1231,1228,1229,1230,1231,1228,1229,1230,1231,1228,1229,1230,1231,1228,1229,1230,1231,1228,1229,1230,1231,1228,1229,1230,1231,1228,1229,1230,1231,1228,1229,1230,1231,1228,1229,1230,1231,1228,1229,1230,1231,1228,1229,1230,1231,1228,1229,1230,1231,1228,1229,1230,1231,1228,1229,1230,1231,1292,1293,1294,1295,1292,1293,1294,1295,1292,1293,1294,1295,1292,1293,1294,1295,1292,1293,1294,1295,1292,1293,1294,1295,1292,1293,1294,1295,1292,1293,1294,1295,1292,1293,1294,1295,1292,1293,1294,1295,1292,1293,1294,1295,1292,1293,1294,1295,1292,1293,1294,1295,1292,1293,1294,1295,1292,1293,1294,1295,1292,1293,1294,1295,1356,1357,1358,1359,1356,1357,1358,1359,1356,1357,1358,1359,1356,1357,1358,1359,1356,1357,1358,1359,1356,1357,1358,1359,1356,1357,1358,1359,1356,1357,1358,1359,1356,1357,1358,1359,1356,1357,1358,1359,1356,1357,1358,1359,1356,1357,1358,1359,1356,1357,1358,1359,1356,1357,1358,1359,1356,1357,1358,1359,1356,1357,1358,1359,1164,1165,1166,1167,1164,1165,1166,1167,1164,1165,1166,1167,1164,1165,1166,1167,1164,1165,1166,1167,1164,1165,1166,1167,1164,1165,1166,1167,1164,1165,1166,1167,1164,1165,1166,1167,1164,1165,1166,1167,1164,1165,1166,1167,1164,1165,1166,1167,1164,1165,1166,1167,1164,1165,1166,1167,1164,1165,1166,1167,1164,1165,1166,1167,1228,1229,1230,1231,1228,1229,1230,1231,1228,1229,1230,1231,1228,1229,1230,1231,1228,1229,1230,1231,1228,1229,1230,1231,1228,1229,1230,1231,1228,1229,1230,1231,1228,1229,1230,1231,1228,1229,1230,1231,1228,1229,1230,1231,1228,1229,1230,1231,1228,1229,1230,1231,1228,1229,1230,1231,1228,1229,1230,1231,1228,1229,1230,1231,1292,1293,1294,1295,1292,1293,1294,1295,1292,1293,1294,1295,1292,1293,1294,1295,1292,1293,1294,1295,1292,1293,1294,1295,1292,1293,1294,1295,1292,1293,1294,1295,1292,1293,1294,1295,1292,1293,1294,1295,1292,1293,1294,1295,1292,1293,1294,1295,1292,1293,1294,1295,1292,1293,1294,1295,1292,1293,1294,1295,1292,1293,1294,1295,1356,1357,1358,1359,1356,1357,1358,1359,1356,1357,1358,1359,1356,1357,1358,1359,1356,1357,1358,1359,1356,1357,1358,1359,1356,1357,1358,1359,1356,1357,1358,1359,1356,1357,1358,1359,1356,1357,1358,1359,1356,1357,1358,1359,1356,1357,1358,1359,1356,1357,1358,1359,1356,1357,1358,1359,1356,1357,1358,1359,1356,1357,1358,1359,1164,1165,1166,1167,1164,1165,1166,1167,1164,1165,1166,1167,1164,1165,1166,1167,1164,1165,1166,1167,1164,1165,1166,1167,1164,1165,1166,1167,1164,1165,1166,1167,1164,1165,1166,1167,1164,1165,1166,1167,1164,1165,1166,1167,1164,1165,1166,1167,1164,1165,1166,1167,1164,1165,1166,1167,1164,1165,1166,1167,1164,1165,1166,1167,1228,1229,1230,1231,1228,1229,1230,1231,1228,1229,1230,1231,1228,1229,1230,1231,1228,1229,1230,1231,1228,1229,1230,1231,1228,1229,1230,1231,1228,1229,1230,1231,1228,1229,1230,1231,1228,1229,1230,1231,1228,1229,1230,1231,1228,1229,1230,1231,1228,1229,1230,1231,1228,1229,1230,1231,1228,1229,1230,1231,1228,1229,1230,1231,1292,1293,1294,1295,1292,1293,1294,1295,1292,1293,1294,1295,1292,1293,1294,1295,1292,1293,1294,1295,1292,1293,1294,1295,1292,1293,1294,1295,1292,1293,1294,1295,1292,1293,1294,1295,1292,1293,1294,1295,1292,1293,1294,1295,1292,1293,1294,1295,1292,1293,1294,1295,1292,1293,1294,1295,1292,1293,1294,1295,1292,1293,1294,1295,1356,1357,1358,1359,1356,1357,1358,1359,1356,1357,1358,1359,1356,1357,1358,1359,1356,1357,1358,1359,1356,1357,1358,1359,1356,1357,1358,1359,1356,1357,1358,1359,1356,1357,1358,1359,1356,1357,1358,1359,1356,1357,1358,1359,1356,1357,1358,1359,1356,1357,1358,1359,1356,1357,1358,1359,1356,1357,1358,1359,1356,1357,1358,1359,1164,1165,1166,1167,1164,1165,1166,1167,1164,1165,1166,1167,1164,1165,1166,1167,1164,1165,1166,1167,1164,1165,1166,1167,1164,1165,1166,1167,1164,1165,1166,1167,1164,1165,1166,1167,1164,1165,1166,1167,1164,1165,1166,1167,1164,1165,1166,1167,1164,1165,1166,1167,1164,1165,1166,1167,1164,1165,1166,1167,1164,1165,1166,1167,1228,1229,1230,1231,1228,1229,1230,1231,1228,1229,1230,1231,1228,1229,1230,1231,1228,1229,1230,1231,1228,1229,1230,1231,1228,1229,1230,1231,1228,1229,1230,1231,1228,1229,1230,1231,1228,1229,1230,1231,1228,1229,1230,1231,1228,1229,1230,1231,1228,1229,1230,1231,1228,1229,1230,1231,1228,1229,1230,1231,1228,1229,1230,1231,1292,1293,1294,1295,1292,1293,1294,1295,1292,1293,1294,1295,1292,1293,1294,1295,1292,1293,1294,1295,1292,1293,1294,1295,1292,1293,1294,1295,1292,1293,1294,1295,1292,1293,1294,1295,1292,1293,1294,1295,1292,1293,1294,1295,1292,1293,1294,1295,1292,1293,1294,1295,1292,1293,1294,1295,1292,1293,1294,1295,1292,1293,1294,1295,1356,1357,1358,1359,1356,1357,1358,1359,1356,1357,1358,1359,1356,1357,1358,1359,1356,1357,1358,1359,1356,1357,1358,1359,1356,1357,1358,1359,1356,1357,1358,1359,1356,1357,1358,1359,1356,1357,1358,1359,1356,1357,1358,1359,1356,1357,1358,1359,1356,1357,1358,1359,1356,1357,1358,1359,1356,1357,1358,1359,1356,1357,1358,1359,1164,1165,1166,1167,1164,1165,1166,1167,1164,1165,1166,1167,1164,1165,1166,1167,1164,1165,1166,1167,1164,1165,1166,1167,1164,1165,1166,1167,1164,1165,1166,1167,1164,1165,1166,1167,1164,1165,1166,1167,1164,1165,1166,1167,1164,1165,1166,1167,1164,1165,1166,1167,1164,1165,1166,1167,1164,1165,1166,1167,1164,1165,1166,1167,1228,1229,1230,1231,1228,1229,1230,1231,1228,1229,1230,1231,1228,1229,1230,1231,1228,1229,1230,1231,1228,1229,1230,1231,1228,1229,1230,1231,1228,1229,1230,1231,1228,1229,1230,1231,1228,1229,1230,1231,1228,1229,1230,1231,1228,1229,1230,1231,1228,1229,1230,1231,1228,1229,1230,1231,1228,1229,1230,1231,1228,1229,1230,1231,1292,1293,1294,1295,1292,1293,1294,1295,1292,1293,1294,1295,1292,1293,1294,1295,1292,1293,1294,1295,1292,1293,1294,1295,1292,1293,1294,1295,1292,1293,1294,1295,1292,1293,1294,1295,1292,1293,1294,1295,1292,1293,1294,1295,1292,1293,1294,1295,1292,1293,1294,1295,1292,1293,1294,1295,1292,1293,1294,1295,1292,1293,1294,1295,1356,1357,1358,1359,1356,1357,1358,1359,1356,1357,1358,1359,1356,1357,1358,1359,1356,1357,1358,1359,1356,1357,1358,1359,1356,1357,1358,1359,1356,1357,1358,1359,1356,1357,1358,1359,1356,1357,1358,1359,1356,1357,1358,1359,1356,1357,1358,1359,1356,1357,1358,1359,1356,1357,1358,1359,1356,1357,1358,1359,1356,1357,1358,1359,1164,1165,1166,1167,1164,1165,1166,1167,1164,1165,1166,1167,1164,1165,1166,1167,1164,1165,1166,1167,1164,1165,1166,1167,1164,1165,1166,1167,1164,1165,1166,1167,1164,1165,1166,1167,1164,1165,1166,1167,1164,1165,1166,1167,1164,1165,1166,1167,1164,1165,1166,1167,1164,1165,1166,1167,1164,1165,1166,1167,1164,1165,1166,1167,1228,1229,1230,1231,1228,1229,1230,1231,1228,1229,1230,1231,1228,1229,1230,1231,1228,1229,1230,1231,1228,1229,1230,1231,1228,1229,1230,1231,1228,1229,1230,1231,1228,1229,1230,1231,1228,1229,1230,1231,1228,1229,1230,1231,1228,1229,1230,1231,1228,1229,1230,1231,1228,1229,1230,1231,1228,1229,1230,1231,1228,1229,1230,1231,1292,1293,1294,1295,1292,1293,1294,1295,1292,1293,1294,1295,1292,1293,1294,1295,1292,1293,1294,1295,1292,1293,1294,1295,1292,1293,1294,1295,1292,1293,1294,1295,1292,1293,1294,1295,1292,1293,1294,1295,1292,1293,1294,1295,1292,1293,1294,1295,1292,1293,1294,1295,1292,1293,1294,1295,1292,1293,1294,1295,1292,1293,1294,1295,1356,1357,1358,1359,1356,1357,1358,1359,1356,1357,1358,1359,1356,1357,1358,1359,1356,1357,1358,1359,1356,1357,1358,1359,1356,1357,1358,1359,1356,1357,1358,1359,1356,1357,1358,1359,1356,1357,1358,1359,1356,1357,1358,1359,1356,1357,1358,1359,1356,1357,1358,1359,1356,1357,1358,1359,1356,1357,1358,1359,1356,1357,1358,1359,1164,1165,1166,1167,1164,1165,1166,1167,1164,1165,1166,1167,1164,1165,1166,1167,1164,1165,1166,1167,1164,1165,1166,1167,1164,1165,1166,1167,1164,1165,1166,1167,1164,1165,1166,1167,1164,1165,1166,1167,1164,1165,1166,1167,1164,1165,1166,1167,1164,1165,1166,1167,1164,1165,1166,1167,1164,1165,1166,1167,1164,1165,1166,1167,1228,1229,1230,1231,1228,1229,1230,1231,1228,1229,1230,1231,1228,1229,1230,1231,1228,1229,1230,1231,1228,1229,1230,1231,1228,1229,1230,1231,1228,1229,1230,1231,1228,1229,1230,1231,1228,1229,1230,1231,1228,1229,1230,1231,1228,1229,1230,1231,1228,1229,1230,1231,1228,1229,1230,1231,1228,1229,1230,1231,1228,1229,1230,1231,1292,1293,1294,1295,1292,1293,1294,1295,1292,1293,1294,1295,1292,1293,1294,1295,1292,1293,1294,1295,1292,1293,1294,1295,1292,1293,1294,1295,1292,1293,1294,1295,1292,1293,1294,1295,1292,1293,1294,1295,1292,1293,1294,1295,1292,1293,1294,1295,1292,1293,1294,1295,1292,1293,1294,1295,1292,1293,1294,1295,1292,1293,1294,1295,1356,1357,1358,1359,1356,1357,1358,1359,1356,1357,1358,1359,1356,1357,1358,1359,1356,1357,1358,1359,1356,1357,1358,1359,1356,1357,1358,1359,1356,1357,1358,1359,1356,1357,1358,1359,1356,1357,1358,1359,1356,1357,1358,1359,1356,1357,1358,1359,1356,1357,1358,1359,1356,1357,1358,1359,1356,1357,1358,1359,1356,1357,1358,1359,1164,1165,1166,1167,1164,1165,1166,1167,1164,1165,1166,1167,1164,1165,1166,1167,1164,1165,1166,1167,1164,1165,1166,1167,1164,1165,1166,1167,1164,1165,1166,1167,1164,1165,1166,1167,1164,1165,1166,1167,1164,1165,1166,1167,1164,1165,1166,1167,1164,1165,1166,1167,1164,1165,1166,1167,1164,1165,1166,1167,1164,1165,1166,1167,1228,1229,1230,1231,1228,1229,1230,1231,1228,1229,1230,1231,1228,1229,1230,1231,1228,1229,1230,1231,1228,1229,1230,1231,1228,1229,1230,1231,1228,1229,1230,1231,1228,1229,1230,1231,1228,1229,1230,1231,1228,1229,1230,1231,1228,1229,1230,1231,1228,1229,1230,1231,1228,1229,1230,1231,1228,1229,1230,1231,1228,1229,1230,1231,1292,1293,1294,1295,1292,1293,1294,1295,1292,1293,1294,1295,1292,1293,1294,1295,1292,1293,1294,1295,1292,1293,1294,1295,1292,1293,1294,1295,1292,1293,1294,1295,1292,1293,1294,1295,1292,1293,1294,1295,1292,1293,1294,1295,1292,1293,1294,1295,1292,1293,1294,1295,1292,1293,1294,1295,1292,1293,1294,1295,1292,1293,1294,1295,1356,1357,1358,1359,1356,1357,1358,1359,1356,1357,1358,1359,1356,1357,1358,1359,1356,1357,1358,1359,1356,1357,1358,1359,1356,1357,1358,1359,1356,1357,1358,1359,1356,1357,1358,1359,1356,1357,1358,1359,1356,1357,1358,1359,1356,1357,1358,1359,1356,1357,1358,1359,1356,1357,1358,1359,1356,1357,1358,1359,1356,1357,1358,1359,1164,1165,1166,1167,1164,1165,1166,1167,1164,1165,1166,1167,1164,1165,1166,1167,1164,1165,1166,1167,1164,1165,1166,1167,1164,1165,1166,1167,1164,1165,1166,1167,1164,1165,1166,1167,1164,1165,1166,1167,1164,1165,1166,1167,1164,1165,1166,1167,1164,1165,1166,1167,1164,1165,1166,1167,1164,1165,1166,1167,1164,1165,1166,1167,1228,1229,1230,1231,1228,1229,1230,1231,1228,1229,1230,1231,1228,1229,1230,1231,1228,1229,1230,1231,1228,1229,1230,1231,1228,1229,1230,1231,1228,1229,1230,1231,1228,1229,1230,1231,1228,1229,1230,1231,1228,1229,1230,1231,1228,1229,1230,1231,1228,1229,1230,1231,1228,1229,1230,1231,1228,1229,1230,1231,1228,1229,1230,1231,1292,1293,1294,1295,1292,1293,1294,1295,1292,1293,1294,1295,1292,1293,1294,1295,1292,1293,1294,1295,1292,1293,1294,1295,1292,1293,1294,1295,1292,1293,1294,1295,1292,1293,1294,1295,1292,1293,1294,1295,1292,1293,1294,1295,1292,1293,1294,1295,1292,1293,1294,1295,1292,1293,1294,1295,1292,1293,1294,1295,1292,1293,1294,1295,1356,1357,1358,1359,1356,1357,1358,1359,1356,1357,1358,1359,1356,1357,1358,1359,1356,1357,1358,1359,1356,1357,1358,1359,1356,1357,1358,1359,1356,1357,1358,1359,1356,1357,1358,1359,1356,1357,1358,1359,1356,1357,1358,1359,1356,1357,1358,1359,1356,1357,1358,1359,1356,1357,1358,1359,1356,1357,1358,1359,1356,1357,1358,1359,1164,1165,1166,1167,1164,1165,1166,1167,1164,1165,1166,1167,1164,1165,1166,1167,1164,1165,1166,1167,1164,1165,1166,1167,1164,1165,1166,1167,1164,1165,1166,1167,1164,1165,1166,1167,1164,1165,1166,1167,1164,1165,1166,1167,1164,1165,1166,1167,1164,1165,1166,1167,1164,1165,1166,1167,1164,1165,1166,1167,1164,1165,1166,1167,1228,1229,1230,1231,1228,1229,1230,1231,1228,1229,1230,1231,1228,1229,1230,1231,1228,1229,1230,1231,1228,1229,1230,1231,1228,1229,1230,1231,1228,1229,1230,1231,1228,1229,1230,1231,1228,1229,1230,1231,1228,1229,1230,1231,1228,1229,1230,1231,1228,1229,1230,1231,1228,1229,1230,1231,1228,1229,1230,1231,1228,1229,1230,1231,1292,1293,1294,1295,1292,1293,1294,1295,1292,1293,1294,1295,1292,1293,1294,1295,1292,1293,1294,1295,1292,1293,1294,1295,1292,1293,1294,1295,1292,1293,1294,1295,1292,1293,1294,1295,1292,1293,1294,1295,1292,1293,1294,1295,1292,1293,1294,1295,1292,1293,1294,1295,1292,1293,1294,1295,1292,1293,1294,1295,1292,1293,1294,1295,1356,1357,1358,1359,1356,1357,1358,1359,1356,1357,1358,1359,1356,1357,1358,1359,1356,1357,1358,1359,1356,1357,1358,1359,1356,1357,1358,1359,1356,1357,1358,1359,1356,1357,1358,1359,1356,1357,1358,1359,1356,1357,1358,1359,1356,1357,1358,1359,1356,1357,1358,1359,1356,1357,1358,1359,1356,1357,1358,1359,1356,1357,1358,1359,1164,1165,1166,1167,1164,1165,1166,1167,1164,1165,1166,1167,1164,1165,1166,1167,1164,1165,1166,1167,1164,1165,1166,1167,1164,1165,1166,1167,1164,1165,1166,1167,1164,1165,1166,1167,1164,1165,1166,1167,1164,1165,1166,1167,1164,1165,1166,1167,1164,1165,1166,1167,1164,1165,1166,1167,1164,1165,1166,1167,1164,1165,1166,1167,1228,1229,1230,1231,1228,1229,1230,1231,1228,1229,1230,1231,1228,1229,1230,1231,1228,1229,1230,1231,1228,1229,1230,1231,1228,1229,1230,1231,1228,1229,1230,1231,1228,1229,1230,1231,1228,1229,1230,1231,1228,1229,1230,1231,1228,1229,1230,1231,1228,1229,1230,1231,1228,1229,1230,1231,1228,1229,1230,1231,1228,1229,1230,1231,1292,1293,1294,1295,1292,1293,1294,1295,1292,1293,1294,1295,1292,1293,1294,1295,1292,1293,1294,1295,1292,1293,1294,1295,1292,1293,1294,1295,1292,1293,1294,1295,1292,1293,1294,1295,1292,1293,1294,1295,1292,1293,1294,1295,1292,1293,1294,1295,1292,1293,1294,1295,1292,1293,1294,1295,1292,1293,1294,1295,1292,1293,1294,1295,1356,1357,1358,1359,1356,1357,1358,1359,1356,1357,1358,1359,1356,1357,1358,1359,1356,1357,1358,1359,1356,1357,1358,1359,1356,1357,1358,1359,1356,1357,1358,1359,1356,1357,1358,1359,1356,1357,1358,1359,1356,1357,1358,1359,1356,1357,1358,1359,1356,1357,1358,1359,1356,1357,1358,1359,1356,1357,1358,1359,1356,1357,1358,1359,1164,1165,1166,1167,1164,1165,1166,1167,1164,1165,1166,1167,1164,1165,1166,1167,1164,1165,1166,1167,1164,1165,1166,1167,1164,1165,1166,1167,1164,1165,1166,1167,1164,1165,1166,1167,1164,1165,1166,1167,1164,1165,1166,1167,1164,1165,1166,1167,1164,1165,1166,1167,1164,1165,1166,1167,1164,1165,1166,1167,1164,1165,1166,1167,1228,1229,1230,1231,1228,1229,1230,1231,1228,1229,1230,1231,1228,1229,1230,1231,1228,1229,1230,1231,1228,1229,1230,1231,1228,1229,1230,1231,1228,1229,1230,1231,1228,1229,1230,1231,1228,1229,1230,1231,1228,1229,1230,1231,1228,1229,1230,1231,1228,1229,1230,1231,1228,1229,1230,1231,1228,1229,1230,1231,1228,1229,1230,1231,1292,1293,1294,1295,1292,1293,1294,1295,1292,1293,1294,1295,1292,1293,1294,1295,1292,1293,1294,1295,1292,1293,1294,1295,1292,1293,1294,1295,1292,1293,1294,1295,1292,1293,1294,1295,1292,1293,1294,1295,1292,1293,1294,1295,1292,1293,1294,1295,1292,1293,1294,1295,1292,1293,1294,1295,1292,1293,1294,1295,1292,1293,1294,1295,1356,1357,1358,1359,1356,1357,1358,1359,1356,1357,1358,1359,1356,1357,1358,1359,1356,1357,1358,1359,1356,1357,1358,1359,1356,1357,1358,1359,1356,1357,1358,1359,1356,1357,1358,1359,1356,1357,1358,1359,1356,1357,1358,1359,1356,1357,1358,1359,1356,1357,1358,1359,1356,1357,1358,1359,1356,1357,1358,1359,1356,1357,1358,1359,1164,1165,1166,1167,1164,1165,1166,1167,1164,1165,1166,1167,1164,1165,1166,1167,1164,1165,1166,1167,1164,1165,1166,1167,1164,1165,1166,1167,1164,1165,1166,1167,1164,1165,1166,1167,1164,1165,1166,1167,1164,1165,1166,1167,1164,1165,1166,1167,1164,1165,1166,1167,1164,1165,1166,1167,1164,1165,1166,1167,1164,1165,1166,1167,1228,1229,1230,1231,1228,1229,1230,1231,1228,1229,1230,1231,1228,1229,1230,1231,1228,1229,1230,1231,1228,1229,1230,1231,1228,1229,1230,1231,1228,1229,1230,1231,1228,1229,1230,1231,1228,1229,1230,1231,1228,1229,1230,1231,1228,1229,1230,1231,1228,1229,1230,1231,1228,1229,1230,1231,1228,1229,1230,1231,1228,1229,1230,1231,1292,1293,1294,1295,1292,1293,1294,1295,1292,1293,1294,1295,1292,1293,1294,1295,1292,1293,1294,1295,1292,1293,1294,1295,1292,1293,1294,1295,1292,1293,1294,1295,1292,1293,1294,1295,1292,1293,1294,1295,1292,1293,1294,1295,1292,1293,1294,1295,1292,1293,1294,1295,1292,1293,1294,1295,1292,1293,1294,1295,1292,1293,1294,1295,1356,1357,1358,1359,1356,1357,1358,1359,1356,1357,1358,1359,1356,1357,1358,1359,1356,1357,1358,1359,1356,1357,1358,1359,1356,1357,1358,1359,1356,1357,1358,1359,1356,1357,1358,1359,1356,1357,1358,1359,1356,1357,1358,1359,1356,1357,1358,1359,1356,1357,1358,1359,1356,1357,1358,1359,1356,1357,1358,1359,1356,1357,1358,1359,1164,1165,1166,1167,1164,1165,1166,1167,1164,1165,1166,1167,1164,1165,1166,1167,1164,1165,1166,1167,1164,1165,1166,1167,1164,1165,1166,1167,1164,1165,1166,1167,1164,1165,1166,1167,1164,1165,1166,1167,1164,1165,1166,1167,1164,1165,1166,1167,1164,1165,1166,1167,1164,1165,1166,1167,1164,1165,1166,1167,1164,1165,1166,1167,1228,1229,1230,1231,1228,1229,1230,1231,1228,1229,1230,1231,1228,1229,1230,1231,1228,1229,1230,1231,1228,1229,1230,1231,1228,1229,1230,1231,1228,1229,1230,1231,1228,1229,1230,1231,1228,1229,1230,1231,1228,1229,1230,1231,1228,1229,1230,1231,1228,1229,1230,1231,1228,1229,1230,1231,1228,1229,1230,1231,1228,1229,1230,1231,1292,1293,1294,1295,1292,1293,1294,1295,1292,1293,1294,1295,1292,1293,1294,1295,1292,1293,1294,1295,1292,1293,1294,1295,1292,1293,1294,1295,1292,1293,1294,1295,1292,1293,1294,1295,1292,1293,1294,1295,1292,1293,1294,1295,1292,1293,1294,1295,1292,1293,1294,1295,1292,1293,1294,1295,1292,1293,1294,1295,1292,1293,1294,1295,1356,1357,1358,1359,1356,1357,1358,1359,1356,1357,1358,1359,1356,1357,1358,1359,1356,1357,1358,1359,1356,1357,1358,1359,1356,1357,1358,1359,1356,1357,1358,1359,1356,1357,1358,1359,1356,1357,1358,1359,1356,1357,1358,1359,1356,1357,1358,1359,1356,1357,1358,1359,1356,1357,1358,1359,1356,1357,1358,1359,1356,1357,1358,1359,1164,1165,1166,1167,1164,1165,1166,1167,1164,1165,1166,1167,1164,1165,1166,1167,1164,1165,1166,1167,1164,1165,1166,1167,1164,1165,1166,1167,1164,1165,1166,1167,1164,1165,1166,1167,1164,1165,1166,1167,1164,1165,1166,1167,1164,1165,1166,1167,1164,1165,1166,1167,1164,1165,1166,1167,1164,1165,1166,1167,1164,1165,1166,1167,1228,1229,1230,1231,1228,1229,1230,1231,1228,1229,1230,1231,1228,1229,1230,1231,1228,1229,1230,1231,1228,1229,1230,1231,1228,1229,1230,1231,1228,1229,1230,1231,1228,1229,1230,1231,1228,1229,1230,1231,1228,1229,1230,1231,1228,1229,1230,1231,1228,1229,1230,1231,1228,1229,1230,1231,1228,1229,1230,1231,1228,1229,1230,1231,1292,1293,1294,1295,1292,1293,1294,1295,1292,1293,1294,1295,1292,1293,1294,1295,1292,1293,1294,1295,1292,1293,1294,1295,1292,1293,1294,1295,1292,1293,1294,1295,1292,1293,1294,1295,1292,1293,1294,1295,1292,1293,1294,1295,1292,1293,1294,1295,1292,1293,1294,1295,1292,1293,1294,1295,1292,1293,1294,1295,1292,1293,1294,1295,1356,1357,1358,1359,1356,1357,1358,1359,1356,1357,1358,1359,1356,1357,1358,1359,1356,1357,1358,1359,1356,1357,1358,1359,1356,1357,1358,1359,1356,1357,1358,1359,1356,1357,1358,1359,1356,1357,1358,1359,1356,1357,1358,1359,1356,1357,1358,1359,1356,1357,1358,1359,1356,1357,1358,1359,1356,1357,1358,1359,1356,1357,1358,1359,1164,1165,1166,1167,1164,1165,1166,1167,1164,1165,1166,1167,1164,1165,1166,1167,1164,1165,1166,1167,1164,1165,1166,1167,1164,1165,1166,1167,1164,1165,1166,1167,1164,1165,1166,1167,1164,1165,1166,1167,1164,1165,1166,1167,1164,1165,1166,1167,1164,1165,1166,1167,1164,1165,1166,1167,1164,1165,1166,1167,1164,1165,1166,1167,1228,1229,1230,1231,1228,1229,1230,1231,1228,1229,1230,1231,1228,1229,1230,1231,1228,1229,1230,1231,1228,1229,1230,1231,1228,1229,1230,1231,1228,1229,1230,1231,1228,1229,1230,1231,1228,1229,1230,1231,1228,1229,1230,1231,1228,1229,1230,1231,1228,1229,1230,1231,1228,1229,1230,1231,1228,1229,1230,1231,1228,1229,1230,1231,1292,1293,1294,1295,1292,1293,1294,1295,1292,1293,1294,1295,1292,1293,1294,1295,1292,1293,1294,1295,1292,1293,1294,1295,1292,1293,1294,1295,1292,1293,1294,1295,1292,1293,1294,1295,1292,1293,1294,1295,1292,1293,1294,1295,1292,1293,1294,1295,1292,1293,1294,1295,1292,1293,1294,1295,1292,1293,1294,1295,1292,1293,1294,1295,1356,1357,1358,1359,1356,1357,1358,1359,1356,1357,1358,1359,1356,1357,1358,1359,1356,1357,1358,1359,1356,1357,1358,1359,1356,1357,1358,1359,1356,1357,1358,1359,1356,1357,1358,1359,1356,1357,1358,1359,1356,1357,1358,1359,1356,1357,1358,1359,1356,1357,1358,1359,1356,1357,1358,1359,1356,1357,1358,1359,1356,1357,1358,1359,1164,1165,1166,1167,1164,1165,1166,1167,1164,1165,1166,1167,1164,1165,1166,1167,1164,1165,1166,1167,1164,1165,1166,1167,1164,1165,1166,1167,1164,1165,1166,1167,1164,1165,1166,1167,1164,1165,1166,1167,1164,1165,1166,1167,1164,1165,1166,1167,1164,1165,1166,1167,1164,1165,1166,1167,1164,1165,1166,1167,1164,1165,1166,1167,1228,1229,1230,1231,1228,1229,1230,1231,1228,1229,1230,1231,1228,1229,1230,1231,1228,1229,1230,1231,1228,1229,1230,1231,1228,1229,1230,1231,1228,1229,1230,1231,1228,1229,1230,1231,1228,1229,1230,1231,1228,1229,1230,1231,1228,1229,1230,1231,1228,1229,1230,1231,1228,1229,1230,1231,1228,1229,1230,1231,1228,1229,1230,1231,1292,1293,1294,1295,1292,1293,1294,1295,1292,1293,1294,1295,1292,1293,1294,1295,1292,1293,1294,1295,1292,1293,1294,1295,1292,1293,1294,1295,1292,1293,1294,1295,1292,1293,1294,1295,1292,1293,1294,1295,1292,1293,1294,1295,1292,1293,1294,1295,1292,1293,1294,1295,1292,1293,1294,1295,1292,1293,1294,1295,1292,1293,1294,1295,1356,1357,1358,1359,1356,1357,1358,1359,1356,1357,1358,1359,1356,1357,1358,1359,1356,1357,1358,1359,1356,1357,1358,1359,1356,1357,1358,1359,1356,1357,1358,1359,1356,1357,1358,1359,1356,1357,1358,1359,1356,1357,1358,1359,1356,1357,1358,1359,1356,1357,1358,1359,1356,1357,1358,1359,1356,1357,1358,1359,1356,1357,1358,1359,1164,1165,1166,1167,1164,1165,1166,1167,1164,1165,1166,1167,1164,1165,1166,1167,1164,1165,1166,1167,1164,1165,1166,1167,1164,1165,1166,1167,1164,1165,1166,1167,1164,1165,1166,1167,1164,1165,1166,1167,1164,1165,1166,1167,1164,1165,1166,1167,1164,1165,1166,1167,1164,1165,1166,1167,1164,1165,1166,1167,1164,1165,1166,1167,1228,1229,1230,1231,1228,1229,1230,1231,1228,1229,1230,1231,1228,1229,1230,1231,1228,1229,1230,1231,1228,1229,1230,1231,1228,1229,1230,1231,1228,1229,1230,1231,1228,1229,1230,1231,1228,1229,1230,1231,1228,1229,1230,1231,1228,1229,1230,1231,1228,1229,1230,1231,1228,1229,1230,1231,1228,1229,1230,1231,1228,1229,1230,1231,1292,1293,1294,1295,1292,1293,1294,1295,1292,1293,1294,1295,1292,1293,1294,1295,1292,1293,1294,1295,1292,1293,1294,1295,1292,1293,1294,1295,1292,1293,1294,1295,1292,1293,1294,1295,1292,1293,1294,1295,1292,1293,1294,1295,1292,1293,1294,1295,1292,1293,1294,1295,1292,1293,1294,1295,1292,1293,1294,1295,1292,1293,1294,1295,1356,1357,1358,1359,1356,1357,1358,1359,1356,1357,1358,1359,1356,1357,1358,1359,1356,1357,1358,1359,1356,1357,1358,1359,1356,1357,1358,1359,1356,1357,1358,1359,1356,1357,1358,1359,1356,1357,1358,1359,1356,1357,1358,1359,1356,1357,1358,1359,1356,1357,1358,1359,1356,1357,1358,1359,1356,1357,1358,1359,1356,1357,1358,1359,1164,1165,1166,1167,1164,1165,1166,1167,1164,1165,1166,1167,1164,1165,1166,1167,1164,1165,1166,1167,1164,1165,1166,1167,1164,1165,1166,1167,1164,1165,1166,1167,1164,1165,1166,1167,1164,1165,1166,1167,1164,1165,1166,1167,1164,1165,1166,1167,1164,1165,1166,1167,1164,1165,1166,1167,1164,1165,1166,1167,1164,1165,1166,1167,1228,1229,1230,1231,1228,1229,1230,1231,1228,1229,1230,1231,1228,1229,1230,1231,1228,1229,1230,1231,1228,1229,1230,1231,1228,1229,1230,1231,1228,1229,1230,1231,1228,1229,1230,1231,1228,1229,1230,1231,1228,1229,1230,1231,1228,1229,1230,1231,1228,1229,1230,1231,1228,1229,1230,1231,1228,1229,1230,1231,1228,1229,1230,1231,1292,1293,1294,1295,1292,1293,1294,1295,1292,1293,1294,1295,1292,1293,1294,1295,1292,1293,1294,1295,1292,1293,1294,1295,1292,1293,1294,1295,1292,1293,1294,1295,1292,1293,1294,1295,1292,1293,1294,1295,1292,1293,1294,1295,1292,1293,1294,1295,1292,1293,1294,1295,1292,1293,1294,1295,1292,1293,1294,1295,1292,1293,1294,1295,1356,1357,1358,1359,1356,1357,1358,1359,1356,1357,1358,1359,1356,1357,1358,1359,1356,1357,1358,1359,1356,1357,1358,1359,1356,1357,1358,1359,1356,1357,1358,1359,1356,1357,1358,1359,1356,1357,1358,1359,1356,1357,1358,1359,1356,1357,1358,1359,1356,1357,1358,1359,1356,1357,1358,1359,1356,1357,1358,1359,1356,1357,1358,1359,1164,1165,1166,1167,1164,1165,1166,1167,1164,1165,1166,1167,1164,1165,1166,1167,1164,1165,1166,1167,1164,1165,1166,1167,1164,1165,1166,1167,1164,1165,1166,1167,1164,1165,1166,1167,1164,1165,1166,1167,1164,1165,1166,1167,1164,1165,1166,1167,1164,1165,1166,1167,1164,1165,1166,1167,1164,1165,1166,1167,1164,1165,1166,1167,1228,1229,1230,1231,1228,1229,1230,1231,1228,1229,1230,1231,1228,1229,1230,1231,1228,1229,1230,1231,1228,1229,1230,1231,1228,1229,1230,1231,1228,1229,1230,1231,1228,1229,1230,1231,1228,1229,1230,1231,1228,1229,1230,1231,1228,1229,1230,1231,1228,1229,1230,1231,1228,1229,1230,1231,1228,1229,1230,1231,1228,1229,1230,1231,1292,1293,1294,1295,1292,1293,1294,1295,1292,1293,1294,1295,1292,1293,1294,1295,1292,1293,1294,1295,1292,1293,1294,1295,1292,1293,1294,1295,1292,1293,1294,1295,1292,1293,1294,1295,1292,1293,1294,1295,1292,1293,1294,1295,1292,1293,1294,1295,1292,1293,1294,1295,1292,1293,1294,1295,1292,1293,1294,1295,1292,1293,1294,1295,1356,1357,1358,1359,1356,1357,1358,1359,1356,1357,1358,1359,1356,1357,1358,1359,1356,1357,1358,1359,1356,1357,1358,1359,1356,1357,1358,1359,1356,1357,1358,1359,1356,1357,1358,1359,1356,1357,1358,1359,1356,1357,1358,1359,1356,1357,1358,1359,1356,1357,1358,1359,1356,1357,1358,1359,1356,1357,1358,1359,1356,1357,1358,1359,1164,1165,1166,1167,1164,1165,1166,1167,1164,1165,1166,1167,1164,1165,1166,1167,1164,1165,1166,1167,1164,1165,1166,1167,1164,1165,1166,1167,1164,1165,1166,1167,1164,1165,1166,1167,1164,1165,1166,1167,1164,1165,1166,1167,1164,1165,1166,1167,1164,1165,1166,1167,1164,1165,1166,1167,1164,1165,1166,1167,1164,1165,1166,1167,1228,1229,1230,1231,1228,1229,1230,1231,1228,1229,1230,1231,1228,1229,1230,1231,1228,1229,1230,1231,1228,1229,1230,1231,1228,1229,1230,1231,1228,1229,1230,1231,1228,1229,1230,1231,1228,1229,1230,1231,1228,1229,1230,1231,1228,1229,1230,1231,1228,1229,1230,1231,1228,1229,1230,1231,1228,1229,1230,1231,1228,1229,1230,1231,1292,1293,1294,1295,1292,1293,1294,1295,1292,1293,1294,1295,1292,1293,1294,1295,1292,1293,1294,1295,1292,1293,1294,1295,1292,1293,1294,1295,1292,1293,1294,1295,1292,1293,1294,1295,1292,1293,1294,1295,1292,1293,1294,1295,1292,1293,1294,1295,1292,1293,1294,1295,1292,1293,1294,1295,1292,1293,1294,1295,1292,1293,1294,1295,1356,1357,1358,1359,1356,1357,1358,1359,1356,1357,1358,1359,1356,1357,1358,1359,1356,1357,1358,1359,1356,1357,1358,1359,1356,1357,1358,1359,1356,1357,1358,1359,1356,1357,1358,1359,1356,1357,1358,1359,1356,1357,1358,1359,1356,1357,1358,1359,1356,1357,1358,1359,1356,1357,1358,1359,1356,1357,1358,1359,1356,1357,1358,1359,1164,1165,1166,1167,1164,1165,1166,1167,1164,1165,1166,1167,1164,1165,1166,1167,1164,1165,1166,1167,1164,1165,1166,1167,1164,1165,1166,1167,1164,1165,1166,1167,1164,1165,1166,1167,1164,1165,1166,1167,1164,1165,1166,1167,1164,1165,1166,1167,1164,1165,1166,1167,1164,1165,1166,1167,1164,1165,1166,1167,1164,1165,1166,1167,1228,1229,1230,1231,1228,1229,1230,1231,1228,1229,1230,1231,1228,1229,1230,1231,1228,1229,1230,1231,1228,1229,1230,1231,1228,1229,1230,1231,1228,1229,1230,1231,1228,1229,1230,1231,1228,1229,1230,1231,1228,1229,1230,1231,1228,1229,1230,1231,1228,1229,1230,1231,1228,1229,1230,1231,1228,1229,1230,1231,1228,1229,1230,1231,1292,1293,1294,1295,1292,1293,1294,1295,1292,1293,1294,1295,1292,1293,1294,1295,1292,1293,1294,1295,1292,1293,1294,1295,1292,1293,1294,1295,1292,1293,1294,1295,1292,1293,1294,1295,1292,1293,1294,1295,1292,1293,1294,1295,1292,1293,1294,1295,1292,1293,1294,1295,1292,1293,1294,1295,1292,1293,1294,1295,1292,1293,1294,1295,1356,1357,1358,1359,1356,1357,1358,1359,1356,1357,1358,1359,1356,1357,1358,1359,1356,1357,1358,1359,1356,1357,1358,1359,1356,1357,1358,1359,1356,1357,1358,1359,1356,1357,1358,1359,1356,1357,1358,1359,1356,1357,1358,1359,1356,1357,1358,1359,1356,1357,1358,1359,1356,1357,1358,1359,1356,1357,1358,1359,1356,1357,1358,1359,1164,1165,1166,1167,1164,1165,1166,1167,1164,1165,1166,1167,1164,1165,1166,1167,1164,1165,1166,1167,1164,1165,1166,1167,1164,1165,1166,1167,1164,1165,1166,1167,1164,1165,1166,1167,1164,1165,1166,1167,1164,1165,1166,1167,1164,1165,1166,1167,1164,1165,1166,1167,1164,1165,1166,1167,1164,1165,1166,1167,1164,1165,1166,1167,1228,1229,1230,1231,1228,1229,1230,1231,1228,1229,1230,1231,1228,1229,1230,1231,1228,1229,1230,1231,1228,1229,1230,1231,1228,1229,1230,1231,1228,1229,1230,1231,1228,1229,1230,1231,1228,1229,1230,1231,1228,1229,1230,1231,1228,1229,1230,1231,1228,1229,1230,1231,1228,1229,1230,1231,1228,1229,1230,1231,1228,1229,1230,1231,1292,1293,1294,1295,1292,1293,1294,1295,1292,1293,1294,1295,1292,1293,1294,1295,1292,1293,1294,1295,1292,1293,1294,1295,1292,1293,1294,1295,1292,1293,1294,1295,1292,1293,1294,1295,1292,1293,1294,1295,1292,1293,1294,1295,1292,1293,1294,1295,1292,1293,1294,1295,1292,1293,1294,1295,1292,1293,1294,1295,1292,1293,1294,1295,1356,1357,1358,1359,1356,1357,1358,1359,1356,1357,1358,1359,1356,1357,1358,1359,1356,1357,1358,1359,1356,1357,1358,1359,1356,1357,1358,1359,1356,1357,1358,1359,1356,1357,1358,1359,1356,1357,1358,1359,1356,1357,1358,1359,1356,1357,1358,1359,1356,1357,1358,1359,1356,1357,1358,1359,1356,1357,1358,1359,1356,1357,1358,1359,1164,1165,1166,1167,1164,1165,1166,1167,1164,1165,1166,1167,1164,1165,1166,1167,1164,1165,1166,1167,1164,1165,1166,1167,1164,1165,1166,1167,1164,1165,1166,1167,1164,1165,1166,1167,1164,1165,1166,1167,1164,1165,1166,1167,1164,1165,1166,1167,1164,1165,1166,1167,1164,1165,1166,1167,1164,1165,1166,1167,1164,1165,1166,1167,1228,1229,1230,1231,1228,1229,1230,1231,1228,1229,1230,1231,1228,1229,1230,1231,1228,1229,1230,1231,1228,1229,1230,1231,1228,1229,1230,1231,1228,1229,1230,1231,1228,1229,1230,1231,1228,1229,1230,1231,1228,1229,1230,1231,1228,1229,1230,1231,1228,1229,1230,1231,1228,1229,1230,1231,1228,1229,1230,1231,1228,1229,1230,1231,1292,1293,1294,1295,1292,1293,1294,1295,1292,1293,1294,1295,1292,1293,1294,1295,1292,1293,1294,1295,1292,1293,1294,1295,1292,1293,1294,1295,1292,1293,1294,1295,1292,1293,1294,1295,1292,1293,1294,1295,1292,1293,1294,1295,1292,1293,1294,1295,1292,1293,1294,1295,1292,1293,1294,1295,1292,1293,1294,1295,1292,1293,1294,1295,1356,1357,1358,1359,1356,1357,1358,1359,1356,1357,1358,1359,1356,1357,1358,1359,1356,1357,1358,1359,1356,1357,1358,1359,1356,1357,1358,1359,1356,1357,1358,1359,1356,1357,1358,1359,1356,1357,1358,1359,1356,1357,1358,1359,1356,1357,1358,1359,1356,1357,1358,1359,1356,1357,1358,1359,1356,1357,1358,1359,1356,1357,1358,1359,1164,1165,1166,1167,1164,1165,1166,1167,1164,1165,1166,1167,1164,1165,1166,1167,1164,1165,1166,1167,1164,1165,1166,1167,1164,1165,1166,1167,1164,1165,1166,1167,1164,1165,1166,1167,1164,1165,1166,1167,1164,1165,1166,1167,1164,1165,1166,1167,1164,1165,1166,1167,1164,1165,1166,1167,1164,1165,1166,1167,1164,1165,1166,1167,1228,1229,1230,1231,1228,1229,1230,1231,1228,1229,1230,1231,1228,1229,1230,1231,1228,1229,1230,1231,1228,1229,1230,1231,1228,1229,1230,1231,1228,1229,1230,1231,1228,1229,1230,1231,1228,1229,1230,1231,1228,1229,1230,1231,1228,1229,1230,1231,1228,1229,1230,1231,1228,1229,1230,1231,1228,1229,1230,1231,1228,1229,1230,1231]},{"id":8,"name":"seafx","type":"tilelayer","width":64,"height":150,"x":0,"y":0,"opacity":1,"visible":true,"data":[0,0,0,0,0,0,0,0,0,0,0,0,0,0,0,0,0,0,0,0,0,0,0,0,0,0,0,0,0,0,0,0,0,0,0,0,0,0,0,0,0,0,0,0,0,0,0,0,0,0,0,0,0,0,0,0,0,0,0,0,0,0,0,0,0,0,0,0,0,0,0,0,0,0,0,0,0,0,0,0,0,0,0,0,0,0,0,0,0,0,0,0,0,0,0,1420,0,0,0,0,0,0,0,0,0,0,0,0,0,0,0,0,0,0,0,0,0,0,0,0,0,0,0,0,0,0,0,0,0,0,0,0,0,0,0,0,0,0,0,0,0,0,0,0,1420,0,0,0,0,0,0,0,0,0,0,1422,0,0,0,0,0,0,0,0,0,0,0,0,0,0,0,0,0,0,0,0,0,1423,0,0,0,0,0,0,0,0,1423,0,0,0,1420,0,0,0,0,0,0,0,0,1420,0,0,0,0,0,0,0,0,0,0,0,0,0,0,0,0,0,0,0,0,1421,0,0,0,0,0,0,0,1423,0,1420,0,0,0,0,1421,1423,0,0,0,0,0,0,0,0,0,0,0,1423,0,0,0,0,0,0,0,0,0,0,0,0,0,0,0,0,0,0,0,0,0,0,0,0,0,0,0,0,0,0,0,0,0,0,0,0,0,0,0,0,0,1422,0,0,0,0,0,0,0,0,1423,0,0,0,0,1423,0,0,0,0,0,0,0,1423,0,0,0,0,0,0,0,0,0,0,0,1420,0,0,0,0,0,0,0,0,0,0,0,0,0,0,0,0,0,0,0,0,0,0,0,0,0,0,0,0,0,0,0,0,0,0,0,0,1420,0,0,0,0,0,0,0,0,0,0,0,0,0,0,0,0,0,0,0,0,0,0,0,0,0,0,0,0,0,0,0,0,0,0,0,0,0,0,0,0,0,0,0,0,0,0,0,0,0,0,0,0,0,0,0,0,0,0,0,0,0,0,0,0,0,0,0,0,0,0,0,0,0,0,0,0,0,0,0,0,0,0,0,1423,1423,0,0,0,0,0,0,0,0,1422,0,0,0,0,0,0,0,1423,0,0,0,0,0,0,0,0,0,0,0,0,0,0,0,0,0,0,0,0,0,0,0,0,0,0,0,0,0,0,0,0,0,0,0,0,1421,0,0,0,0,0,0,0,0,0,0,0,0,0,0,0,0,0,0,0,0,0,0,0,0,0,0,0,0,0,0,0,0,0,0,0,0,0,0,0,0,0,0,0,0,0,0,0,0,0,0,0,0,0,0,0,0,0,0,0,0,0,0,0,0,0,0,1421,0,0,0,0,0,0,0,0,0,0,0,0,0,0,0,0,0,0,1423,0,1422,0,0,0,0,0,0,0,0,0,0,0,0,0,0,0,0,0,0,0,0,0,0,0,0,0,0,0,0,0,0,0,0,0,0,0,0,0,0,0,0,0,0,0,0,0,0,0,0,0,0,0,0,0,0,0,0,0,0,0,0,0,0,0,0,0,0,0,0,0,0,0,0,0,0,0,0,0,0,0,0,0,0,0,0,0,0,0,0,0,0,0,0,0,0,0,0,0,0,0,0,0,0,0,0,0,0,0,0,0,0,0,0,0,0,0,0,0,0,0,0,0,0,0,0,0,0,0,0,0,0,0,0,0,0,0,0,0,0,0,0,0,0,0,0,0,0,0,0,0,0,0,0,0,0,0,0,0,0,0,0,0,0,0,0,0,0,0,0,0,0,0,0,0,0,0,1420,0,0,0,0,0,0,0,0,0,0,0,0,0,0,0,0,0,0,0,0,0,0,0,0,0,0,0,0,0,0,0,0,0,0,0,0,0,0,0,0,0,0,0,0,0,0,0,0,0,0,0,0,0,0,0,0,0,0,0,0,0,0,0,0,0,0,0,0,0,0,0,0,0,0,0,0,0,0,0,0,0,0,0,0,0,0,0,0,0,0,0,0,0,0,0,0,0,0,0,0,0,0,0,0,0,0,0,0,0,0,0,0,0,0,0,0,0,0,0,0,0,0,0,0,0,0,0,0,0,0,0,0,0,0,0,0,0,0,0,0,0,0,0,0,0,0,0,0,0,0,0,0,0,0,0,0,0,0,0,0,0,0,0,0,0,0,0,0,0,0,0,0,0,0,0,0,0,0,0,0,0,0,0,0,0,0,0,0,0,0,0,0,0,0,0,0,0,0,0,0,0,0,0,0,0,0,0,0,0,0,0,0,0,0,0,0,0,0,0,0,0,0,0,0,0,0,0,0,0,0,0,0,0,0,0,0,0,0,0,0,0,0,0,0,0,0,0,0,0,0,0,0,0,0,0,1423,0,1423,0,0,0,0,0,1423,1422,0,0,0,0,0,0,0,0,0,0,0,0,0,0,0,0,0,0,0,0,0,0,0,0,0,0,0,0,0,0,0,0,0,0,0,0,0,0,0,0,0,0,0,0,0,0,0,0,0,0,0,0,0,0,0,0,0,0,0,0,0,0,0,0,0,0,0,0,0,0,0,0,0,0,0,0,0,0,0,0,0,0,0,0,0,0,0,0,0,0,0,0,0,0,0,0,0,0,0,0,0,0,0,0,0,0,0,0,0,0,0,0,0,0,0,0,1420,0,0,0,0,0,0,0,0,0,0,0,0,0,0,0,0,0,0,0,0,0,0,0,0,0,0,0,0,0,0,0,0,0,0,0,0,0,0,0,0,0,0,0,0,0,0,0,0,0,0,0,0,0,0,0,0,0,0,0,0,0,0,0,0,0,0,0,0,0,0,0,0,0,0,0,0,0,0,0,0,0,0,0,0,0,0,0,0,0,0,0,0,0,0,0,0,0,0,0,0,0,0,0,0,0,0,0,0,0,0,0,0,0,0,0,0,0,0,0,0,0,0,0,0,0,0,0,0,0,0,0,0,0,0,0,0,0,0,0,0,0,0,0,0,0,0,0,0,0,0,0,0,0,0,0,0,0,0,0,0,0,0,0,0,0,0,0,0,0,0,0,0,0,0,0,0,0,0,0,0,0,0,0,0,0,0,0,0,0,0,0,0,0,0,0,0,0,0,0,0,0,0,0,0,0,0,0,0,0,0,0,0,0,0,0,0,0,0,0,0,0,0,0,0,0,0,0,0,0,0,0,0,0,0,0,0,0,0,0,0,0,0,0,0,0,0,0,0,0,0,0,0,0,0,0,0,0,0,0,0,0,0,0,0,0,0,0,0,0,0,0,0,0,0,0,0,0,0,0,0,0,0,0,0,0,0,0,0,0,0,0,0,0,0,0,0,0,0,0,0,0,0,0,0,0,0,0,0,0,0,0,0,0,0,0,0,0,0,0,0,0,0,0,0,0,0,0,0,0,0,0,0,0,0,0,0,0,0,0,0,0,0,0,0,0,0,0,0,0,0,0,0,0,0,0,0,0,0,0,0,0,0,0,0,0,0,0,0,0,0,0,0,0,0,0,0,0,0,0,0,0,0,0,0,0,0,0,0,0,0,0,0,0,0,0,0,0,0,0,0,0,0,0,0,0,0,0,0,0,0,0,0,0,0,0,0,0,0,0,0,0,0,0,0,0,0,0,0,0,0,0,0,0,0,0,0,0,0,0,0,0,0,0,0,0,0,0,0,0,0,0,0,0,0,0,0,0,0,0,0,0,0,0,0,0,0,0,0,0,0,0,0,0,0,0,0,0,0,0,0,0,0,0,0,0,0,0,0,0,0,0,0,0,0,0,0,0,0,0,0,0,0,0,0,0,0,0,0,0,0,0,0,0,0,0,0,0,0,0,0,0,0,0,0,0,0,0,0,0,0,0,0,0,0,0,0,0,0,0,0,0,0,0,0,0,0,0,0,0,0,0,0,0,0,0,0,0,0,0,0,0,0,0,0,0,0,0,0,0,0,0,0,0,0,0,0,0,0,0,0,0,0,0,0,0,0,0,0,0,0,0,0,0,0,0,0,0,0,0,0,0,0,0,0,0,0,0,0,0,0,0,0,0,0,0,0,0,0,0,0,0,0,0,0,0,0,0,0,0,0,0,0,0,0,0,0,0,0,0,0,0,0,0,0,0,0,0,0,0,0,0,0,0,0,0,0,0,0,0,0,0,0,0,0,0,0,0,0,0,0,0,0,0,0,0,0,0,0,0,0,0,0,0,0,0,0,0,0,0,0,0,0,0,0,0,0,0,0,0,0,0,0,0,0,0,0,0,0,0,0,0,0,0,0,0,0,0,0,0,0,0,0,0,0,0,0,0,0,0,0,0,0,0,0,0,0,0,0,0,0,0,0,0,0,0,0,0,0,0,0,0,0,0,0,0,0,0,0,0,0,0,0,0,0,0,0,0,0,0,0,0,0,0,0,0,0,0,0,0,0,0,0,0,0,0,0,0,0,0,0,0,0,0,0,0,0,0,0,0,0,0,0,0,0,0,0,0,0,0,0,0,0,0,0,0,0,0,0,0,0,0,0,0,0,0,0,0,0,0,0,0,0,0,0,0,0,0,0,0,1420,0,0,0,0,0,0,0,0,0,0,0,0,0,0,0,0,0,0,0,0,0,0,0,0,0,0,0,0,0,0,0,0,0,0,0,0,0,0,0,0,0,0,0,0,0,0,0,0,0,0,0,0,0,0,0,0,0,1421,0,0,0,0,0,0,0,0,0,0,0,0,0,0,0,0,0,0,0,0,0,0,0,0,0,0,0,0,0,0,0,0,0,0,0,0,0,0,0,0,0,0,0,0,0,0,0,0,0,0,0,0,0,0,0,0,0,0,0,0,0,0,0,0,0,0,0,0,0,0,0,0,0,0,0,0,0,0,0,0,0,0,0,0,0,0,0,0,0,0,0,0,0,0,0,0,0,0,0,0,0,0,0,0,0,0,0,0,0,0,0,0,0,0,0,0,0,0,0,0,0,0,0,0,0,0,0,0,0,0,0,0,0,0,1422,1420,0,0,0,0,0,0,0,0,0,0,0,0,0,0,0,0,0,0,0,0,0,0,0,0,0,0,0,0,0,0,0,0,0,0,0,0,0,0,0,0,0,0,0,0,0,0,0,0,0,0,0,0,0,0,0,0,0,0,0,0,0,0,0,0,0,0,0,0,0,0,0,0,0,0,0,0,0,0,0,0,0,0,0,0,0,0,0,0,0,0,0,0,0,0,0,0,0,0,0,0,0,0,0,0,0,0,0,0,0,0,0,0,0,0,0,0,0,0,0,0,0,0,0,0,0,0,0,0,0,0,0,0,0,0,0,0,0,0,0,0,0,0,0,0,0,0,0,0,0,0,0,0,0,0,0,0,0,0,0,0,0,0,0,0,0,0,0,0,0,0,0,0,0,0,0,0,0,0,0,0,0,0,0,0,0,0,0,0,0,0,0,0,0,0,0,0,0,0,0,0,0,0,0,0,0,0,0,0,0,0,0,0,0,0,0,0,0,0,0,0,0,0,0,0,0,0,0,0,0,0,0,0,0,0,0,0,0,0,0,0,0,0,0,0,0,0,0,0,0,0,0,0,0,0,0,0,0,0,0,0,0,0,0,0,0,0,0,0,0,0,0,0,0,0,0,0,0,0,0,0,0,0,0,0,0,0,0,0,0,0,0,0,0,0,0,0,0,0,0,0,0,0,0,0,0,0,0,0,0,0,0,0,0,1421,0,0,0,0,0,0,0,1422,0,0,0,0,0,0,0,0,0,0,0,0,0,0,0,0,0,0,0,0,0,0,0,0,0,0,0,0,0,0,0,0,0,0,0,0,0,0,0,0,0,0,0,0,0,0,0,0,0,0,0,0,0,0,0,1420,0,0,0,1421,0,0,0,0,0,0,0,0,0,1420,0,0,0,0,0,0,0,0,0,0,0,0,0,0,0,0,0,0,0,0,0,0,0,0,0,0,0,0,0,0,0,0,0,0,0,0,0,0,0,0,0,0,0,0,0,0,0,0,0,0,0,0,0,0,0,0,0,0,0,0,1420,0,0,0,0,0,0,0,0,0,0,0,0,0,0,0,0,0,0,0,0,0,0,0,0,0,0,0,0,0,0,0,0,0,0,0,0,0,0,0,0,0,0,0,0,0,0,0,0,0,0,0,0,0,0,0,0,0,0,0,0,0,0,0,0,0,0,0,0,0,0,0,0,0,0,0,0,0,0,0,0,0,0,0,0,0,0,0,0,0,0,0,0,0,0,0,0,0,0,0,0,0,0,0,0,1421,0,1421,0,0,0,0,0,1421,0,0,1421,0,0,0,0,0,0,0,0,0,0,0,0,1420,0,0,0,0,0,0,0,0,0,0,0,0,0,0,0,0,0,0,0,0,0,0,0,0,0,0,0,0,0,0,0,0,0,0,0,0,0,0,0,0,0,0,1420,0,0,0,1420,0,0,0,0,0,0,0,0,0,0,0,0,0,0,0,0,1420,0,0,0,0,0,0,0,0,0,0,0,0,0,0,0,0,0,0,0,0,0,0,0,0,0,0,0,0,0,0,0,0,0,0,0,0,0,0,0,0,0,0,0,0,0,1423,0,0,0,0,0,1420,0,0,0,0,0,0,0,0,0,0,0,0,0,0,0,0,0,0,0,0,0,0,0,0,0,0,0,0,0,0,0,0,0,0,0,0,0,0,0,0,0,0,0,0,0,0,0,0,0,1422,0,0,0,1421,0,0,0,0,0,0,0,1423,0,0,0,0,0,0,0,0,0,0,0,0,0,0,0,0,1421,0,0,0,0,0,0,0,0,0,0,0,0,0,0,0,0,0,0,0,0,0,0,0,0,0,1422,0,0,0,0,0,0,0,0,0,0,0,0,0,0,0,0,0,0,1420,0,0,0,0,0,0,0,0,0,0,0,0,1423,0,0,0,0,0,0,0,0,0,0,0,0,0,0,0,0,0,0,0,0,0,0,0,0,0,0,0,0,0,0,0,0,0,0,0,0,0,0,1422,0,0,0,0,0,0,0,0,0,0,0,0,0,0,0,0,0,0,0,0,0,0,1420,0,0,0,0,0,0,0,1420,0,0,0,0,0,0,0,0,0,0,0,0,0,0,0,0,0,0,0,0,0,0,0,0,0,0,0,0,0,0,0,0,0,0,1420,0,0,0,0,0,0,0,0,0,0,0,0,0,0,0,0,0,0,0,0,0,0,0,0,0,0,0,0,0,0,0,0,0,0,0,0,1420,0,0,0,0,0,0,0,0,0,0,0,0,0,0,0,0,0,0,0,0,0,0,0,0,0,0,0,0,0,0,0,0,0,0,0,0,0,0,0,0,0,0,0,0,0,0,0,0,1422,0,0,0,0,1423,0,0,0,0,0,0,0,0,0,0,0,0,0,0,0,0,0,0,1423,0,0,0,0,0,0,0,0,0,0,0,0,0,0,0,0,0,0,0,0,0,0,0,0,0,0,0,0,0,0,0,0,0,0,0,1421,0,0,0,0,0,0,0,1423,0,0,0,0,0,1422,0,1423,0,1421,0,0,0,0,1421,0,0,0,1422,0,0,0,0,0,0,0,0,0,0,0,0,0,0,0,0,0,0,0,1420,0,0,0,0,0,0,1423,0,0,0,0,0,0,0,0,0,0,0,0,0,0,0,0,0,0,0,0,1423,0,0,0,0,0,0,0,0,0,0,0,0,0,0,0,0,1420,0,0,0,0,0,0,0,0,0,0,0,0,0,0,0,0,0,0,0,0,0,0,0,0,0,0,0,0,0,0,0,0,0,0,0,0,0,0,0,0,0,0,0,0,0,0,0,0,0,0,0,0,0,1422,1420,0,0,0,0,0,0,0,0,0,0,0,0,0,0,0,0,0,0,0,0,0,0,0,0,0,0,0,0,0,0,0,0,0,0,0,0,0,0,0,0,0,0,0,0,0,0,0,0,0,0,0,0,0,0,0,0,0,0,0,0,0,0,0,0,0,0,0,0,0,0,0,0,0,0,0,0,0,0,0,0,0,0,0,0,0,0,0,0,0,0,0,0,0,0,0,0,0,0,0,1421,1423,0,0,0,0,0,0,0,0,0,0,0,0,0,0,0,0,0,0,0,0,0,1423,0,0,0,0,0,0,0,0,0,0,0,0,0,0,0,0,0,0,0,0,0,0,0,0,0,0,0,0,0,0,0,0,0,0,0,0,0,0,0,0,0,0,0,0,1421,0,0,0,0,0,0,0,0,0,0,0,0,0,0,0,0,0,0,0,0,0,0,0,0,0,0,0,0,0,0,0,0,0,0,0,0,0,0,0,0,0,0,0,0,0,0,0,0,0,0,0,0,0,0,0,0,0,0,0,0,0,0,0,0,0,0,0,0,0,0,0,0,0,0,0,0,0,0,0,0,0,0,0,0,0,0,0,0,0,0,0,0,0,0,0,0,0,0,0,0,0,0,0,0,0,0,0,0,0,0,0,0,0,0,0,0,0,0,0,0,1423,0,0,0,0,0,0,0,0,0,0,0,0,0,0,0,0,0,0,0,0,0,1420,0,0,0,0,0,0,0,0,0,0,0,0,0,0,0,0,0,0,0,0,0,0,0,0,0,0,0,0,0,0,0,0,0,0,0,0,0,0,0,0,0,0,0,0,1423,0,0,0,0,0,0,0,0,0,0,0,0,0,0,0,0,0,0,0,0,0,0,0,0,0,0,0,0,0,0,0,0,0,0,0,0,0,0,0,0,0,0,0,0,0,0,0,0,0,0,0,0,0,0,0,0,0,0,0,0,0,0,0,0,1422,0,0,0,0,0,0,0,0,0,0,0,0,0,0,0,0,0,0,0,0,0,0,0,0,0,0,0,0,0,0,0,0,0,0,0,0,0,0,0,0,0,0,0,0,0,0,0,0,0,0,0,0,0,0,0,0,0,0,0,0,0,0,0,0,0,0,0,0,0,0,1420,0,0,0,0,0,0,0,0,0,0,0,0,0,0,0,0,0,0,0,0,0,0,0,0,0,0,0,0,0,0,0,0,0,0,0,0,0,0,0,0,0,0,0,0,0,0,0,0,0,0,0,0,1423,0,0,0,0,0,0,0,0,0,0,0,0,0,0,0,0,0,0,0,0,0,0,0,0,0,0,0,0,0,0,0,0,0,0,0,0,0,0,0,0,0,0,0,0,0,0,0,0,0,0,0,0,0,0,0,0,0,0,0,0,0,0,0,0,0,0,0,0,0,0,0,0,0,0,0,1423,0,0,0,0,0,0,0,0,0,0,0,0,0,0,0,0,0,0,0,0,0,0,0,0,0,0,0,0,0,0,0,0,0,0,0,0,0,0,0,0,0,0,0,0,0,0,0,0,0,0,0,0,0,0,0,0,0,0,0,0,0,0,0,0,0,0,0,0,0,0,0,0,0,0,0,0,0,0,0,0,0,0,0,0,0,0,0,0,0,0,0,0,0,0,0,0,0,0,0,0,0,0,0,0,0,0,0,0,0,0,0,0,0,0,0,0,0,0,0,0,0,0,0,0,0,0,0,0,0,0,0,0,0,0,0,0,0,0,0,0,0,0,0,0,0,0,0,0,0,0,0,0,0,0,0,0,0,0,0,0,0,0,0,0,0,0,0,0,0,0,0,0,0,0,0,0,0,0,0,0,0,0,0,0,0,0,0,0,0,0,0,0,0,0,0,0,0,0,0,0,0,0,0,0,0,0,0,0,0,0,0,0,0,0,0,0,0,0,0,0,0,0,0,0,0,0,0,0,0,0,0,0,0,0,0,0,0,0,0,0,0,0,0,0,0,0,0,0,0,0,0,0,0,0,1423,0,0,0,0,1420,0,0,0,0,0,0,0,0,0,0,0,0,0,0,0,0,0,0,0,0,0,0,0,0,0,0,0,0,0,0,0,0,0,0,0,0,0,0,0,0,0,0,0,0,0,0,0,0,0,0,0,0,0,1423,0,0,0,0,0,0,0,0,0,0,0,0,0,0,0,0,0,0,0,0,0,0,0,0,0,0,0,0,0,0,0,0,0,0,0,0,0,0,0,0,0,0,0,0,0,0,0,0,0,0,0,0,0,0,0,0,0,0,0,0,0,0,0,0,0,0,0,0,0,0,0,0,0,0,0,0,0,0,0,0,0,0,0,0,0,0,0,0,0,0,0,0,0,0,0,0,0,0,0,0,0,0,0,0,0,0,0,0,0,0,0,0,0,0,0,0,0,0,0,0,0,0,0,0,0,0,0,0,0,0,0,0,0,0,0,1421,0,0,0,0,0,0,0,0,0,0,0,0,0,0,0,0,0,0,0,0,0,0,0,0,0,0,0,0,0,0,0,0,0,0,0,0,0,0,0,0,0,0,0,0,0,0,0,0,0,0,0,0,0,0,0,0,0,0,0,0,0,0,0,0,0,0,0,0,0,0,0,0,0,0,0,0,0,0,0,0,0,0,0,0,0,0,0,0,0,0,0,0,0,0,0,0,0,0,0,0,0,0,0,0,0,0,0,0,0,0,0,0,0,0,0,0,0,0,0,0,0,0,0,0,0,0,0,0,0,0,0,0,0,0,0,0,0,0,0,0,0,0,0,0,0,0,0,0,0,0,0,0,0,0,0,0,0,0,0,0,0,0,0,0,0,0,0,0,0,0,0,0,0,0,0,0,0,0,0,0,0,0,0,0,0,1421,0,0,0,0,0,0,0,0,0,0,0,0,0,0,0,0,0,0,0,0,0,0,0,0,0,0,0,0,0,0,0,0,0,0,0,0,0,0,0,0,0,0,0,0,0,0,0,0,0,0,0,0,0,0,0,0,0,0,0,0,0,0,0,0,0,0,0,0,0,0,0,0,0,0,0,0,0,0,0,0,0,0,0,0,0,0,0,0,0,0,0,0,0,0,0,0,0,0,0,0,0,0,0,0,0,1423,0,0,1421,1423,0,0,0,0,0,0,0,0,0,0,0,0,0,0,0,0,0,0,0,0,0,0,0,0,0,0,0,0,0,0,0,0,0,0,0,0,0,0,0,0,0,0,0,0,0,0,0,0,0,0,0,0,0,0,0,0,0,0,0,0,0,0,0,1422,0,0,0,0,0,0,0,0,0,0,0,0,0,0,0,0,0,0,0,0,0,0,0,0,0,0,0,0,0,0,0,0,0,0,0,0,0,0,0,0,0,0,0,0,0,0,0,0,0,0,0,0,0,0,0,0,0,0,0,0,0,0,0,0,0,0,0,0,0,0,0,0,0,0,0,0,0,0,0,0,0,0,0,0,0,0,0,0,0,0,0,0,0,0,0,0,0,0,0,0,0,0,0,0,0,0,0,0,0,0,0,0,0,0,0,0,0,0,0,0,0,0,0,0,0,0,0,0,0,0,0,0,0,0,0,0,0,0,0,0,0,0,0,0,0,0,0,0,0,0,0,0,0,0,0,0,0,0,0,0,0,0,0,0,0,0,0,0,0,0,0,0,0,0,0,0,0,0,0,0,0,0,0,0,0,0,0,0,0,0,0,0,0,0,0,0,0,0,0,0,0,0,0,0,0,0,0,0,0,0,0,0,0,0,0,0,0,0,0,0,0,0,0,0,0,0,0,0,0,0,0,0,0,0,0,0,0,0,0,0,0,0,0,0,0,0,0,0,0,0,0,0,0,1420,0,0,0,0,0,0,0,0,0,0,0,0,0,0,0,0,0,0,0,0,0,0,0,0,1421,0,0,0,0,0,0,0,0,0,0,0,0,0,0,0,0,0,0,0,0,0,0,0,0,0,0,0,0,0,0,0,0,0,0,0,0,0,0,0,0,0,0,0,0,0,0,0,0,0,0,0,0,0,0,0,0,0,0,0,0,0,0,0,0,0,0,0,0,0,0,0,0,0,0,0,0,0,0,0,0,0,0,0,0,0,0,0,0,0,0,0,0,0,0,0,0,0,0,0,0,0,0,0,0,0,0,0,0,0,0,0,0,0,0,0,0,0,0,0,0,0,0,0,0,0,0,1422,0,0,0,0,0,0,0,0,0,0,0,0,0,0,0,0,0,0,0,0,0,0,0,0,0,0,0,0,0,0,0,0,0,0,0,0,0,0,0,0,0,0,0,0,0,0,0,0,0,0,0,0,0,0,0,0,0,0,0,0,0,0,0,0,0,0,0,0,0,0,0,0,0,0,0,0,0,0,0,0,0,0,0,0,0,0,0,0,0,0,0,0,0,0,0,0,0,0,0,0,0,0,0,0,0,0,0,0,0,0,0,0,0,0,0,0,0,0,0,0,0,0,0,0,0,0,0,0,0,0,0,0,0,0,0,0,0,0,0,0,0,0,0,0,0,0,0,0,0,0,0,0,0,0,0,0,0,0,0,0,0,0,0,0,0,0,0,0,0,0,0,0,0,0,0,0,0,0,0,0,0,0,0,0,0,0,0,0,0,0,0,0,0,0,0,0,0,0,0,0,0,0,0,0,0,0,0,0,0,0,0,0,0,0,0,0,0,0,0,0,0,0,0,0,0,0,0,0,0,0,0,0,0,0,0,0,0,0,0,0,0,0,0,0,0,0,0,0,0,0,0,0,0,0,0,0,0,0,0,0,0,0,0,0,0,0,0,0,0,0,0,0,0,0,0,0,0,0,0,0,0,0,0,0,0,0,0,0,0,0,0,0,0,0,0,0,0,0,0,0,0,0,0,0,0,0,0,0,0,0,0,0,0,0,0,0,0,0,0,0,0,0,0,0,0,0,0,0,0,0,0,0,0,0,0,0,0,0,0,0,0,0,0,0,0,0,0,0,0,0,0,0,0,0,0,0,0,0,0,0,0,0,0,0,0,0,0,0,0,0,0,0,0,0,0,0,0,0,1423,0,0,0,0,0,0,0,0,0,0,0,0,0,0,0,0,0,0,0,0,0,0,0,0,0,0,0,0,0,0,0,0,0,0,0,0,0,0,0,0,0,0,0,0,0,0,0,0,0,0,0,0,0,0,0,0,0,0,0,0,0,0,0,0,0,0,0,0,1423,0,0,0,0,0,0,0,0,0,0,0,0,0,0,0,0,0,0,0,0,0,0,0,0,0,0,0,0,0,0,0,0,0,0,0,0,0,0,0,0,0,0,0,0,0,0,0,0,0,0,0,0,0,0,0,0,0,0,0,0,0,0,0,0,0,1421,0,0,0,1422,0,0,0,0,0,0,0,0,0,0,0,0,0,0,0,0,0,0,0,0,0,0,0,0,0,0,0,0,0,0,0,0,0,0,0,0,0,0,0,0,0,0,0,0,0,0,0,0,0,0,0,0,0,0,0,0,0,0,0,0,0,0,0,0,0,0,0,0,0,0,0,0,0,0,0,0,0,0,0,0,0,0,0,0,0,0,0,0,0,0,0,0,0,0,0,0,0,0,0,0,0,0,0,0,0,0,0,0,0,0,0,0,0,0,0,0,0,0,0,0,0,0,0,0,0,0,0,0,1423,0,0,0,0,0,0,0,0,0,0,0,0,0,0,0,0,0,0,0,0,0,0,0,0,0,0,0,0,0,0,0,0,0,0,0,0,0,0,0,0,0,0,0,0,0,0,0,0,0,0,0,0,1422,0,0,0,0,0,0,0,0,0,1421,0,0,0,0,1421,0,0,0,0,0,0,0,0,0,0,0,0,0,0,0,0,0,0,0,0,0,0,0,0,0,0,0,0,0,0,0,0,0,0,0,0,0,0,0,0,1423,0,0,0,1422,0,0,0,0,0,0,0,0,0,0,0,0,0,0,0,0,0,0,1420,0,0,0,0,0,0,0,0,0,0,0,0,0,0,0,0,0,0,0,0,0,0,0,0,0,0,0,0,0,0,0,0,0,0,0,0,0,0,0,0,0,0,0,0,1422,0,0,0,1423,0,0,1421,0,0,0,0,0,0,0,0,0,0,0,0,1422,0,0,0,0,0,0,0,0,0,0,0,0,0,0,0,0,0,0,0,0,0,0,0,0,0,0,0,0,0,0,0,0,0,0,0,0,1423,0,0,0,0,0,1421,0,0,1421,0,0,0,0,0,0,0,0,0,0,0,0,0,0,0,1422,0,0,0,0,0,0,0,0,0,0,0,0,0,0,0,0,0,0,0,0,0,0,0,0,0,0,0,0,0,0,0,0,0,0,0,0,0,0,0,0,0,0,0,0,0,0,0,0,0,0,0,0,0,0,0,0,0,1421,0,0,0,0,0,0,0,0,0,0,0,0,0,0,0,0,0,0,0,0,0,0,0,0,0,0,0,0,0,0,0,0,0,0,0,0,0,0,0,0,0,0,0,0,0,0,0,0,0,0,1421,0,0,0,0,1423,0,0,0,0,0,0,0,1420,0,0,0,0,0,0,0,0,0,0,0,0,0,0,0,0,0,0,0,0,0,0,0,0,0,0,0,0,0,0,0,0,0,0,0,0,0,1423,0,0,0,0,0,0,0,0,0,0,0,0,0,0,0,0,0,0,0,0,0,0,0,0,0,0,0,0,0,0,0,0,0,0,0,0,0,0,0,0,0,0,0,0,0,0,0,0,0,0,0,0,0,0,0,0,0,0,0,0,0,0,0,0,0,0,0,0,0,0,0,0,0,0,0,0,0,0,0,0,0,0,0,0,0,0,0,0,0,0,0,0,0,0,1423,0,0,0,0,0,0,0,0,0,0,0,0,0,0,0,0,0,0,0,0,1422,0,1421,0,0,0,0,0,0,0,0,0,0,0,0,0,0,0,0,0,0,0,0,1423,0,0,0,0,0,0,0,0,0,0,0,0,0,0,0,0,0,0,0,0,0,0,0,0,0,0,0,0,0,0,0,0,0,0,0,0,0,0,0,0,0,0,0,0,0,0,0,0,0,0,0,0,0,0,0,0,0,0,0,0,0,0,0,0,0,0,0,0,0,0,0,0,0,1421,0,0,0,0,0,0,0,0,0,0,0,0,0,0,0,0,1420,0,0,0,0,0,0,0,0,0,0,0,0,0,0,0,0,0,0,0,0,0,0,0,0,0,0,0,1420,0,0,1421,0,0,1423,0,0,0,0,0,0,0,1420,0,0,0,0,0,0,1423,0,0,0,0,0,0,0,0,0,0,0,0,0,0,0,0,0,0,0,0,0,0,0,0,0,0,0,0,0,0,0,0,0,0,0,0,0,0,0,0,0,0,0,0,0,0,0,0,0,0,0,0,0,0,0,0,0,0,1420,0,0,0,0,0,0,0,0,0,0,0,0,0,0,0,0,0,1420,0,0,0,0,0,0,1423,0,0,0,0,0,0,0,0,0,0,0,0,0,0,0,0,0,0,0,0,0,0,0,0,0,0,0,0,1422,0,0,1420,1420,0,0,0,0,1420,0,0,0,0,0,0,0,0,0,1423,0,0,0,0,0,0,0,0,0,0,0,0,0,0,0,0,0,0,0,0,0,0,0,0,0,0,0,0,0,0,0,0,0,0,0,0,0,0,0,0,0,1422,0,0,0,0,0,0,0,0,0,0,0,0,0,0,0,0,0,0,0,0,0,0,0,0,0,0,0,0,0,0,0,0,0,0,0,0,0,0,0,0,0,0,0,0,0,0,0,0,0,0,0,0,0,0,0,0,0,0,0,0,0,0,0,0,0,0,0,0,0,0,0,0,1422,0,0,0,0,0,0,0,0,1420,0,0,0,0,0,0,0,0,0,0,0,0,0,0,0,0,0,0,0,0,0,0,0,0,0,0,0,0,0,0,0,0,0,0,0,0,0,0,0,0,0,0,0,0,0,0,0,0,0,0,0,0,0,0,0,0,0,0,0,0,0,0,0,0,0,0,0,0,0,0,0,0,0,0,0,0,0,0,0,0,0,0,0,0,0,0,0,0,0,0,0,0,0,0,0,0,0,0,0,0,0,0,0,0,0,0,0,0,0,0,0,0,0,0,0,0,0,0,0,0,0,0,1421,0,0,0,0,0,1423,0,0,0,0,0,0,0,0,0,0,0,0,0,0,0,0,0,0,0,0,0,0,0,0,0,0,0,0,0,0,0,0,0,0,0,0,0,0,0,0,0,0,0,0,0,0,0,0,0,0,0,0,0,1422,1421,0,0,0,0,0,0,0,0,0,0,1420,0,0,0,0,0,0,0,0,0,0,0,0,0,0,0,0,0,0,0,0,0,0,0,0,0,0,0,0,0,0,0,0,0,0,0,0,0,0,0,0,0,0,0,0,0,0,0,0,0,0,0,0,0,0,0,0,0,0,0,0,0,0,0,0,1421,0,0,1423,0,0,0,0,0,0,0,0,0,0,0,0,0,0,0,0,0,0,0,0,0,0,0,0,0,0,0,0,0,0,0,0,0,0,0,0,0,0,0,0,0,0,0,0,0,0,0,0,0,0,0,1423,0,0,1422,0,0,0,0,0,0,0,0,0,0,0,0,0,0,0,0,0,0,0,0,0,0,0,0,0,0,0,0,0,0,0,0,0,0,0,0,0,0,0,0,0,0,0,0,0,0,0,0,0,0,0,0,0,1420,0,0,0,0,0,0,0,0,0,0,0,0,0,0,0,0,0,0,0,0,0,0,0,0,0,0,0,0,0,0,0,0,0,0,0,0,0,0,0,0,0,0,0,0,0,0,0,0,0,0,0,0,0,0,0,0,0,0,0,0,0,0,0,0,0,0,0,0,0,1423,1423,0,0,1421,0,1423,0,0,0,0,0,0,0,0,0,0,0,0,0,0,0,0,0,0,0,0,0,0,0,0,0,0,0,0,0,0,0,0,0,0,0,0,0,0,0,0,0,0,0,0,0,0,0,0,0,0,0,0,0,0,0,1422,0,0,0,0,0,1421,0,0,0,0,0,0,0,0,0,0,0,0,0,0,0,0,0,0,0,0,0,0,0,0,0,0,0,0,0,0,0,0,0,0,0,0,0,0,0,0,0,0,0,0,0,0,0,0,0,0,0,0,0,0,0,0,0,0,1422,0,0,0,0,0,0,0,0,0,0,0,0,0,0,0,0,0,0,0,0,0,0,0,0,0,0,0,0,0,0,0,0,0,0,0,0,0,0,0,0,0,0,0,0,0,0,0,0,0,0,0,0,0,0,0,0,0,0,0,0,0,0,0,0,0,0,0,0,0,0,0,0,0,0,0,0,0,0,0,0,0,0,0,0,0,0,0,0,0,0,0,0,0,0,0,0,0,0,0,0,0,0,0,0,0,0,0,0,0,0,0,0,0,0,0,0,0,0,0,0,0,0,0,0,0,0,0,0,0,0,0,0,0,0,0,0,0,0,0,0,0,0,0,0,0,0,0,0,0,0,0,0,0,0,0,0,0,0,0,0,0,0,0,0,0,0,0,0,0,0,0,0,0,0,0,0,0,0,0,0,0,0,0,0,0,0,0,0,0,0,0,0,1421,0,0,0,0,0,0,0,0,0,0,0,0,0,0,0,0,0,0,0,0,0,0,0,0,0,0,0,0,0,0,0,0,0,0,0,0,0,0,0,0,0,0,0,0,0,0,0,0,0,0,0,0,0,0,0,0,0,0,0,0,0,0,0,0,0,0,0,1422,0,0,0,0,0,0,0,0,0,0,0,0,0,0,0,0,0,0,0,0,0,0,0,0,0,0,0,0,0,0,0,0,0,0,0,0,0,0,0,0,0,0,0,0,0,0,0,0,0,0,0,0,0,0,0,0,0,0,0,0,0,0,0,0,0,0,0,0,0,0,0,0,0,0,0,0,0,0,0,0,0,0,0,0,0,0,0,0,0,0,0,0,0,0,0,0,0,0,0,0,0,0,0,0,0,0,0,0,0,0,0,0,0,0,0,0,0,0,0,0,0,0,0,0,0,0,0,1421,0,0,1421,0,0,0,0,0,0,0,0,0,0,0,0,0,0,0,0,0,0,0,0,0,0,0,0,0,0,0,0,0,0,0,0,0,0,0,0,0,0,0,0,0,0,0,0,0,0,0,0,0,0,0,0,0,0,0,0,0,0,0,0,0,0,0,0,0,0,0,0,0,0,0,0,0,0,0,0,0,0,0,0,0,0,0,0,0,0,0,0,0,0,0,0,0,0,0,0,0,0,0,0,0,0,0,0,0,0,0,0,0,0,0,0,0,0,0,0,0,0,0,0,0,0,0,0,0,0,0,0,0,0,0,0,0,0,0,0,0,0,0,0,0,0,0,0,0,0,0,0,0,0,0,0,0,0,0,0,0,0,0,0,0,0,0,0,0,0,0,0,0,0,0,0,0,0,0,0,0,0,0,0,0,0,0,0,0,0,0,0,0,0,0,0,0,0,0,0,0,0,0,0,0,0,0,0,0,0,0,0,0,0,0,0,0,0,0,0,0,0,0,0,0,0,0,0,0,0,0,0,0,0,0,0,0,0,0,0,0,0,0,0,0,0,0,0,0,0,0,0,0,0,0,0,0,0,0,0,0,0,0,0,0,0,0,0,0,0,0,0,0,0,0,0,0,0,0,0,0,0,0,0,0,0,0,0,0,0,0,0,0,0,0,0,0,0,0,0,0,0,0,0,0,0,0,0,0,0,0,0,0,0,0,0,0,0,0,0,0,0,0,0,0,0,0,0,0,0,0,0,0,0,0,0,0,0,0,0,0,0,0,0,0,0,0,0,0,0,0,0,0,0,0,0,0,0,0,0,0,0,0,0,0,0,0,0,0,0,0,0,0,0,0,0,0,0,0,0,0,0,0,0,0,0,0,0,0,0,0,0,0,0,0,0,0,0,0,0,0,0,0,0,0,0,0,0,0,0,0,0,0,0,0,0,0,0,0,0,0,0,0,0,0,0,0,0,0,0,0,0,0,0,0,0,0,0,0,0,0,0,0,1421,1423,0,0,0,1420,0,0,0,0,0,0,0,0,0,0,0,0,0,0,0,0,0,0,0,0,0,0,0,0,0,0,0,0,0,0,0,0,0,0,0,0,0,0,0,0,0,0,0,0,0,0,0,0,0,0,0,0,0,0,0,0,0,0,0,0,0,0,0,0,0,0,0,0,0,0,0,0,0,0,0,0,0,0,0,0,0,0,0,0,0,0,0,0,0,0,0,0,0,0,0,0,0,0,0,0,0,0,0,0,0,0,0,0,0,0,0,0,0,0,0,0,0,0,0,0,0,0,0,0,0,0,0,0,0,0,0,0,0,0,0,0,0,0,0,0,0,0,0,0,0,0,0,0,0,0,0,0,0,0,0,0,0,0,0,0,0,0,0,0,0,0,0,0,0,0,0,0,0,0,0,0,0,0,0,0,0,0,0,0,0,0,0,0,0,0,0,0,0,0,0,0,0,0,0,0,0,0,0,0,0,0,0,0,0,0,0,0,0,0,0,0,0,0,0,0,0,0,0,0,0,0,0,0,0,0,0,0,0,0,0,0,0,0,0,0,0,0,0,0,0,0,0,0,0,0,0,0,0,0,0,0,0,0,0,0,0,0,0,0,0,0,0,0,0,0,0,0,0,0,0,0,0,0,0,0,0,0,0,0,0,0,0,0,0,0,0,0,0,0,0,0,0,0,0,0,0,0,0,0,0,0,0,0,0,0,0,0,0,0,0,0,0,0,0,0,0,0,0,0,0,0,0,0,0,0,0,0,0,0,0,0,0,0,0,0,0,0,0,0,0,0,0,0,0,0,0,0,0,0,0,0,0,0,0,0,0,0,0,0,0,0,0,0,0,0,0,0,0,0,0,0,0,0,0,0,0,0,0,0,0,0,0,0,0,0,0,0,0,0,0,0,0,0,0,0,0,0,0,0,0,0,0,0,0,0,0,0,0,0,0,0,0,0,0,0,0,0,0,0,0,0,0,0,0,0,0,0,0,0,0,0,0,0,0,0,0,0,0,0,0,0,0,0,0,0,0,0,0,0,0,0,0,0,0,0,0,0,0,0,0,0,0,0,0,0,0,0,0,0,0,0,0,0,0,0,0,0,0,0,0,0,0,0,0,0,0,0,0,0,0,0,0,0,0,0,0,0,0,0,0,0,0,0,0,0,0,0,0,0,0,0,0,0,0,0,0,0,0,0,0,0,0,0,0,0,0,0,0,0,0,0,0,0,0,0,0,0,0,0,0,0,0,0,0,0,0,0,0,0,0,0,0,0,0,0,0,0,0,0,0,0,0,0,0,0,0,1422,0,0,0,0,0,0,0,0,0,0,0,0,0,0,0,0,0,0,0,0,0,0,0,0,0,0,0,0,0,0,0,0,0,0,0,0,0,0,0,0,0,0,0,0,0,0,0,0,0,0,0,0,0,0,0,0,0,0,0,0,0,0,0,0,0,0,0,0,0,0,0,1422,0,0,0,0,0,0,0,0,0,0,0,0,0,0,0,0,0,0,0,0,0,0,0,0,0,0,0,0,0,0,0,0,0,0,0,0,0,0,0,0,0,0,0,0,0,0,0,0,0,0,0,0,0,0,0,0,0,0,0,0,0,0,0,0,0,0,0,0,0,0,0,0,0,0,0,0,0,0,0,0,0,0,0,0,0,0,0,0,0,0,0,0,0,0,0,0,0,0,0,0,0,0,0,0,0,0,0,0,0,0,0,0,0,0,0,0,0,0,1423,1422,0,0,0,0,0,0,0,0,0,0,0,0,1422,0,0,0,0,0,0,0,0,0,0,0,0,0,0,0,0,0,0,0,0,0,0,0,0,0,0,0,0,0,0,0,0,0,0,0,0,0,0,0,0,0,0,0,0,0,0,1420,0,0,0,0,0,0,0,0,0,1422,0,0,0,0,0,0,1421,0,0,0,0,0,0,0,0,0,0,0,0,0,0,0,0,0,0,0,0,0,0,0,0,0,0,0,0,0,0,0,0,0,0,0,0,0,0,0,1420,0,0,0,0,0,0,0,0,1422,0,0,0,0,0,0,0,0,0,0,1423,0,0,0,0,0,0,0,0,0,0,0,0,0,0,0,0,0,0,0,0,0,0,0,0,0,0,0,0,0,0,0,0,0,0,0,0,0,0,0,0,1422,0,1423,0,0,1420,0,0,0,0,0,0,0,0,0,0,0,0,0,0,0,0,0,0,0,0,0,0,0,0,0,0,0,0,0,1420,0,0,0,0,0,0,0,0,0,0,0,0,0,0,0,0,0,0,0,0,0,0,0,0,0,0,0,0,0,0,0,0,0,0,0,0,0,0,0,0,0,0,0,0,0,0,1423,0,0,0,0,0,0,0,0,1421,0,0,0,0,0,0,0,0,0,0,0,0,0,0,0,0,0,0,0,0,0,0,0,0,0,0,0,0,0,0,0,0,0,0,0,0,0,0,0,0,0,0,0,0,0,0,0,0,0,0,0,0,0,0,1421,0,0,0,0,1423,0,0,0,0,0,0,0,0,0,1422,0,0,0,0,0,0,0,0,0,0,0,0,0,0,0,0,0,0,0,0,0,0,0,0,0,0,0,0,0,0,0,0,0,0,0,0,0,0,0,0,0,0,0,0,0,0,0,0,0,0,0,0,0,0,0,0,0,0,1423,1422,0,0,0,0,0,0,0,0,0,1421,0,0,0,0,0,0,0,0,0,0,0,0,0,0,0,0,0,0,0,0,0,0,0,0,1420,0,0,1423,0,0,0,0,0,0,0,0,0,0,0,0,0,0,0,0,0,0,0,1423,0,0,0,1421,0,0,0,1421,0,0,0,0,0,0,0,0,0,0,0,0,0,0,0,0,0,0,0,0,0,0,0,0,0,0,0,0,0,0,0,0,0,0,0,0,1422,0,0,0,0,0,0,0,0,0,1420,0,0,0,0,0,0,0,0,0,0,0,0,0,0,0,0,0,0,0,0,0,0,0,0,0,0,0,0,0,0,0,0,0,0,0,0,0,0,0,0,0,0,0,0,0,0,0,0,0,0,0,0,0,0,0,0,0,0,0,0,0,0,0,0,0,0]},{"id":2,"name":"ground","type":"tilelayer","width":64,"height":150,"x":0,"y":0,"opacity":1,"visible":true,"data":[0,0,0,0,0,0,0,0,0,0,0,0,0,0,0,0,0,0,0,0,0,0,0,0,0,0,0,0,0,0,0,0,0,0,0,0,0,0,0,0,0,0,0,0,0,0,0,0,0,0,0,0,0,0,0,0,0,0,0,0,0,0,0,0,0,0,0,0,0,0,0,0,0,0,0,0,0,0,0,0,0,0,0,0,0,0,0,0,0,0,0,0,0,0,0,0,0,0,0,0,0,0,0,0,0,0,0,0,0,0,0,0,0,0,0,0,0,0,0,0,0,0,0,0,0,0,0,0,0,0,0,0,0,0,0,0,0,0,0,0,0,0,0,0,0,0,0,0,0,0,0,0,0,0,0,0,0,0,0,0,0,0,0,0,0,0,0,0,0,0,0,0,0,0,0,0,0,0,0,0,0,0,0,0,0,0,0,0,0,0,0,0,0,0,0,0,0,0,0,0,0,0,0,0,0,0,0,0,0,479,479,479,479,479,479,0,479,479,479,479,479,479,479,479,479,0,0,0,0,0,0,0,0,0,0,0,0,0,0,0,0,0,0,0,0,0,0,0,0,0,0,0,0,0,0,0,0,0,0,0,0,0,0,0,0,0,0,0,0,0,0,0,479,479,415,415,415,415,479,479,479,415,415,415,415,415,415,415,479,479,479,479,479,479,479,479,479,0,0,0,0,0,0,0,0,0,0,0,0,0,0,0,0,0,0,0,0,0,0,0,0,0,0,0,0,0,0,0,0,0,0,0,0,0,0,0,479,415,415,0,0,415,415,415,415,415,0,0,0,0,0,415,415,415,415,415,415,415,415,415,479,479,0,0,0,0,0,0,0,0,0,0,0,0,0,0,0,0,0,0,0,0,0,0,0,0,0,0,0,0,0,0,0,0,0,0,0,0,0,0,479,415,0,0,0,0,415,415,0,0,0,0,0,0,0,0,0,0,0,0,0,0,0,415,415,479,479,479,479,479,479,479,479,0,0,0,0,0,0,0,0,0,0,0,0,0,0,0,0,0,0,0,0,0,0,0,0,0,0,0,0,0,0,479,479,415,0,0,0,0,0,0,0,0,0,0,0,0,0,0,0,0,0,0,0,0,0,0,415,415,415,415,415,415,415,415,479,479,0,0,0,0,0,0,0,0,0,0,0,0,0,0,0,0,0,0,0,0,0,0,0,0,0,0,0,0,479,479,415,415,0,0,0,0,0,0,0,0,0,0,0,0,0,0,0,0,0,0,0,0,0,0,0,0,0,0,0,0,0,415,415,479,479,0,0,0,0,0,0,0,0,0,0,0,0,0,0,0,0,0,0,0,0,0,0,0,0,0,0,479,479,415,415,0,0,0,0,0,0,0,0,0,0,0,0,0,0,0,0,0,0,0,0,0,0,0,0,0,0,0,0,0,0,0,415,415,479,479,479,479,479,479,0,0,0,0,0,0,0,0,0,0,0,0,0,0,0,479,479,479,479,479,479,479,415,415,0,0,0,0,0,0,0,0,0,0,0,0,0,0,0,0,0,0,0,0,0,0,0,0,0,0,0,0,0,0,0,0,0,415,415,415,415,415,415,479,479,0,0,0,0,0,0,0,0,0,0,0,0,0,479,479,415,415,415,479,415,415,415,0,0,0,0,0,0,0,0,0,0,0,0,0,0,0,0,0,0,0,0,0,0,0,0,0,0,0,0,0,0,0,0,0,0,0,0,0,0,0,415,415,479,0,0,0,0,0,0,0,0,0,0,0,0,0,479,415,415,0,415,415,415,0,0,0,0,0,0,0,0,0,0,0,0,0,0,0,0,0,0,0,0,0,0,0,0,0,0,0,0,0,0,0,0,0,0,0,0,0,0,0,0,0,0,415,479,479,0,0,0,0,0,0,0,0,0,0,0,0,479,415,0,0,0,0,0,0,0,0,0,0,0,0,0,0,0,0,0,0,0,0,0,0,0,0,0,0,0,0,0,0,0,0,0,0,0,0,0,0,0,0,0,0,0,0,0,0,0,415,415,479,0,0,0,0,0,0,0,0,0,0,0,0,479,415,0,0,0,0,0,0,0,0,0,0,0,0,0,0,0,0,0,0,0,0,0,0,0,0,0,0,0,0,0,0,0,0,0,0,0,0,0,0,0,0,0,0,0,0,0,0,0,0,415,479,0,0,0,0,0,0,0,0,0,0,0,0,479,415,0,0,0,0,0,0,0,0,0,0,0,0,0,0,0,0,0,0,0,0,0,0,0,0,0,0,0,0,0,0,0,0,0,0,0,0,0,0,0,0,0,0,0,0,0,0,0,0,415,479,0,0,0,0,0,0,0,0,0,0,0,0,479,415,415,415,415,0,0,0,0,0,0,0,0,0,0,0,0,0,0,0,0,0,0,0,0,0,0,0,0,0,0,0,0,0,0,0,0,0,0,0,0,0,0,0,0,0,0,0,0,415,415,479,0,0,0,0,0,0,0,0,0,0,479,479,479,479,479,479,415,0,0,0,0,0,0,0,0,0,0,0,0,0,0,0,0,0,0,0,0,0,0,0,0,0,0,0,0,0,0,0,0,0,0,0,0,0,0,0,0,0,0,0,0,415,479,479,0,0,0,0,0,0,0,0,0,479,479,415,415,415,415,415,415,0,0,0,0,0,0,0,0,0,0,0,0,0,0,0,0,0,0,0,0,0,0,0,0,0,0,0,0,0,0,0,0,0,0,0,0,0,0,0,0,0,0,0,0,415,479,0,0,0,0,0,0,0,0,0,479,479,415,415,0,0,0,415,0,0,0,0,0,0,0,0,0,0,0,0,0,0,0,0,0,0,0,0,0,0,0,0,0,0,0,0,0,0,0,0,0,0,0,0,0,0,0,0,0,0,0,0,0,415,479,479,479,479,479,0,0,0,0,0,479,415,415,0,0,0,0,0,0,0,0,0,0,0,0,0,0,0,0,0,0,0,0,0,0,0,0,0,0,0,0,0,0,0,0,0,0,0,0,0,0,0,0,0,0,0,0,0,0,0,0,0,0,415,415,415,415,415,479,479,0,0,0,0,479,415,0,0,0,0,0,0,0,0,0,0,0,0,0,0,0,0,0,0,0,0,0,0,0,0,0,0,0,0,0,0,0,0,0,0,0,0,0,0,0,0,0,0,0,0,0,0,0,0,0,0,0,0,0,0,0,415,415,479,0,0,0,0,479,415,0,0,0,0,0,0,0,0,0,0,0,0,0,0,0,0,0,0,0,0,0,0,0,0,0,0,0,0,0,0,0,0,0,0,0,0,0,0,0,0,0,0,0,0,0,0,0,0,0,0,0,0,0,0,0,0,415,479,479,0,0,0,479,415,0,0,0,0,0,0,0,0,0,0,0,0,0,0,0,0,0,0,0,0,0,0,0,0,0,0,0,0,0,0,0,0,0,0,0,0,0,0,0,0,0,0,0,0,0,0,0,0,0,0,0,0,0,0,0,0,415,415,479,0,0,0,479,415,0,0,0,0,0,0,0,0,0,0,0,0,0,0,0,0,0,0,0,0,0,0,0,0,0,0,0,0,0,0,0,0,0,0,0,0,0,0,0,0,0,0,0,0,0,0,0,0,0,0,0,0,0,0,0,0,0,415,479,0,0,0,479,415,0,0,0,0,0,0,0,0,0,0,0,0,0,0,0,0,0,0,0,0,0,0,0,0,0,0,0,0,0,0,0,0,0,0,0,0,0,0,0,0,0,0,0,0,0,0,0,0,0,0,0,0,0,0,0,0,0,415,479,0,0,0,479,415,415,0,0,0,0,0,0,0,0,0,0,0,0,0,0,0,0,0,0,0,0,0,0,0,0,0,0,0,0,0,0,0,0,0,0,0,0,0,0,0,0,0,0,0,0,0,0,0,0,0,0,0,0,0,0,0,0,415,479,0,0,0,479,479,415,415,415,415,415,0,0,0,0,0,0,0,0,0,0,0,0,0,0,0,0,0,0,0,0,0,0,0,0,0,0,0,0,0,0,0,0,0,0,0,0,0,0,0,0,0,0,0,0,0,0,0,0,0,0,0,415,415,479,0,0,0,0,479,479,479,479,479,415,0,0,0,0,0,0,0,0,0,0,0,0,0,0,0,0,0,0,0,0,0,0,0,0,0,0,0,0,0,0,0,0,0,0,0,0,0,0,0,0,0,0,0,0,0,0,0,0,0,0,0,415,479,479,0,0,0,0,0,0,0,479,415,415,0,0,0,0,0,0,0,0,0,0,0,0,0,0,0,0,0,0,0,0,0,0,0,0,0,0,0,0,0,0,0,0,0,0,0,0,0,0,0,0,0,0,0,0,0,0,0,0,0,0,415,415,479,0,0,0,0,0,0,0,479,479,415,0,0,0,0,0,0,0,0,0,0,0,0,0,0,0,0,0,0,0,0,0,0,0,0,0,0,0,0,0,0,0,0,0,0,0,0,0,0,0,0,0,0,0,0,0,0,0,0,0,0,415,415,479,479,0,0,0,0,0,0,0,479,415,415,0,0,0,0,0,0,0,0,0,0,0,0,0,0,0,0,0,0,0,0,0,0,0,0,0,0,0,0,0,0,0,0,0,0,0,0,0,0,0,0,0,0,0,0,0,0,0,0,0,0,415,479,479,0,0,0,0,0,0,0,0,479,415,0,0,0,0,0,0,0,0,0,0,0,0,0,0,0,0,0,0,0,0,0,0,0,0,0,0,0,0,0,0,0,0,0,0,0,0,0,0,0,0,0,0,0,0,0,0,0,0,0,0,0,415,479,0,0,0,0,0,0,0,0,0,479,415,0,0,0,0,0,0,0,0,0,0,0,0,0,0,0,0,0,0,0,0,0,0,0,0,0,0,0,0,0,0,0,0,0,0,0,0,0,0,0,0,0,0,0,0,0,0,0,0,0,0,0,415,479,0,0,0,0,0,0,0,0,0,479,415,0,0,0,0,0,0,0,0,0,0,0,0,0,0,0,0,0,0,0,0,0,0,0,0,0,0,0,0,0,0,0,0,0,0,0,0,0,0,0,0,0,0,0,0,0,0,0,0,0,0,0,415,479,0,0,0,0,0,0,0,0,0,479,415,415,0,0,0,0,0,0,0,0,0,0,0,0,0,0,0,0,0,0,0,0,0,0,0,0,0,0,0,0,0,0,0,0,0,0,0,0,0,0,0,0,0,0,0,0,0,0,0,0,0,0,415,479,0,0,0,0,0,0,0,0,0,479,479,415,0,0,0,0,0,0,0,0,0,0,0,0,0,0,0,0,0,0,0,0,0,0,0,0,0,0,0,0,0,0,0,0,0,0,0,0,0,0,0,0,0,0,0,0,0,0,0,0,0,0,415,479,0,0,0,0,0,0,0,0,0,0,479,415,415,0,0,0,0,0,0,0,0,0,0,0,0,0,0,0,0,0,0,0,0,0,0,0,0,0,0,0,0,0,0,0,0,0,0,0,0,0,0,0,0,0,0,0,0,0,0,0,0,415,415,479,0,0,0,0,0,0,0,0,0,0,479,479,415,415,0,0,0,0,0,0,0,0,0,0,0,0,0,0,0,0,0,0,0,0,0,0,0,0,0,0,0,0,0,0,0,0,0,0,0,0,0,0,0,0,0,0,0,0,0,0,415,415,479,479,0,0,0,0,0,0,0,0,0,0,0,479,479,415,415,415,415,415,415,0,0,0,0,0,0,0,0,0,0,0,0,0,0,0,0,0,0,0,0,0,0,0,0,0,0,0,0,0,0,0,0,0,0,415,415,415,415,415,415,415,415,479,479,0,0,0,0,0,0,0,0,0,0,0,0,0,479,479,479,479,479,479,415,0,0,0,0,0,0,0,0,0,0,0,0,0,0,0,0,0,0,0,0,0,0,0,0,0,0,0,0,0,0,0,0,0,0,415,479,479,479,479,479,479,479,479,0,0,0,0,0,0,0,0,0,0,0,0,0,0,0,0,0,0,0,479,415,415,0,0,0,0,0,0,0,0,0,0,0,0,0,0,0,0,0,0,0,0,0,0,0,0,0,0,0,0,0,0,0,0,0,415,479,0,0,0,0,0,0,0,0,0,0,0,0,0,0,0,0,0,0,0,0,0,0,0,0,0,0,479,479,415,0,0,0,0,0,0,0,0,0,0,0,0,0,0,0,0,0,0,0,0,0,0,0,0,0,0,0,0,0,0,0,0,0,415,479,0,0,0,0,0,0,0,0,0,0,0,0,0,0,0,0,0,0,0,0,0,0,0,0,0,0,0,479,415,0,0,0,0,415,415,415,0,0,0,0,0,0,0,0,0,0,0,0,0,0,0,0,0,0,0,0,0,0,0,0,0,415,415,479,0,0,0,0,0,0,0,0,0,0,0,0,0,0,0,0,0,0,0,0,0,0,0,0,0,0,0,479,415,0,0,0,0,415,479,415,0,0,0,0,0,0,0,0,0,0,0,0,0,0,0,0,0,0,0,0,0,0,0,0,415,415,479,479,0,0,0,0,0,0,0,0,0,0,0,0,0,0,0,0,0,0,0,0,0,0,0,0,0,0,0,479,415,0,0,0,415,415,479,415,0,0,0,0,0,0,415,415,415,0,0,0,0,0,0,415,415,415,0,0,0,0,0,415,415,479,479,0,0,0,0,0,0,0,0,0,0,0,0,0,0,0,0,0,0,0,0,0,0,0,0,0,0,0,0,479,415,415,415,415,415,479,479,415,0,0,0,0,0,415,415,479,415,0,0,0,0,415,415,415,479,415,415,415,415,415,415,415,479,479,0,0,0,0,0,0,0,0,0,0,0,0,0,0,0,0,0,0,0,0,0,0,0,0,0,0,0,0,0,479,479,479,479,479,479,479,479,415,0,0,0,0,0,415,479,479,415,0,0,0,415,415,479,479,479,479,479,479,479,479,479,479,479,0,0,0,0,0,0,0,0,0,0,0,0,0,0,0,0,0,0,0,0,0,0,0,0,0,0,0,0,0,0,0,0,0,0,0,0,0,479,415,415,0,0,0,415,415,479,479,415,0,0,0,415,479,479,0,0,0,0,0,0,0,0,0,0,0,0,0,0,0,0,0,0,0,0,0,0,0,0,0,0,0,0,0,0,0,0,0,0,0,0,0,0,0,0,0,0,0,0,0,0,0,479,479,415,415,415,415,415,479,479,479,415,415,0,415,415,479,0,0,0,0,0,0,0,0,0,0,0,0,0,0,0,0,0,0,0,0,0,0,0,0,0,0,0,0,0,0,0,0,0,0,0,0,0,0,0,0,0,0,0,0,0,0,0,0,0,479,479,479,479,479,479,479,0,479,479,415,415,415,479,479,0,0,0,0,0,0,0,0,0,0,0,0,0,0,0,0,0,0,0,0,0,0,0,0,0,0,0,0,0,0,0,0,0,0,0,0,0,0,0,0,0,0,0,0,0,0,0,0,0,0,0,0,0,0,0,0,0,0,479,479,479,479,479,0,0,479,479,479,479,479,479,0,0,0,0,0,0,0,0,0,0,0,0,0,0,0,0,0,0,0,0,0,0,0,0,0,0,0,0,0,0,0,0,0,0,0,0,0,0,0,0,0,0,0,0,0,0,0,0,0,479,479,479,479,479,479,0,0,479,479,415,415,415,415,479,479,0,0,0,0,0,0,0,0,0,0,0,0,0,0,0,0,0,0,0,0,0,0,0,0,0,0,0,0,0,0,0,0,0,0,0,0,0,0,0,479,479,479,479,479,479,479,0,479,479,415,415,415,415,479,479,0,479,415,415,0,0,415,415,479,0,0,0,0,0,0,0,0,0,0,0,0,0,0,0,0,0,0,0,0,0,0,0,0,0,0,0,0,0,0,0,0,0,0,0,0,0,479,479,479,415,415,415,415,415,479,479,479,415,415,0,0,415,415,479,479,479,415,0,0,0,0,415,479,0,0,0,0,0,0,0,0,0,0,0,0,0,0,0,0,0,0,0,0,0,0,0,0,0,0,0,0,0,0,0,0,0,0,0,479,479,479,415,415,415,0,0,0,415,415,415,415,415,0,0,0,0,415,415,479,415,415,0,0,0,0,415,479,0,0,0,0,0,0,0,0,0,0,0,0,0,0,0,0,0,0,0,0,0,0,0,0,0,0,0,0,0,0,0,0,0,0,479,479,415,415,415,0,0,0,0,0,0,0,415,0,0,0,0,0,0,0,415,415,415,0,0,0,0,0,415,479,0,479,479,479,479,479,0,0,0,0,0,0,0,0,0,0,0,0,0,0,0,0,0,0,0,0,0,0,0,0,0,0,0,0,479,415,415,0,0,0,0,0,0,0,0,0,0,0,0,0,0,0,0,0,0,0,0,0,0,0,0,0,415,479,479,479,415,415,415,479,479,0,0,0,0,0,0,0,0,0,0,0,0,0,0,0,0,0,0,0,0,0,0,0,0,0,0,0,479,415,0,0,0,0,0,0,0,0,0,0,0,0,0,0,0,0,0,0,0,0,0,0,0,0,0,0,415,415,415,415,415,0,415,415,479,0,0,0,0,0,0,0,0,0,0,0,0,0,0,0,0,0,0,0,0,0,0,479,479,479,479,479,479,415,0,0,0,0,0,0,0,0,0,0,0,0,0,0,0,0,0,0,0,0,0,0,0,0,0,0,0,415,0,0,0,0,0,415,479,479,0,0,0,0,0,0,0,0,0,0,0,0,0,0,0,0,0,0,0,0,479,479,415,415,415,415,415,415,0,0,0,0,0,0,0,0,0,0,0,0,0,0,0,0,0,0,0,0,0,0,0,0,0,0,0,0,0,0,0,0,0,415,415,479,479,0,0,0,0,0,0,0,0,0,0,0,0,0,0,0,0,0,479,479,479,415,415,0,0,0,415,415,0,0,0,0,0,0,0,0,0,0,0,0,0,0,0,0,0,0,0,0,0,0,0,0,0,0,0,0,0,0,0,0,0,0,415,415,479,479,479,479,479,0,0,0,0,0,0,0,0,0,0,0,0,479,479,415,415,415,0,0,0,0,0,0,0,0,0,0,0,0,0,0,0,0,0,0,0,0,0,0,0,0,0,0,0,0,0,0,0,0,0,0,0,0,0,0,0,0,0,415,415,415,415,415,479,479,0,0,0,0,0,0,0,0,0,0,0,479,415,415,0,0,0,0,0,0,0,0,0,0,0,0,0,0,0,0,0,0,0,0,0,0,0,0,0,0,0,0,0,0,0,0,0,0,0,0,0,0,0,0,0,0,0,0,0,0,0,415,415,479,479,0,0,0,0,0,0,0,0,0,0,479,415,0,0,0,0,0,0,0,0,0,0,0,0,0,0,0,0,0,0,0,0,0,0,0,0,0,0,0,0,0,0,0,0,0,0,0,0,0,0,0,0,0,0,0,0,0,0,0,0,0,415,415,479,0,0,0,0,0,0,0,0,0,0,479,415,0,0,0,0,0,0,0,0,0,0,0,0,0,0,0,0,0,0,0,0,0,0,0,0,0,0,0,0,0,0,0,0,0,0,0,0,0,0,0,0,0,0,0,0,0,0,0,0,0,0,415,479,479,0,0,0,0,0,0,0,0,0,479,415,0,0,0,0,0,0,0,0,0,0,0,0,0,0,0,0,0,0,0,0,0,0,0,0,0,0,0,0,0,0,0,0,0,0,0,0,0,0,0,0,0,0,0,0,0,0,0,0,0,0,415,415,479,0,0,0,0,0,0,0,0,0,479,415,0,0,0,0,0,0,0,0,0,0,0,0,0,0,0,0,0,0,0,0,0,0,0,0,0,0,0,0,0,0,0,0,0,0,0,0,0,0,0,0,0,0,0,0,0,0,0,0,0,0,0,415,479,0,0,0,0,0,0,0,0,479,479,415,0,0,0,0,0,0,0,0,0,0,0,0,0,0,0,0,0,0,0,0,0,0,0,0,0,0,0,0,0,0,0,0,0,0,0,0,0,0,0,0,0,0,0,0,0,0,0,0,0,0,0,415,479,0,0,0,0,0,0,0,0,479,415,415,0,0,0,0,0,0,0,0,0,0,0,0,0,0,0,0,0,0,0,0,0,0,0,0,0,0,0,0,0,0,0,0,0,0,0,0,0,0,0,0,0,0,0,0,0,0,0,0,0,0,415,415,479,0,0,0,0,0,0,0,479,479,415,0,0,0,0,0,0,0,0,0,0,0,0,0,0,0,0,0,0,0,0,0,0,0,0,0,0,0,0,0,0,0,0,0,0,0,0,0,0,0,0,0,0,0,0,0,0,0,0,0,0,0,415,479,479,0,0,0,0,0,0,479,479,415,415,0,0,0,0,0,0,0,0,0,0,0,0,0,0,0,0,0,0,0,0,0,0,0,0,0,0,0,0,0,0,0,0,0,0,0,0,0,0,0,0,0,0,0,0,0,0,0,0,0,0,415,415,479,0,0,0,0,0,0,0,479,415,415,0,0,0,0,0,0,0,0,0,0,0,0,0,0,0,0,0,0,0,0,0,0,0,0,0,0,0,0,0,0,0,0,0,0,0,415,415,415,415,0,0,0,0,0,0,0,0,0,0,0,0,415,479,479,0,0,0,0,0,0,479,479,415,0,0,0,0,0,0,0,0,0,0,0,0,0,0,0,0,0,0,0,0,0,0,0,0,0,0,0,0,0,0,0,415,415,415,415,415,415,479,479,415,415,415,0,0,0,0,0,0,0,0,0,0,415,415,479,479,479,479,479,0,0,479,415,415,0,0,0,0,0,0,0,0,0,0,0,0,0,0,0,0,0,0,0,0,0,0,0,0,0,0,0,0,0,0,415,415,479,479,479,479,479,479,479,479,479,415,415,0,0,0,0,0,0,0,0,0,0,415,415,415,415,415,479,0,0,479,415,0,0,0,0,0,0,0,0,0,0,0,0,0,0,0,0,0,0,0,0,0,0,0,0,0,0,0,0,0,0,415,415,479,479,0,0,0,0,0,0,0,479,479,415,0,0,0,0,0,0,0,0,0,0,0,0,0,0,415,479,0,0,479,415,415,0,0,0,0,0,0,0,0,0,0,0,0,0,0,0,0,0,0,0,0,0,0,0,0,0,0,0,0,0,415,479,479,0,0,0,0,0,0,0,0,0,479,415,415,0,0,0,0,0,0,0,0,0,0,0,0,0,415,415,0,0,479,479,415,0,0,0,0,0,0,0,0,0,0,0,0,0,0,0,0,0,0,0,0,0,0,0,0,0,0,0,0,0,415,479,0,0,0,0,0,0,0,0,0,0,479,479,415,0,0,0,0,0,0,0,0,0,0,0,0,0,0,415,0,0,0,479,415,0,0,0,0,0,0,0,0,0,0,0,0,0,0,0,0,0,0,0,0,0,0,0,0,0,0,0,0,415,415,479,0,0,0,0,0,0,0,0,0,0,479,479,415,0,0,0,0,0,0,0,0,0,0,0,0,0,0,415,0,0,0,479,415,415,0,0,0,0,0,0,0,0,0,0,0,0,0,0,0,0,0,0,0,0,0,0,0,0,0,0,0,415,479,479,0,0,0,0,0,0,0,0,0,479,479,415,415,0,0,0,0,0,0,0,0,0,0,0,0,0,0,415,0,0,0,479,415,415,0,0,0,0,0,0,0,0,0,0,0,0,0,0,0,0,0,0,0,0,0,0,0,0,0,0,0,415,415,479,479,0,0,0,0,0,0,0,0,479,415,415,0,0,0,0,0,0,0,0,0,0,0,0,0,0,415,415,0,0,479,479,415,0,0,0,0,0,0,0,0,0,0,0,0,0,0,0,0,0,0,0,0,0,0,0,0,0,0,0,0,0,415,415,479,479,479,0,0,0,0,0,479,479,415,0,0,0,0,0,0,0,0,0,0,0,0,0,0,415,415,479,0,0,479,415,415,0,0,0,0,0,0,0,0,0,0,0,0,0,0,0,0,0,0,0,0,0,0,0,0,0,0,0,0,0,0,415,415,415,479,479,479,0,479,479,479,415,415,0,0,0,0,0,0,0,0,0,415,415,0,415,415,415,479,479,0,0,479,415,0,0,0,0,0,0,0,0,0,0,0,0,0,0,0,0,0,0,0,0,0,0,0,0,0,0,0,0,0,0,0,0,0,415,415,415,479,479,479,415,415,415,0,0,0,0,0,0,0,0,0,0,415,415,415,415,479,479,479,0,0,0,479,415,0,0,0,0,0,0,0,0,0,0,0,0,0,0,0,0,0,0,0,0,0,0,0,0,0,0,0,0,0,0,0,0,0,0,0,415,415,415,415,415,0,0,0,0,0,0,0,0,0,0,0,0,0,0,0,415,479,479,0,0,0,0,479,415,0,0,0,0,0,0,0,0,0,0,0,0,0,0,0,0,0,0,0,0,0,0,0,0,0,0,0,0,0,0,0,0,0,0,0,0,0,0,0,0,0,0,0,0,0,0,0,0,0,0,0,0,0,0,0,415,415,479,0,0,0,0,479,415,415,0,0,0,0,0,0,0,0,0,0,0,0,0,0,0,0,0,0,0,0,0,0,0,0,0,0,0,0,0,0,0,0,0,0,0,0,0,0,0,0,0,0,0,0,0,0,0,0,0,0,0,0,0,0,0,415,479,0,0,0,0,479,479,415,415,415,415,0,0,0,0,0,0,0,0,0,0,0,0,0,0,0,0,0,0,0,0,0,0,0,0,0,0,0,0,0,0,0,0,0,0,0,0,0,0,0,0,0,0,0,0,0,0,0,0,0,0,0,0,415,479,0,0,0,0,0,479,479,479,479,415,415,415,0,0,0,0,0,0,0,0,0,0,0,0,0,0,0,0,0,0,0,0,0,0,0,0,0,0,0,0,0,0,0,0,0,0,0,0,0,0,0,0,0,0,0,0,0,0,0,0,0,415,415,479,0,0,0,0,0,0,0,0,479,479,479,415,415,0,0,0,0,0,0,0,0,0,0,0,0,0,0,0,0,0,0,0,0,0,0,0,0,0,0,0,0,0,0,0,0,0,0,0,0,0,0,0,0,0,0,415,415,415,0,0,415,415,479,479,0,0,0,0,0,0,0,0,0,0,479,479,415,0,0,0,0,0,0,0,0,0,0,0,0,0,0,0,0,0,0,0,0,0,0,0,0,0,0,0,0,0,0,0,0,0,0,0,0,0,0,0,0,0,415,415,479,415,415,415,415,479,479,0,0,0,0,0,0,0,0,0,0,0,0,479,415,415,0,0,0,0,0,0,0,0,0,0,0,0,0,0,0,0,0,0,0,0,0,0,0,0,0,0,0,0,0,0,0,0,0,0,0,0,0,0,0,415,415,479,479,479,479,479,479,479,0,0,0,0,0,0,0,0,0,0,0,0,0,479,479,415,415,415,415,415,415,415,0,0,0,0,0,0,0,0,0,0,0,0,0,0,0,0,0,0,0,0,0,0,0,0,0,0,0,0,0,0,0,0,415,415,479,479,0,0,0,0,0,0,0,0,0,0,0,0,0,0,0,0,0,0,0,0,479,479,479,479,479,479,479,415,0,0,0,0,0,0,0,0,0,0,0,0,0,0,0,0,0,0,0,0,0,0,0,0,0,0,0,0,0,0,0,0,415,479,479,0,0,0,0,0,0,0,0,0,0,0,0,0,0,0,0,0,0,0,0,0,0,0,0,0,0,0,479,415,415,0,0,0,0,0,0,0,0,0,0,0,0,0,0,0,0,0,0,0,0,0,0,0,0,0,0,0,0,0,0,0,415,479,0,0,0,0,0,0,0,0,0,0,0,0,0,0,0,0,0,0,0,0,0,0,0,0,0,0,0,0,479,479,415,0,0,0,0,415,415,415,0,0,0,0,0,0,0,0,0,0,0,0,0,0,0,0,0,0,0,0,0,0,0,415,415,479,0,0,0,0,0,0,0,0,0,0,0,0,0,0,0,0,0,0,0,0,0,0,0,0,0,0,0,0,0,479,415,0,0,0,415,415,479,415,415,0,0,0,0,0,415,415,415,0,0,0,0,0,0,0,415,415,0,0,0,0,0,415,479,479,0,0,0,0,0,0,0,0,0,0,0,0,0,0,0,0,0,0,0,0,0,0,0,0,0,0,0,0,0,479,415,0,0,415,415,479,479,479,415,0,0,0,0,415,415,479,415,415,0,0,0,0,415,415,415,415,415,415,0,415,415,415,479,0,0,0,0,0,0,0,0,0,0,0,0,0,0,0,0,0,0,0,0,0,0,0,0,0,0,0,0,0,0,479,415,0,0,415,479,479,0,479,415,0,0,0,415,415,479,479,479,415,415,415,415,415,415,479,479,479,479,415,415,415,479,479,479,0,0,0,0,0,0,0,0,0,0,0,0,0,0,0,0,0,0,0,0,0,0,0,0,0,0,0,0,0,0,479,415,415,415,415,479,0,0,479,415,0,0,415,415,479,479,0,479,479,479,479,479,479,479,479,0,0,479,479,479,479,479,0,0,0,0,0,0,0,0,0,0,0,0,0,0,0,0,0,0,0,0,0,0,0,0,0,0,0,0,0,0,0,0,479,479,479,479,479,479,0,479,479,415,415,415,415,479,479,479,479,479,479,479,479,479,479,0,0,0,0,0,0,0,0,0,0,0,0,0,0,0,0,0,0,0,0,0,0,0,0,0,0,0,0,0,0,0,0,0,0,0,0,0,0,0,0,0,0,0,0,0,0,0,0,479,415,415,0,0,415,415,479,479,415,415,415,415,415,415,479,479,0,0,0,0,0,0,0,0,0,0,0,0,0,0,0,0,0,0,0,0,0,0,0,0,0,0,0,0,0,0,0,0,0,0,0,0,0,0,0,0,0,0,0,0,0,0,479,479,415,0,0,0,0,415,415,415,415,0,0,0,0,415,415,479,479,479,479,479,479,479,479,0,0,0,0,0,0,0,0,0,0,0,0,0,0,0,0,0,0,0,0,0,0,0,0,0,0,0,0,0,0,0,0,0,0,0,0,0,0,0,479,415,415,0,0,0,0,415,415,0,0,0,0,0,0,0,415,415,415,415,415,415,415,415,479,479,0,0,0,0,0,0,0,0,0,0,0,0,0,0,0,0,0,0,0,0,0,0,0,0,0,0,0,0,0,479,479,479,479,479,479,479,479,479,479,415,0,0,0,0,0,0,0,0,0,0,0,0,0,0,0,0,0,0,0,0,0,415,415,479,479,0,0,0,0,0,0,0,0,0,0,0,0,0,0,0,0,0,0,0,0,0,0,0,0,0,0,0,479,479,415,415,415,415,415,479,479,415,415,415,0,0,0,0,0,0,0,0,0,0,0,0,0,0,0,0,0,0,0,0,0,0,415,415,479,479,479,479,479,479,0,0,0,0,0,0,0,0,0,0,0,0,0,0,0,0,0,0,0,0,0,479,479,415,415,0,0,0,415,415,415,415,0,0,0,0,0,0,0,0,0,0,0,0,0,0,0,0,0,0,0,0,0,0,0,0,0,415,415,415,415,415,415,479,479,0,0,0,0,0,0,0,0,0,0,0,0,0,0,0,0,0,0,0,479,479,415,415,0,0,0,0,0,0,0,0,0,0,0,0,0,0,0,0,0,0,0,0,0,0,0,0,0,0,0,0,0,0,0,0,0,415,415,0,0,0,415,415,479,0,0,0,0,0,0,0,0,0,0,0,0,0,0,0,0,0,0,0,479,415,415,0,0,0,0,0,0,0,0,0,0,0,0,0,0,0,0,0,0,0,0,0,0,0,0,0,0,0,0,0,0,0,0,0,0,0,0,0,0,0,0,415,479,0,0,0,0,0,0,0,0,0,0,0,0,0,0,0,0,0,0,0,479,415,0,0,0,0,0,0,0,0,0,0,0,0,0,0,0,0,0,0,0,0,0,0,0,0,0,0,0,0,0,0,0,0,0,0,0,0,0,0,0,0,0,415,479,0,0,0,0,0,0,0,0,0,0,0,0,0,0,0,0,0,0,0,479,415,0,0,0,0,0,0,0,0,0,0,0,0,0,0,0,0,0,0,0,0,0,0,0,0,0,0,0,0,0,0,0,0,0,0,0,0,0,0,0,0,0,415,479,0,0,0,0,0,0,0,0,0,0,0,0,0,0,0,0,0,0,479,479,415,0,0,0,0,0,0,0,0,0,0,0,0,0,0,0,0,0,0,0,0,0,0,0,0,0,0,0,0,0,0,0,0,0,0,0,0,0,0,0,0,415,415,479,0,0,0,0,0,0,0,0,0,0,0,0,0,0,0,0,0,0,479,415,415,0,0,0,0,0,0,0,0,0,0,0,0,0,0,0,0,0,0,0,0,0,0,0,0,0,0,0,0,0,0,0,0,0,0,0,0,0,0,0,0,415,415,479,0,0,0,0,0,0,0,0,0,0,0,479,479,479,479,479,479,479,479,415,0,0,0,0,0,0,0,0,0,0,0,0,0,0,0,0,0,0,0,0,0,0,0,0,0,0,0,0,0,0,0,0,0,0,0,0,0,0,0,0,0,0,415,479,479,0,0,0,0,0,0,0,0,0,0,479,415,415,415,415,415,415,415,415,0,0,0,0,0,0,0,0,0,0,0,0,0,0,0,0,0,0,0,0,0,0,0,0,0,0,0,0,0,0,0,0,0,0,0,0,0,0,0,0,0,0,415,415,479,479,479,479,0,0,0,0,0,0,479,479,415,0,0,0,0,0,0,0,0,0,0,0,0,0,0,0,0,0,0,0,0,0,0,0,0,0,0,0,0,0,0,0,0,0,0,0,0,0,0,0,0,0,0,0,0,0,0,0,0,0,0,415,415,415,415,479,479,479,0,0,0,0,479,415,415,0,0,0,0,0,0,0,0,0,0,0,0,0,0,0,0,0,0,0,0,0,0,0,0,0,0,0,0,0,0,0,0,0,0,0,0,0,0,0,0,0,0,0,0,0,0,0,0,0,0,0,0,0,415,415,415,479,0,0,0,0,479,415,0,0,0,0,0,0,0,0,0,0,0,0,0,0,0,0,0,0,0,0,0,0,0,0,0,0,0,0,0,0,0,0,0,0,0,0,0,0,0,0,0,0,0,0,0,0,0,0,0,0,0,0,0,0,0,0,415,479,0,0,0,0,479,415,0,0,0,0,0,0,0,0,0,0,0,0,0,0,0,0,0,0,0,0,0,0,0,0,0,0,0,0,0,0,0,0,0,0,0,0,0,0,0,0,0,0,0,0,0,0,0,0,0,0,0,0,0,0,0,0,415,479,479,0,0,0,479,415,415,0,0,0,0,0,0,0,0,0,0,0,0,0,0,0,0,0,0,0,0,0,0,0,0,0,0,0,0,0,0,0,0,0,0,0,0,0,0,0,0,0,0,0,0,0,0,0,0,0,0,0,0,0,0,0,415,415,479,0,0,0,479,479,415,415,415,0,0,0,0,0,0,0,0,0,0,0,0,0,0,0,0,0,0,0,0,0,0,0,0,0,0,0,0,0,0,0,0,0,0,0,0,0,0,0,0,0,0,0,0,0,0,0,0,0,0,0,0,0,0,415,479,0,0,0,0,479,479,479,415,415,415,0,0,0,0,0,0,0,0,0,0,0,0,0,0,0,0,0,0,0,0,0,0,0,0,0,0,0,0,0,0,0,0,0,0,0,0,0,0,0,0,0,0,0,0,0,0,0,0,0,0,0,415,415,479,0,0,0,0,0,0,479,479,479,415,0,0,0,0,0,0,0,0,0,0,0,0,0,0,0,0,0,0,0,0,0,0,0,0,0,0,0,0,0,0,0,0,0,0,0,0,0,0,0,0,0,0,0,0,0,0,0,0,0,0,0,415,479,479,0,0,479,479,479,479,479,479,415,415,0,0,0,0,0,0,0,0,0,0,0,0,0,0,0,0,0,0,0,0,0,0,0,0,0,0,0,0,0,0,0,0,0,0,0,0,0,0,0,0,0,0,0,0,0,0,0,0,0,0,415,415,479,0,0,0,479,415,415,415,415,415,415,0,0,0,0,0,0,0,0,0,0,0,0,0,0,0,0,0,0,0,0,0,0,0,0,0,0,0,0,0,0,0,0,0,0,0,0,0,0,0,0,0,0,0,0,0,0,0,0,0,0,0,415,479,479,0,0,0,479,415,0,0,0,0,0,0,0,0,0,0,0,0,0,0,0,0,0,0,0,0,0,0,0,0,0,0,0,0,0,0,0,0,0,0,0,0,0,0,0,0,0,0,0,0,0,0,0,0,0,0,0,0,0,0,0,0,415,479,0,0,0,0,479,415,0,0,0,0,0,0,0,0,0,0,0,0,0,0,0,0,0,0,0,0,0,0,0,0,0,0,0,0,0,0,0,0,0,0,0,0,0,0,0,0,0,0,0,0,0,0,0,0,0,0,0,0,0,0,0,0,415,479,0,0,0,0,479,415,0,0,0,0,0,0,0,0,0,0,0,0,0,0,0,0,0,0,0,0,0,0,0,0,0,0,0,0,0,0,0,0,0,0,0,0,0,0,0,0,0,0,0,0,0,0,0,0,0,0,0,0,0,0,0,0,415,479,0,0,0,0,479,415,415,415,415,0,0,0,0,0,0,0,0,0,0,0,0,0,0,0,0,0,0,0,0,0,0,0,0,0,0,0,0,0,0,0,0,0,0,0,0,0,0,0,0,0,0,0,0,0,0,0,0,0,0,0,0,0,415,479,0,0,0,0,479,479,479,479,415,415,0,0,0,0,0,0,0,0,0,0,0,0,0,0,0,0,0,0,0,0,0,0,0,0,0,0,0,0,0,0,0,0,0,0,0,0,0,0,0,0,0,0,0,0,0,0,0,0,0,0,0,0,415,479,0,0,0,0,0,0,0,479,479,415,0,0,0,0,0,0,0,0,0,0,0,0,0,0,0,0,0,0,0,0,0,0,0,0,0,0,0,0,0,0,0,0,0,0,0,0,0,0,0,0,0,0,0,0,0,0,0,0,0,0,0,0,415,479,0,0,0,0,0,0,0,0,479,415,415,0,0,0,0,0,0,0,0,0,0,0,0,0,0,0,0,0,0,0,0,0,0,0,0,0,0,0,0,0,0,0,0,0,0,0,0,0,0,0,0,0,0,0,0,0,0,0,0,0,0,415,415,479,0,0,0,0,0,0,0,0,479,479,415,0,0,0,0,0,0,0,0,0,0,0,0,0,0,0,0,0,0,0,0,0,0,0,0,0,0,0,0,0,0,0,0,0,0,0,0,0,0,0,0,0,0,0,0,0,0,0,0,0,415,415,479,479,0,0,0,0,0,0,0,0,0,479,415,415,0,0,0,0,0,0,0,0,0,0,0,0,0,0,0,0,0,0,0,0,0,0,0,0,0,0,0,0,0,0,0,0,0,0,0,0,0,0,0,0,0,0,0,0,0,0,0,415,415,479,479,0,0,0,0,0,0,0,0,0,0,479,415,415,0,0,0,0,0,0,0,0,0,0,0,0,0,0,0,0,0,0,0,0,0,0,0,0,0,0,0,0,0,0,0,0,0,0,0,0,0,0,0,0,0,0,0,0,0,0,0,415,479,479,0,0,0,0,0,0,0,0,0,0,0,479,415,0,0,0,0,0,0,0,0,0,0,0,0,0,0,0,0,0,0,0,0,0,0,0,0,0,0,0,0,0,0,0,0,0,0,0,0,0,0,0,0,0,0,0,0,0,0,0,415,415,479,0,0,0,0,0,0,0,0,0,0,0,0,479,415,0,0,0,0,0,0,0,0,0,0,0,0,0,0,0,0,0,0,0,0,0,0,0,0,0,0,0,0,0,0,0,0,0,0,0,0,0,0,0,0,0,0,0,0,0,0,0,415,479,479,0,0,0,0,0,0,0,0,0,0,0,0,479,415,0,0,0,0,415,0,0,0,0,0,0,0,0,0,0,0,0,0,0,0,0,0,0,0,0,0,0,0,0,0,0,0,0,0,0,0,0,0,0,0,0,0,0,0,0,0,0,415,479,0,0,0,0,0,0,0,0,0,0,0,0,0,479,415,0,0,415,415,415,0,0,0,0,0,0,0,0,0,0,0,0,0,0,0,0,0,0,0,0,0,0,0,0,0,0,0,0,0,0,0,0,0,0,0,0,0,0,0,0,0,0,415,479,0,0,0,0,0,0,0,0,0,0,0,0,0,479,415,415,415,415,479,415,0,0,0,0,0,0,0,0,0,0,0,0,0,0,0,0,0,0,0,0,0,0,0,0,0,0,0,0,0,0,0,0,0,0,0,0,0,0,0,0,0,415,415,479,0,0,0,0,0,0,0,0,0,0,0,0,0,479,479,479,479,479,479,415,415,0,0,0,0,0,0,0,0,0,0,0,0,0,0,0,0,0,0,0,0,0,0,0,0,0,0,0,0,0,0,0,0,0,0,415,415,0,0,0,0,415,479,479,0,0,0,0,0,0,0,0,0,0,0,0,0,0,0,0,0,0,479,479,415,0,0,0,0,0,0,0,0,0,0,0,0,0,0,0,0,0,0,0,0,0,0,0,0,0,0,0,0,0,0,0,0,415,415,415,415,415,415,415,415,415,479,0,0,0,0,0,0,0,0,0,0,0,0,0,0,0,0,0,0,0,0,479,415,415,0,0,0,0,0,0,0,0,0,0,0,0,0,0,0,0,0,0,0,0,0,0,0,0,0,0,0,0,0,0,415,415,479,479,479,479,479,479,479,479,479,0,0,0,0,0,0,0,0,0,0,0,0,0,0,0,0,0,0,0,0,479,479,415,415,415,415,415,415,415,0,0,0,0,0,0,0,0,0,0,0,0,0,0,0,0,0,0,0,0,0,0,0,415,415,479,479,0,0,0,0,0,0,0,0,0,0,0,0,0,0,0,0,0,0,0,0,0,0,0,0,0,0,0,0,0,479,479,479,479,479,479,479,415,415,415,0,0,0,0,0,0,0,0,0,0,0,0,0,0,0,0,0,0,0,0,415,415,479,479,0,0,0,0,0,0,0,0,0,0,0,0,0,0,0,0,0,0,0,0,0,0,0,0,0,0,0,0,0,0,0,0,0,0,0,0,479,479,479,415,415,0,0,415,415,415,415,0,0,0,0,0,0,0,415,415,0,0,0,0,415,479,479,0,0,0,0,0,0,0,0,0,0,0,0,0,0,0,0,0,0,0,0,0,0,0,0,0,0,0,0,0,0,0,0,0,0,0,0,0,0,0,479,479,415,415,415,415,479,479,415,415,0,0,0,0,415,415,415,415,415,0,0,415,415,479,0,0,0,0,0,0,0,0,0,0,0,0,0,0,0,0,0,0,0,0,0,0,0,0,0,0,0,0,0,0,0,0,0,0,0,0,0,0,0,0,0,479,479,479,479,479,479,479,479,415,415,415,415,415,415,479,479,479,415,415,415,415,479,479,0,0,0,0,0,0,0,0,0,0,0,0,0,0,0,0,0,0,0,0,0,0,0,0,0,0,0,0,0,0,0,0,0,0,0,0,0,0,0,0,0,0,0,0,0,0,0,0,479,479,479,479,479,479,479,479,0,479,479,479,479,479,479,0,0,0,0,0,0,0,0,0,0,0,0,0,0,0,0,0,0,0,0,0,0,0,0,0,0,0,0,0,0,0,0,0,0,0,0,0,0,0,0,0,0,0,0,0,0,0,0,0,0,0,0,0,0,0,0,0,0,0,0,0,0,0,0,0,0,0,0,0,0,0,0,0,0,0,0,0,0,0,0,0,0,0,0]},{"id":3,"name":"land","type":"tilelayer","width":64,"height":150,"x":0,"y":0,"opacity":1,"visible":true,"data":[0,0,0,0,0,0,0,0,0,0,0,0,0,0,0,0,0,0,0,0,0,0,0,0,0,0,0,0,0,0,0,0,0,0,0,0,0,0,0,0,0,0,0,0,0,0,0,0,0,0,0,0,0,0,0,0,0,0,0,0,0,0,0,0,0,0,0,0,0,0,0,0,0,0,0,0,0,0,0,0,0,0,0,0,0,0,0,0,0,0,0,0,0,0,0,0,0,0,0,0,0,0,0,0,0,0,0,0,0,0,0,0,0,0,0,0,0,0,0,0,0,0,0,0,0,0,0,0,0,0,0,0,0,0,0,0,0,0,0,0,0,0,0,0,0,0,0,0,0,0,0,0,0,0,0,0,0,0,0,0,0,0,0,0,0,0,0,0,0,0,0,0,0,0,0,0,0,0,0,0,0,0,0,0,0,0,0,0,0,0,0,0,0,0,0,0,0,0,0,0,0,0,0,0,0,0,0,0,0,0,0,0,0,0,0,0,0,0,0,0,0,0,0,0,0,0,0,0,0,0,0,0,0,0,0,0,0,0,0,0,0,0,0,0,0,0,0,0,0,0,0,0,0,0,0,0,0,0,0,0,0,0,0,0,0,0,0,0,0,0,0,0,0,0,0,0,0,0,0,0,0,0,0,0,0,0,0,0,0,0,0,0,0,0,0,0,0,0,0,0,0,0,0,0,0,0,0,0,0,0,0,0,0,0,0,0,0,0,0,0,0,0,0,0,0,0,0,0,0,0,0,0,0,0,0,0,0,0,0,268,268,0,0,0,0,0,268,268,268,268,268,0,0,0,0,0,0,0,0,0,0,0,0,0,0,0,0,0,0,0,0,0,0,0,0,0,0,0,0,0,0,0,0,0,0,0,0,0,0,0,0,0,0,0,0,0,0,0,0,0,0,0,268,201,-2147483447,268,0,0,268,268,201,258,196,196,470,268,268,268,268,268,268,268,268,0,0,0,0,0,0,0,0,0,0,0,0,0,0,0,0,0,0,0,0,0,0,0,0,0,0,0,0,0,0,0,0,0,0,0,0,0,0,0,0,0,0,0,268,258,196,-2147483447,268,268,201,194,196,194,196,196,470,469,194,258,196,194,195,258,-2147483447,268,0,0,0,0,0,0,0,0,0,0,0,0,0,0,0,0,0,0,0,0,0,0,0,0,0,0,0,0,0,0,0,0,0,0,0,0,0,0,0,0,0,0,268,259,194,196,258,195,196,196,194,196,258,194,258,470,470,194,259,194,195,194,194,-2147483447,268,268,268,268,268,268,268,0,0,0,0,0,0,0,0,0,0,0,0,0,0,0,0,0,0,0,0,0,0,0,0,0,0,0,0,0,0,0,0,0,0,268,201,194,196,196,194,258,194,196,194,196,194,194,194,194,470,469,196,196,194,194,194,194,194,194,195,195,194,194,-2147483447,268,0,0,0,0,0,0,0,0,0,0,0,0,0,0,0,0,0,0,0,0,0,0,0,0,0,0,0,0,0,0,0,0,268,201,258,194,196,196,194,194,196,194,195,194,194,258,196,194,470,469,194,196,194,194,259,258,196,196,194,258,196,196,194,-2147483447,268,0,0,0,0,0,0,0,0,0,0,0,0,0,0,0,0,0,0,0,0,0,0,0,0,0,0,0,0,0,0,268,201,194,195,196,194,259,196,196,258,259,196,194,196,196,196,258,470,470,194,194,258,196,194,258,194,196,195,194,196,258,258,196,-2147483447,268,268,268,268,268,0,0,0,0,0,0,0,0,0,0,0,0,0,0,0,0,0,0,0,268,0,0,0,268,268,201,196,194,258,196,258,196,194,194,195,196,194,194,258,194,194,194,470,470,194,258,258,196,194,196,194,194,194,196,196,194,258,195,194,196,194,258,196,-2147483447,268,0,0,0,0,0,0,0,0,0,0,0,0,0,0,0,0,0,268,196,268,268,268,201,194,196,196,194,258,194,196,196,194,195,194,196,196,258,194,196,194,258,469,469,196,194,194,194,194,196,258,196,194,258,194,258,194,258,258,194,196,196,258,194,268,0,0,0,0,0,0,0,0,0,0,0,0,0,0,0,0,0,268,1073742025,194,196,194,196,196,258,196,258,194,196,196,259,194,259,259,195,258,196,194,196,196,470,469,258,194,258,194,258,258,194,196,194,194,194,194,194,196,196,258,259,196,195,194,258,-2147483447,268,0,0,0,0,0,0,0,0,0,0,0,0,0,0,0,0,268,268,268,1073742025,196,194,196,258,194,258,195,194,194,259,196,194,194,194,258,196,194,194,196,196,469,469,194,258,258,194,194,195,194,194,194,194,194,194,194,194,194,196,196,196,194,194,-1073741623,268,0,0,0,0,0,0,0,0,0,0,0,0,0,0,0,0,0,0,0,268,196,194,194,196,196,196,196,194,258,258,258,194,196,194,194,196,194,194,196,196,469,470,194,196,195,259,196,258,196,194,194,194,196,194,196,194,195,194,194,259,196,194,268,0,0,0,0,0,0,0,0,0,0,0,0,0,0,0,0,0,0,0,0,268,258,258,195,194,194,194,194,194,194,259,194,196,258,194,258,196,258,196,194,196,469,469,258,195,194,194,195,194,258,194,196,194,196,194,194,194,194,258,194,196,196,194,268,0,0,0,0,0,0,0,0,0,0,0,0,0,0,0,0,0,0,0,0,268,194,196,259,194,194,194,195,194,194,194,194,259,194,195,194,258,194,259,196,194,469,469,469,470,469,194,196,194,194,194,196,194,196,258,258,196,194,259,258,194,194,196,268,0,0,0,0,0,0,0,0,0,0,0,0,0,0,0,268,268,268,0,268,201,196,194,196,196,196,196,195,194,194,194,196,469,469,470,469,469,469,470,470,469,469,470,196,195,196,258,194,194,194,194,196,195,196,196,195,195,194,194,196,258,194,194,268,0,0,0,0,0,0,0,0,0,0,0,0,0,0,268,201,194,-2147483447,268,201,258,196,258,196,258,194,196,194,259,194,196,196,194,259,194,194,196,258,258,196,194,469,469,196,194,194,258,194,194,196,196,194,194,194,194,196,196,195,196,194,194,194,258,268,0,0,0,0,0,0,0,0,0,0,0,0,0,268,201,194,194,258,258,196,194,196,196,196,194,194,196,196,194,194,196,259,194,258,196,194,196,258,195,196,258,470,470,196,194,258,194,196,196,194,258,194,195,196,194,196,196,258,196,194,196,194,258,-2147483447,268,268,268,268,0,0,0,0,0,0,0,0,0,268,194,258,195,194,196,258,195,194,258,194,194,194,194,196,194,194,258,194,259,258,196,258,194,195,196,196,470,469,194,196,194,194,196,196,258,259,194,258,258,196,194,196,196,194,195,196,194,259,259,194,196,195,258,-2147483447,268,0,0,0,0,0,0,0,0,268,194,194,196,194,259,194,196,194,196,194,259,258,258,194,196,196,194,194,196,196,194,194,196,196,196,194,470,469,194,196,196,196,196,258,195,258,194,194,196,258,194,194,258,194,196,194,196,196,194,470,470,470,469,196,268,0,0,0,0,0,0,0,0,268,195,258,195,194,196,259,195,194,194,194,194,194,259,194,194,195,194,194,195,194,258,259,195,259,196,194,194,470,470,194,196,194,196,196,194,258,196,195,195,196,194,194,196,196,194,196,194,194,196,470,469,470,469,196,-2147483447,268,0,0,0,0,0,0,0,268,1073742025,194,194,194,194,194,194,196,194,194,194,194,194,194,194,194,196,194,196,194,258,194,259,194,194,196,194,470,470,194,195,258,258,196,196,196,196,196,196,194,258,194,196,194,194,194,258,196,196,470,469,470,470,258,196,268,0,0,0,0,0,0,0,0,268,268,268,268,1073742025,194,196,194,194,196,195,196,196,258,194,196,194,194,258,258,194,196,196,194,194,196,195,469,469,194,194,195,196,258,194,196,196,196,196,196,194,196,196,196,258,195,194,196,258,196,194,258,196,196,-1073741623,268,0,0,0,0,0,0,0,0,0,0,0,0,268,196,194,196,195,196,196,194,194,196,258,194,195,194,196,258,194,196,194,196,194,196,258,469,470,470,469,469,469,469,469,196,259,195,194,194,258,196,196,194,196,258,195,258,196,194,196,258,194,259,268,0,0,0,0,0,0,0,0,0,0,0,0,0,268,258,194,259,258,470,470,469,469,470,470,469,470,470,470,470,196,196,196,196,196,470,470,469,469,470,469,470,469,470,469,470,469,470,469,470,469,470,469,470,194,258,194,194,258,196,195,194,196,-1073741623,268,0,0,0,0,0,0,0,0,0,0,0,0,0,268,194,196,196,258,194,194,196,194,194,194,194,196,195,194,194,258,194,259,259,258,196,196,195,470,469,196,196,194,196,258,196,195,194,196,194,258,194,194,196,194,194,194,196,258,196,194,258,-1073741623,268,0,0,0,0,0,0,0,0,0,0,0,0,0,268,201,259,469,469,470,470,194,194,258,196,196,259,196,195,196,196,258,196,470,470,469,469,469,470,470,469,194,196,259,196,194,195,194,195,258,194,259,196,196,196,196,194,195,196,196,258,196,196,268,0,0,0,0,0,0,0,0,0,0,0,0,0,0,268,194,258,469,469,469,470,196,194,195,195,194,194,196,196,196,194,196,194,196,259,196,194,195,470,470,196,196,258,194,196,196,194,258,194,194,258,258,194,194,194,195,196,194,196,259,194,259,194,268,0,0,0,0,0,0,0,0,0,0,0,0,0,268,201,196,258,469,470,470,470,196,194,194,194,196,196,194,194,259,196,195,196,258,196,196,196,196,469,470,194,258,470,470,469,469,196,258,194,194,194,196,259,194,258,196,196,259,258,259,194,194,196,268,0,0,0,0,0,0,0,0,0,0,0,0,0,268,196,196,194,196,258,194,196,194,194,194,194,196,194,196,196,194,196,195,195,194,258,196,196,196,469,470,194,194,469,470,469,470,196,194,258,195,195,194,194,196,194,194,194,194,194,194,194,194,196,268,0,0,0,0,0,0,0,0,0,0,0,0,0,268,1073742025,194,196,196,196,194,194,259,194,259,258,194,196,258,194,259,196,195,258,196,258,258,194,196,194,470,470,259,469,470,470,469,194,258,194,259,258,194,194,194,194,258,194,194,194,194,196,194,196,268,0,0,0,0,0,0,0,0,0,0,0,0,0,0,268,196,194,196,196,194,258,194,259,194,258,194,196,194,196,194,194,194,196,258,258,194,196,194,196,470,470,196,196,194,196,258,194,194,194,194,194,196,258,194,195,195,196,259,258,196,194,195,196,268,0,0,0,0,0,0,0,0,0,0,0,0,0,0,268,1073742025,194,194,194,196,258,196,194,195,259,194,194,194,194,258,194,258,258,194,194,196,196,194,196,469,469,469,195,259,194,196,259,194,194,196,194,194,196,194,259,194,196,194,259,196,196,194,-1073741623,268,0,0,0,0,0,0,0,0,0,0,0,0,0,0,0,268,1073742025,194,259,194,259,258,194,259,196,258,194,194,194,196,258,196,258,258,194,194,194,470,469,469,194,470,469,469,469,470,469,469,470,470,194,194,258,194,258,196,194,194,194,196,196,-1073741623,268,0,0,0,0,0,0,0,0,0,0,0,0,0,0,0,0,0,268,268,268,268,268,1073742025,196,258,194,194,196,194,258,258,194,194,194,194,194,194,196,196,195,194,196,194,196,196,194,194,194,258,194,196,258,195,259,195,-1073741623,268,268,268,268,268,268,268,0,0,0,0,0,0,0,0,0,0,0,0,0,0,0,0,0,0,0,0,0,0,0,268,194,258,196,196,470,470,470,469,470,469,470,469,470,259,196,194,194,259,196,194,194,258,196,258,194,196,196,194,194,196,194,196,268,0,0,0,0,0,0,0,0,0,0,0,0,0,0,0,0,0,0,0,0,0,0,0,0,0,0,0,0,0,0,268,1073742025,196,194,195,194,194,196,194,194,258,195,258,196,194,196,195,195,194,195,196,196,196,194,194,194,194,196,196,258,196,196,194,268,0,0,0,0,0,0,0,0,0,0,0,0,0,0,0,0,0,0,0,0,0,0,0,0,0,0,0,0,0,0,0,268,194,194,194,194,196,196,196,196,194,196,194,258,258,194,194,196,196,196,196,194,194,194,194,194,194,196,258,196,196,258,195,268,0,0,0,0,0,0,0,0,0,0,0,0,0,0,0,0,0,0,0,0,0,0,0,0,0,0,0,0,0,0,0,268,195,194,-1073741623,268,268,268,1073742025,258,196,258,194,196,194,258,469,469,470,196,194,194,194,196,258,195,194,194,194,194,195,195,-1073741623,268,0,0,0,0,0,0,0,0,0,0,0,0,0,0,0,0,0,0,0,0,0,0,0,0,0,0,0,0,0,0,0,268,196,194,268,0,0,0,268,194,259,194,196,195,196,259,470,470,194,194,194,259,195,194,194,196,194,196,196,258,194,-1073741623,268,0,0,0,0,0,0,0,0,0,0,0,0,0,0,0,0,0,0,0,0,0,0,0,0,0,0,0,0,0,0,0,0,268,1073742025,-1073741623,268,0,0,0,268,258,194,258,194,-1073741623,268,268,268,470,196,196,194,194,-1073741623,268,268,268,1073742025,195,194,194,-1073741623,268,0,0,0,0,0,0,0,0,0,0,0,0,0,0,0,0,0,0,0,0,0,0,0,0,0,0,0,0,0,0,0,0,0,268,268,268,0,0,0,0,268,196,194,196,-1073741623,268,0,0,0,268,194,194,-1073741623,268,268,0,0,0,268,268,268,268,268,0,0,0,0,0,0,0,0,0,0,0,0,0,0,0,0,0,0,0,0,0,0,0,0,0,0,0,0,0,0,0,0,0,0,0,0,0,0,0,0,0,268,196,196,196,268,0,0,0,0,268,196,-1073741623,268,0,0,0,0,0,0,0,0,0,0,0,0,0,0,0,0,0,0,0,0,0,0,0,0,0,0,0,0,0,0,0,0,0,0,0,0,0,0,0,0,0,0,0,0,0,0,0,0,0,0,0,268,1073742025,258,-1073741623,268,0,0,0,0,268,258,268,0,0,0,0,0,0,0,0,0,0,0,0,0,0,0,0,0,0,0,0,0,0,0,0,0,0,0,0,0,0,0,0,0,0,0,0,0,0,0,0,0,0,0,0,0,0,0,0,0,0,0,0,0,268,268,268,0,0,0,0,0,268,196,268,0,0,0,0,0,0,0,0,0,0,0,0,0,0,0,0,0,0,0,0,0,0,0,0,0,0,0,0,0,0,0,0,0,0,0,0,0,0,0,0,0,0,0,0,0,0,0,0,0,0,0,0,0,0,0,0,0,0,0,0,0,0,268,0,0,0,0,0,0,0,0,0,0,0,0,0,0,0,0,0,0,0,0,0,0,0,0,0,0,0,0,0,0,0,0,0,0,0,0,0,0,0,0,0,0,0,0,0,0,0,0,0,0,0,0,0,0,0,0,0,0,0,0,0,0,0,0,0,0,0,0,0,0,0,0,0,0,0,0,0,0,0,0,0,0,0,0,0,0,0,0,0,0,0,0,0,0,0,0,0,0,0,0,0,0,0,0,0,0,0,0,0,0,0,0,0,0,0,0,0,0,0,0,0,0,0,0,0,0,0,0,0,0,0,0,0,0,0,0,0,0,0,0,0,0,0,0,0,0,0,0,0,0,0,0,0,0,0,0,0,0,0,0,0,0,0,0,0,0,0,0,0,0,0,0,0,0,0,0,0,0,0,0,0,0,0,0,0,0,0,0,0,0,0,0,0,0,0,0,0,0,0,0,0,0,0,0,0,0,0,0,0,0,0,0,0,0,0,0,0,0,0,0,0,0,0,0,0,0,0,0,0,0,0,0,0,0,0,0,0,0,0,0,0,0,0,0,0,0,0,0,0,0,0,0,0,0,0,0,0,0,0,0,0,0,268,268,0,0,0,0,0,0,0,0,0,0,0,0,0,0,0,0,0,0,0,0,0,0,0,0,0,0,0,0,0,0,0,0,0,0,0,0,0,0,0,0,0,0,0,0,0,0,0,0,0,0,0,0,0,268,268,0,0,0,0,0,0,268,201,-2147483447,268,0,0,0,0,0,0,0,0,0,0,0,0,0,0,0,0,0,0,0,0,0,0,0,0,0,0,0,0,0,0,0,0,0,0,0,0,0,0,0,0,0,0,0,268,268,268,0,0,0,0,0,268,469,469,268,0,0,0,0,0,268,196,258,268,0,0,0,0,0,0,0,0,0,0,0,0,0,0,0,0,0,0,0,0,0,0,0,0,0,0,0,0,0,0,0,0,0,0,0,0,0,0,0,0,0,268,268,201,196,-2147483447,268,268,0,268,268,201,469,470,-2147483447,268,0,0,0,268,201,196,194,268,0,0,0,0,0,0,0,0,0,0,0,0,0,0,0,0,0,0,0,0,0,0,0,0,0,0,0,0,0,0,0,0,0,0,0,0,0,0,0,268,268,201,196,195,194,194,196,-2147483447,268,201,259,194,259,470,469,-2147483447,268,268,268,201,194,196,258,268,0,0,0,0,0,0,0,0,0,0,0,0,0,0,0,0,0,0,0,0,0,0,0,0,0,0,0,0,0,0,0,0,0,0,0,0,0,0,268,201,194,194,194,195,194,258,258,194,194,194,194,196,196,196,470,469,194,258,194,194,194,194,196,268,0,0,0,0,0,268,0,0,0,0,0,0,0,0,0,0,0,0,0,0,0,0,0,0,0,0,0,0,0,0,0,0,0,0,0,0,0,0,268,259,258,196,196,196,259,258,258,194,258,259,194,194,258,469,470,194,194,259,196,258,194,194,194,-2147483447,268,0,268,268,268,196,268,0,0,0,0,0,0,0,0,0,0,0,0,0,0,0,0,0,0,0,0,0,0,0,0,0,0,0,0,0,0,0,268,194,194,194,259,259,196,194,196,194,194,196,196,196,194,470,469,194,194,194,194,196,258,194,196,194,-2147483447,268,201,196,194,196,268,0,0,0,0,0,0,0,0,0,0,0,0,0,0,0,0,0,0,0,0,0,0,0,0,0,0,268,268,268,0,0,268,196,469,470,470,469,196,196,194,196,258,195,194,194,194,469,469,194,194,194,258,194,194,258,196,194,196,195,196,194,196,194,-2147483447,268,0,0,0,0,0,0,0,0,0,0,0,0,0,0,0,0,0,0,0,0,0,0,0,0,268,201,196,-2147483447,268,268,201,196,470,469,470,470,194,258,196,258,258,194,196,196,469,470,194,258,258,194,196,195,195,258,258,258,194,196,194,196,194,195,194,-2147483447,268,0,0,0,0,0,0,0,0,0,0,0,0,0,0,0,0,0,0,0,0,0,268,268,201,196,194,258,194,259,194,196,469,470,469,470,194,258,259,258,196,196,258,470,470,196,196,194,196,194,196,196,194,258,194,194,196,194,194,194,194,196,259,196,-2147483447,268,268,268,268,0,0,0,0,0,0,0,0,0,0,0,0,0,0,0,0,268,201,194,194,196,259,194,196,196,194,258,196,258,194,194,194,196,194,258,196,258,196,469,469,194,194,194,194,194,196,196,195,194,194,196,196,196,196,258,194,259,194,194,196,194,194,196,-2147483447,268,0,0,0,0,0,0,0,0,0,0,0,0,0,0,0,268,196,194,196,196,196,194,194,259,196,194,196,194,196,194,196,196,194,196,258,258,194,196,469,469,259,194,196,196,194,196,196,194,196,196,258,196,258,196,194,194,196,470,470,469,469,194,194,-2147483447,268,0,0,0,0,0,0,0,0,0,0,0,0,0,0,268,196,259,258,196,194,194,194,196,195,194,258,196,194,259,194,196,194,259,258,196,194,195,469,470,194,194,258,194,194,194,194,258,258,194,258,194,196,258,196,258,194,469,469,469,470,196,194,196,268,0,0,0,0,0,0,0,0,0,0,0,0,0,0,268,194,194,469,470,470,470,258,196,194,194,258,194,194,194,196,194,194,194,194,196,259,470,469,470,196,194,194,196,194,194,258,196,196,258,196,258,196,196,194,196,196,470,470,470,469,195,258,196,-2147483447,268,0,0,0,0,0,0,0,0,0,0,0,0,0,268,194,194,470,469,470,469,259,194,194,194,196,196,258,258,194,194,258,469,470,470,470,469,194,469,469,194,194,258,258,195,194,196,196,258,259,194,258,196,196,258,194,194,194,194,196,194,194,258,-1073741623,268,0,0,0,0,0,0,0,0,0,0,0,0,0,268,196,258,469,470,470,469,194,196,194,194,196,258,258,194,195,194,194,196,194,196,196,196,469,469,196,469,469,469,470,469,469,469,469,470,469,469,470,194,258,258,196,194,196,194,196,194,196,194,268,0,0,0,0,0,0,0,0,0,0,0,0,0,268,201,194,194,196,196,258,259,196,194,194,194,195,194,195,196,194,196,194,195,196,258,194,194,196,470,469,194,194,196,195,258,195,196,194,258,196,258,196,194,194,258,258,196,194,194,196,258,258,-1073741623,268,0,0,0,0,0,0,0,0,0,0,0,0,0,268,196,194,196,258,258,259,258,194,194,196,195,195,196,194,196,194,195,194,196,194,194,194,196,258,470,470,194,196,196,194,194,194,-1073741623,268,268,268,268,1073742025,194,194,196,195,194,196,259,194,194,196,268,0,0,0,0,0,0,0,0,0,0,0,0,0,268,201,194,194,259,194,195,194,196,258,194,196,194,258,196,194,196,194,196,258,258,194,194,194,196,194,470,470,194,-1073741623,268,268,268,268,268,0,0,0,0,268,268,1073742025,194,258,194,196,259,194,259,258,268,0,0,0,0,0,0,0,0,0,0,0,0,268,201,196,194,194,259,196,194,258,194,194,196,196,196,194,196,195,194,258,194,195,194,258,196,259,194,196,196,469,469,268,0,0,0,0,0,0,0,0,0,0,0,268,1073742025,196,195,194,196,194,196,259,268,0,0,0,0,0,0,0,0,0,0,0,0,268,196,194,194,258,259,258,194,194,194,194,195,196,258,194,196,194,194,258,259,194,258,258,194,194,194,196,470,469,268,0,0,0,0,0,0,0,0,0,0,0,0,0,268,194,194,196,195,258,194,258,-2147483447,268,0,0,0,0,0,0,0,0,0,0,268,194,196,195,194,194,196,194,196,196,196,194,194,259,196,259,194,196,194,195,258,194,194,196,194,194,195,259,469,268,0,0,0,0,0,0,0,0,0,0,0,0,0,0,268,1073742025,259,196,194,194,258,196,196,-2147483447,268,268,268,268,0,0,0,0,0,0,0,268,196,194,196,196,196,194,194,194,259,196,258,196,194,194,194,196,196,194,195,194,194,196,196,194,196,196,470,268,0,0,0,0,0,0,0,0,0,0,0,0,0,0,0,268,194,258,194,259,194,196,194,259,259,194,-2147483447,268,0,0,0,0,0,0,0,268,258,194,258,196,194,194,194,196,194,194,259,194,194,196,194,194,258,194,194,258,469,470,469,470,469,469,470,268,0,0,0,0,0,0,0,0,0,0,0,0,0,0,0,268,194,196,194,194,258,259,470,469,470,470,194,-2147483447,268,0,0,0,0,0,0,268,1073742025,259,196,194,194,194,196,196,194,194,259,194,259,196,196,196,194,196,194,258,194,196,194,194,469,470,268,0,0,0,0,0,0,0,0,0,0,0,0,0,0,0,0,268,194,194,196,194,194,258,469,469,470,470,258,196,268,0,0,0,0,0,0,0,268,196,194,194,258,194,470,469,470,470,470,469,470,469,469,470,470,469,470,470,469,470,469,469,470,258,268,0,0,0,0,0,0,0,0,0,0,0,0,0,0,0,0,268,259,196,196,196,194,258,469,470,469,470,194,-1073741623,268,0,0,0,0,0,0,0,268,196,194,194,195,196,196,196,196,196,196,258,194,196,259,194,195,194,194,196,196,196,196,196,194,194,268,0,0,0,0,0,0,0,0,0,0,0,0,0,0,0,268,201,196,196,196,196,259,194,194,194,194,258,-1073741623,268,0,0,0,0,0,0,0,268,201,194,196,196,258,196,196,258,195,196,194,194,194,196,196,194,194,196,258,196,194,194,194,196,194,194,-2147483447,268,0,0,0,0,0,0,0,0,0,0,0,0,0,268,201,194,194,194,258,196,194,-1073741623,268,268,194,268,268,0,0,0,0,0,0,0,0,268,196,194,258,194,194,196,194,195,196,194,258,194,196,196,194,196,194,195,258,196,258,196,258,196,194,196,194,469,268,0,0,0,0,0,0,0,0,0,0,0,0,268,195,194,194,194,258,195,195,268,0,0,268,0,0,0,0,0,0,0,0,0,268,201,194,196,196,194,194,259,194,196,196,195,258,194,196,258,194,258,258,194,195,258,194,196,258,196,196,196,194,469,469,268,268,0,0,204,415,415,204,0,0,0,268,201,195,259,196,194,194,194,194,268,0,0,0,0,0,0,0,0,0,0,0,0,268,194,258,194,194,259,258,259,196,196,258,196,194,194,196,194,194,196,196,196,194,196,194,196,259,258,195,194,470,470,194,194,-2147483447,268,268,268,479,479,268,0,268,268,201,194,196,258,258,196,196,195,196,-2147483447,268,268,268,0,0,0,0,0,0,0,0,0,268,1073742025,196,196,194,196,195,194,194,194,195,196,195,194,196,196,196,194,194,258,196,196,194,196,195,258,194,194,470,470,258,196,258,196,-2147483447,268,479,479,268,268,201,259,259,195,258,259,258,194,196,258,194,194,194,-2147483447,268,0,0,0,0,0,0,0,0,0,0,268,268,268,1073742025,194,194,196,194,194,258,196,258,196,195,196,194,194,194,194,469,469,470,470,469,470,470,470,469,470,194,194,196,196,194,268,479,479,268,259,194,194,196,259,196,194,196,258,196,196,258,259,194,194,-2147483447,268,0,0,0,0,0,0,0,0,0,0,0,0,268,268,1073742025,194,259,194,196,196,258,196,194,195,258,196,195,196,194,194,194,196,194,196,194,469,470,469,196,258,258,196,194,268,479,479,268,194,194,194,196,196,258,194,196,258,194,195,194,196,196,194,-1073741623,268,0,0,0,0,0,0,0,0,0,0,0,0,0,0,268,1073742025,195,194,194,258,258,195,196,194,258,195,194,195,194,194,196,195,258,259,196,194,194,194,194,194,194,194,194,543,543,543,543,195,194,194,194,194,196,195,194,196,-1073741623,268,268,268,1073742025,-1073741623,268,0,0,0,0,0,0,0,0,0,0,0,0,0,0,0,0,268,194,194,196,196,470,469,470,469,470,469,470,470,470,470,470,469,469,470,194,194,195,194,196,194,259,196,194,469,469,469,469,195,194,259,194,259,196,259,194,-1073741623,268,0,0,0,268,268,0,0,0,0,0,0,0,0,0,0,0,0,0,0,0,0,0,268,1073742025,196,194,258,194,196,194,194,194,194,194,258,259,196,194,194,258,196,196,194,258,196,194,196,194,196,258,258,194,194,194,196,194,195,196,196,258,194,-1073741623,268,0,0,0,0,0,0,0,0,0,0,0,0,0,0,0,0,0,0,0,0,0,0,0,0,268,268,268,268,268,268,1073742025,196,194,194,196,258,196,194,194,195,194,194,194,196,196,194,196,194,195,194,194,196,194,196,196,194,194,196,194,258,195,-1073741623,268,0,0,0,0,0,0,0,0,0,0,0,0,0,0,0,0,0,0,0,0,0,0,0,0,0,0,0,0,0,0,0,268,194,258,194,194,194,196,194,258,194,194,196,259,194,469,470,194,194,258,194,196,194,195,196,196,194,259,196,195,258,259,268,0,0,0,0,0,0,0,0,0,0,0,0,0,0,0,0,0,0,0,0,0,0,0,0,0,0,0,0,0,0,0,0,268,1073742025,194,196,194,196,258,194,259,258,258,258,194,194,470,469,196,194,194,194,196,258,259,194,196,196,196,195,196,195,196,268,0,0,0,0,0,0,0,0,0,0,0,0,0,0,0,0,0,0,0,0,0,0,0,0,0,0,0,0,0,0,0,0,0,268,258,194,-1073741623,268,268,268,1073742025,258,196,196,194,196,469,470,194,196,194,196,258,194,196,196,196,194,259,258,196,258,-1073741623,268,0,0,0,0,0,0,0,0,0,0,0,0,0,0,0,0,0,0,0,0,0,0,0,0,0,0,0,0,0,0,0,0,0,268,194,-1073741623,268,0,0,0,268,1073742025,194,258,196,470,268,268,268,1073742025,196,194,194,196,196,-1073741623,268,268,1073742025,258,196,-1073741623,268,0,0,0,0,0,0,0,0,0,0,0,0,0,0,0,0,0,0,0,0,0,0,0,0,0,0,0,0,0,0,0,0,0,0,268,194,268,0,0,0,0,0,268,259,194,-1073741623,268,0,0,0,268,1073742025,195,196,-1073741623,268,268,0,0,268,268,258,268,268,0,0,0,0,0,0,0,0,0,0,0,0,0,0,0,0,0,0,0,0,0,0,0,0,0,0,0,0,0,0,0,0,0,0,268,268,0,0,0,0,0,0,268,196,-1073741623,268,0,0,0,0,0,268,268,268,268,0,0,0,0,0,0,268,0,0,0,0,0,0,0,0,0,0,0,0,0,0,0,0,0,0,0,0,0,0,0,0,0,0,0,0,0,0,0,0,0,0,0,0,268,268,0,0,0,0,0,0,268,194,268,0,0,0,0,0,0,0,0,0,0,0,0,0,0,0,0,0,0,0,0,0,0,0,0,0,0,0,0,0,0,0,0,0,0,0,0,0,0,0,0,0,0,0,0,0,0,0,0,0,0,0,0,0,0,0,0,0,0,0,0,0,268,268,0,0,0,0,0,0,0,0,0,0,0,0,0,0,0,0,0,0,0,0,0,0,0,0,0,0,0,0,0,0,0,0,0,0,0,0,0,0,0,0,0,0,0,0,0,0,0,0,0,0,0,0,0,0,0,0,0,0,0,0,0,0,0,0,0,0,0,0,0,0,0,0,0,0,0,0,0,0,0,0,0,0,0,0,0,0,0,0,0,0,0,0,0,0,0,0,0,0,0,0,0,0,0,0,0,0,0,0,0,0,0,0,0,0,0,0,0,0,0,0,0,0,0,0,0,0,268,268,0,0,0,0,0,0,0,0,0,0,0,0,0,0,0,0,0,0,0,0,0,0,0,0,0,0,0,0,0,0,0,0,0,0,0,0,0,0,0,0,0,0,0,0,0,0,0,0,0,0,0,0,0,0,0,0,0,0,0,0,0,268,201,-2147483447,268,0,0,0,0,268,268,268,268,0,0,0,0,0,0,0,0,0,0,0,0,0,0,0,0,0,0,0,0,0,0,0,0,0,0,0,0,0,0,0,0,0,0,0,0,0,0,0,0,0,0,0,0,0,0,0,0,0,0,0,0,268,195,196,268,0,0,268,268,201,196,196,-2147483447,268,0,0,0,0,0,0,0,0,0,0,0,0,0,0,0,0,0,0,0,0,0,0,0,0,0,0,0,0,0,0,0,0,0,0,0,0,0,0,0,0,0,0,0,0,0,0,0,0,0,0,268,201,259,194,-2147483447,268,268,470,194,194,196,194,196,-2147483447,268,268,268,268,268,268,268,0,0,0,0,0,0,0,0,0,0,0,0,0,0,0,0,0,0,0,0,0,0,0,0,0,0,0,0,0,0,0,0,0,0,0,0,0,0,0,0,0,0,0,268,194,196,194,194,195,469,469,196,259,259,194,196,194,194,195,196,194,194,259,-2147483447,268,0,0,0,0,0,0,0,0,0,0,0,0,0,0,0,0,0,0,0,0,0,0,0,0,0,0,0,0,0,0,0,0,0,268,268,268,0,0,0,0,268,268,201,194,196,258,194,196,470,469,258,194,258,258,194,259,194,194,194,194,196,258,194,-2147483447,268,0,0,0,0,0,0,0,0,0,0,0,0,0,0,0,0,0,0,0,0,0,0,0,0,0,0,0,0,0,0,0,268,201,194,-2147483447,268,268,268,268,201,194,196,194,196,194,258,194,258,470,470,194,194,196,194,195,194,194,196,194,194,194,196,196,268,0,0,268,268,268,0,0,0,0,0,0,0,0,0,0,0,0,0,0,0,0,0,0,0,0,0,0,0,0,0,268,201,195,194,258,258,194,194,196,196,196,194,196,196,196,194,194,258,469,469,196,258,259,258,196,196,194,194,195,194,195,194,194,-2147483447,268,268,201,259,-2147483447,268,0,0,0,0,0,0,0,0,0,0,0,0,0,0,0,0,0,0,0,0,0,0,0,268,201,194,195,194,194,258,196,194,258,194,258,194,196,194,258,258,194,196,196,469,470,194,194,259,258,194,469,469,469,470,194,194,194,258,194,258,196,195,196,268,0,0,0,0,0,0,0,0,0,0,0,0,0,0,0,0,0,0,0,0,0,0,0,268,196,469,469,469,469,196,196,194,194,196,196,196,194,194,196,194,196,196,258,469,469,258,258,258,194,194,470,470,469,469,258,258,194,196,258,194,194,194,-1073741623,268,0,0,0,0,0,0,0,0,0,0,0,0,0,0,0,0,0,0,0,0,0,0,0,268,258,469,469,469,470,258,196,196,196,194,196,196,194,258,259,258,194,258,194,470,469,196,196,196,194,196,469,469,469,469,259,194,258,196,194,196,194,194,268,0,0,0,0,0,0,0,0,0,0,0,0,0,0,0,0,0,0,0,0,0,0,0,0,268,194,469,470,470,470,196,196,196,194,196,195,194,196,194,258,258,196,196,196,258,470,469,196,194,194,259,259,196,194,196,194,194,258,194,258,194,194,194,268,0,0,0,0,0,0,0,0,0,0,0,0,0,0,0,0,0,0,0,0,0,0,0,268,201,196,194,259,196,194,258,196,195,194,194,194,194,194,194,194,194,196,194,196,470,470,194,258,196,196,194,195,196,258,194,194,195,196,196,196,194,196,194,-2147483447,268,0,0,0,0,0,0,0,0,0,0,0,0,0,0,0,0,0,0,0,0,0,0,268,194,194,194,196,196,196,194,196,194,194,194,195,196,194,196,194,194,194,194,194,469,470,196,194,194,194,194,194,196,194,194,194,196,195,194,194,196,194,194,194,268,0,0,0,0,0,0,0,0,0,0,0,0,0,0,0,268,268,268,268,268,268,268,201,196,194,196,196,194,195,194,196,258,194,258,194,194,194,259,194,196,194,194,194,469,469,196,194,194,196,196,195,258,258,258,194,196,196,194,470,470,469,470,196,-2147483447,268,0,0,0,0,0,0,0,0,0,0,0,0,0,0,268,201,196,194,194,194,194,196,194,194,194,258,196,258,196,194,196,194,258,194,194,258,196,195,258,196,196,196,469,469,194,194,194,195,196,196,258,194,194,196,194,194,196,469,469,469,469,258,194,-2147483447,268,268,268,0,0,0,0,0,0,0,0,0,0,268,201,194,194,194,258,258,196,258,196,196,196,194,194,195,196,195,194,196,196,194,196,196,196,196,194,194,195,259,469,470,194,258,194,194,194,196,194,196,196,196,258,258,195,469,469,469,470,196,194,194,196,194,-2147483447,268,268,0,0,0,0,0,0,0,0,268,1073742025,194,196,258,194,195,195,194,196,196,194,258,194,194,196,258,196,259,196,196,469,469,470,469,469,470,470,470,470,469,194,194,194,196,194,196,194,194,194,194,196,196,194,194,196,194,194,196,195,194,194,196,258,-2147483447,268,0,0,0,0,0,0,0,0,0,268,268,1073742025,196,195,194,469,469,470,470,196,194,194,194,196,196,194,194,194,194,196,196,194,194,196,196,194,194,469,469,196,259,194,196,194,194,194,194,196,194,194,258,196,258,196,194,194,194,196,258,194,258,194,194,268,0,0,0,0,0,0,0,0,0,0,0,268,268,1073742025,194,469,470,470,469,194,194,258,194,194,258,196,258,258,196,194,194,259,196,194,196,194,470,469,258,196,194,258,259,194,194,196,194,194,194,196,194,196,194,196,258,196,194,194,196,194,194,196,194,194,268,0,0,0,0,0,0,0,0,0,0,0,0,268,258,469,470,469,470,196,194,194,194,194,258,194,194,196,196,258,258,194,194,194,196,194,470,469,194,194,194,196,194,195,194,194,194,194,196,194,196,194,194,196,194,258,259,194,196,258,196,196,194,268,0,0,0,0,0,0,0,0,0,0,0,0,0,268,258,196,258,196,258,258,196,194,196,196,258,194,258,194,258,259,259,194,196,258,196,194,469,470,469,469,470,470,469,470,470,469,469,470,259,196,194,194,196,194,258,196,194,259,259,194,258,258,-1073741623,268,0,0,0,0,0,0,0,0,0,0,0,0,0,268,196,196,194,196,196,194,194,194,194,196,194,194,196,194,196,196,194,196,258,194,196,194,469,469,194,194,258,194,194,195,259,194,194,196,196,194,258,195,194,196,196,258,196,196,194,196,196,258,268,0,0,0,0,0,0,0,0,0,0,0,0,0,268,201,194,196,196,196,258,194,196,194,258,258,194,196,194,196,196,196,195,196,194,196,194,194,194,470,469,194,194,259,259,194,259,196,194,194,195,196,194,194,258,259,258,194,196,196,258,194,195,194,268,0,0,0,0,0,0,0,0,268,268,268,268,268,201,194,259,196,196,259,195,258,194,194,258,194,258,196,258,196,258,194,196,194,194,194,196,258,196,469,470,196,259,194,194,194,194,194,194,196,194,196,194,259,195,194,196,196,258,258,195,196,194,194,268,0,0,0,0,0,0,0,0,268,196,194,196,196,194,194,196,258,196,194,194,194,196,194,195,194,194,194,194,196,194,194,194,196,259,194,196,194,470,470,194,194,258,196,259,196,194,196,196,194,196,194,194,259,194,196,194,258,196,194,196,194,194,196,268,0,0,0,0,0,0,0,0,268,268,268,1073742025,194,194,258,258,259,196,194,196,194,194,196,194,196,195,194,196,196,194,196,194,194,194,194,194,194,469,470,258,196,196,194,196,195,196,258,196,194,194,196,194,258,196,258,196,196,194,196,195,258,194,196,268,0,0,0,0,0,0,0,0,0,0,0,268,1073742025,196,258,194,194,194,196,194,196,194,258,194,194,194,258,194,258,258,194,258,196,196,194,259,469,470,196,258,194,196,196,194,194,258,195,194,194,194,258,196,258,258,259,194,194,258,196,258,194,258,196,268,0,0,0,0,0,0,0,0,0,0,0,0,268,196,194,196,194,196,194,196,195,196,194,194,194,258,259,194,258,194,258,194,196,194,194,195,469,469,258,194,196,196,196,258,196,194,194,195,194,194,258,194,194,194,258,196,196,196,194,196,194,196,196,268,0,0,0,0,0,0,0,0,0,0,0,0,268,1073742025,196,194,258,194,258,258,196,196,195,258,194,194,196,194,196,196,469,469,470,470,470,469,470,470,196,258,194,258,194,196,194,194,196,194,258,194,194,194,196,196,196,258,196,196,196,196,195,196,-1073741623,268,0,0,0,0,0,0,0,0,0,0,0,0,0,268,196,194,196,194,196,196,258,470,469,469,470,470,470,470,469,470,469,470,470,469,469,469,469,469,469,470,470,470,469,470,470,470,469,469,469,470,470,469,469,470,195,196,196,196,194,196,194,-1073741623,268,0,0,0,0,0,0,0,0,0,0,0,0,0,0,268,1073742025,196,194,196,196,258,258,259,259,195,196,194,259,196,196,194,259,196,194,194,196,194,196,469,469,196,196,194,195,259,196,194,196,196,258,258,196,258,196,259,196,194,194,196,196,259,-1073741623,268,0,0,0,0,0,0,0,0,0,0,0,0,0,0,0,0,268,196,196,194,194,196,258,259,196,194,195,195,258,196,194,194,194,194,258,194,196,196,258,470,469,196,194,259,196,194,194,196,258,195,196,196,194,194,258,196,196,194,196,196,194,195,268,0,0,0,0,0,0,0,0,0,0,0,0,0,0,0,0,0,268,194,194,196,194,258,194,196,195,196,194,194,196,196,194,194,194,196,194,196,195,258,194,470,470,194,194,196,258,196,196,196,196,259,194,258,196,469,470,469,469,258,258,194,194,-1073741623,268,0,0,0,0,0,0,0,0,0,0,0,0,0,0,0,0,268,201,196,258,258,196,196,196,194,258,194,194,196,196,258,196,196,194,259,258,259,194,259,196,470,470,196,258,194,258,259,194,195,196,196,196,194,196,470,469,470,470,196,196,194,258,268,0,0,0,0,0,0,0,0,0,0,0,0,0,0,0,0,0,268,194,258,-1073741623,268,1073742025,196,194,258,194,258,194,258,259,194,194,194,258,258,258,194,194,194,194,196,194,194,470,470,470,469,194,259,194,194,196,259,196,469,470,469,470,258,194,259,258,268,0,0,0,0,0,0,0,0,0,0,0,0,0,0,0,0,0,268,259,268,268,0,268,194,196,196,258,196,194,194,196,258,195,194,194,196,194,196,194,196,258,194,258,194,470,469,470,470,194,194,258,196,196,259,194,258,196,196,194,196,194,196,194,268,0,0,0,0,0,0,0,0,0,0,0,0,0,0,0,0,0,268,268,0,0,0,268,196,194,258,196,258,259,194,194,258,259,196,258,196,196,194,196,195,196,195,194,258,469,470,470,470,194,258,258,259,194,259,258,194,194,194,194,196,194,194,-1073741623,268,0,0,0,0,0,0,0,0,0,0,0,0,0,0,0,0,0,0,0,0,0,0,268,1073742025,196,258,196,196,258,195,194,258,194,196,194,196,194,196,258,258,196,194,258,194,194,194,196,195,196,194,196,196,194,194,194,194,-1073741623,268,268,1073742025,258,-1073741623,268,0,0,0,0,0,0,0,0,0,0,0,0,0,0,0,0,0,0,0,0,0,0,0,0,268,194,194,196,196,194,196,194,194,196,194,196,258,194,196,259,196,470,470,194,194,258,258,195,196,194,194,196,194,194,194,-1073741623,268,268,0,0,268,268,268,268,0,0,0,0,0,0,0,0,0,0,0,0,0,0,0,0,0,0,0,0,0,0,0,0,268,1073742025,194,195,258,196,196,194,196,196,194,194,196,194,196,194,196,259,469,470,194,194,194,259,196,194,194,259,196,196,-1073741623,268,0,0,0,0,0,0,0,0,0,0,0,0,0,0,0,0,0,0,0,0,0,0,0,0,0,0,0,0,0,0,0,0,0,268,268,268,268,268,268,1073742025,194,196,194,194,258,194,196,194,194,194,470,469,194,194,258,196,196,194,195,258,259,-1073741623,268,0,0,0,0,0,0,0,0,0,0,0,0,0,0,0,0,0,0,0,0,0,0,0,0,0,0,0,0,0,0,0,0,0,0,0,0,0,0,0,0,268,268,1073742025,194,258,194,194,196,194,258,194,470,470,196,196,258,196,195,194,194,196,-1073741623,268,0,0,0,0,0,0,0,0,0,0,0,0,0,0,0,0,0,0,0,0,0,0,0,0,0,0,0,0,0,0,0,0,0,0,0,0,0,0,0,0,0,0,0,268,1073742025,-1073741623,268,268,268,268,1073742025,194,470,469,259,194,-1073741623,268,268,1073742025,196,196,268,0,0,0,0,0,0,0,0,0,0,0,0,0,0,0,0,0,0,0,0,0,0,0,0,0,0,0,0,0,0,0,0,0,0,0,0,0,0,0,0,0,0,0,0,0,268,268,0,0,0,0,268,1073742025,470,470,-1073741623,268,268,0,0,268,1073742025,-1073741623,268,0,0,0,0,0,0,0,0,0,0,0,0,0,0,0,0,0,0,0,0,0,0,0,0,0,0,0,0,0,0,0,0,0,0,0,0,0,0,0,0,0,0,0,0,0,0,0,0,0,0,0,0,268,268,268,268,0,0,0,0,0,268,268,0,0,0,0,0,0,0,0,0,0,0,0,0,0,0,0,0,0,0,0,0,0,0,0,0,0,0,0,0,0,0,0,0,0,0,0,0,0,0,0,0,0,0,0,0,0,0,0,0,0,0,0,0,0,0,0,0,0,0,0,0,0,0,0,0,0,0,0,0,0,0,0,0,0,0,0,0,0,0,0,0,0,0,0,0,0,0,0,0,0,0,0,0,0,0,0,0,0,0,0,0,0,0,0,0,0,0,0,0,0,0,0,0,0,0,0,0,0,0,0,0,0,0,0,0,0,0,0,0,0,0,0,0,0,0,0,0,0,0,0,0,0,0,0,0,0,0,0,0,0,0,0,0,0,0,0,0,0,0,0,0,0,0,0,0,0,0,0,0,0,0,0,0,0,0,0,0,0,0,0,0,0,0,0,0,0,0,0,0,0,0,0,0,0,0,0,0,0,0,0,0,0,0,0,0,0,0,0,0,0,0,0,0,0]},{"id":4,"name":"decor","type":"tilelayer","width":64,"height":150,"x":0,"y":0,"opacity":1,"visible":true,"data":[0,0,0,0,0,0,0,0,0,0,0,0,0,0,0,0,0,0,0,0,0,0,0,0,0,0,0,0,0,0,0,0,0,0,0,0,0,0,0,0,0,0,0,0,0,0,0,0,0,0,0,0,0,0,0,0,0,0,0,0,0,0,0,0,0,0,0,0,0,0,0,0,0,0,0,0,0,0,0,0,0,0,0,0,0,0,0,0,0,0,0,0,0,0,0,0,0,0,0,0,0,0,0,0,0,0,0,0,0,0,0,0,0,0,0,0,0,0,0,0,0,0,0,0,0,0,0,0,0,0,0,0,0,0,0,0,0,0,0,0,0,0,0,0,0,0,0,0,0,0,0,0,0,0,0,0,0,0,0,0,0,0,0,0,0,0,0,0,0,0,0,0,0,0,0,0,0,0,0,0,0,0,0,0,0,0,0,0,0,0,0,0,0,0,0,0,0,0,0,0,0,0,0,0,0,0,0,0,0,0,0,0,0,0,0,0,0,0,0,0,0,0,0,0,0,0,0,0,0,0,0,0,0,0,0,0,0,0,0,0,0,0,0,0,0,0,0,0,0,0,0,0,0,0,0,0,0,0,0,0,0,0,0,0,0,0,0,0,0,0,0,0,0,0,0,0,0,0,0,0,0,0,0,0,0,0,0,0,0,0,0,0,0,0,0,0,0,0,0,0,0,0,0,0,0,0,0,0,0,0,0,0,0,0,0,0,0,0,0,0,0,0,0,0,0,0,0,0,0,0,0,0,0,0,0,0,0,0,0,0,0,0,0,0,0,0,0,0,0,0,0,0,0,0,0,0,0,0,0,0,0,0,0,0,0,0,0,0,0,0,0,0,0,0,0,0,0,0,0,0,0,0,0,0,0,0,0,0,0,0,0,0,0,0,0,0,0,0,0,0,0,0,0,0,0,0,0,0,0,0,224,0,0,0,0,0,0,0,0,0,0,0,0,0,0,0,0,0,0,0,0,0,0,0,0,0,0,0,0,0,0,0,0,0,0,0,0,0,0,0,0,0,0,0,0,0,0,0,0,0,0,0,0,0,0,0,0,0,0,0,0,0,0,0,0,0,0,0,0,0,0,0,0,0,0,0,0,0,0,0,0,0,0,0,0,0,0,0,0,0,0,0,0,0,0,0,0,0,0,0,0,0,0,0,0,0,0,0,0,0,0,0,0,0,0,0,0,0,0,0,0,0,0,0,0,0,0,0,0,0,0,0,0,0,0,0,114,115,0,0,114,115,0,0,0,0,0,0,0,0,0,0,0,0,0,0,0,0,0,0,0,0,0,0,0,0,0,0,0,0,0,0,0,0,0,0,0,0,0,0,0,0,0,0,0,0,0,0,0,0,0,0,0,0,0,0,0,0,0,0,178,179,0,0,178,179,0,0,0,0,0,0,0,0,0,0,0,0,0,0,0,0,0,0,0,0,0,0,0,0,0,0,0,0,0,0,0,0,0,0,0,0,0,0,0,0,0,0,0,0,0,0,0,0,0,0,0,0,0,0,0,0,0,0,0,0,0,0,0,0,0,0,0,0,0,0,0,0,0,0,0,0,0,0,0,0,0,0,0,0,0,0,0,0,0,0,0,0,0,0,0,0,0,0,0,0,0,0,0,0,0,0,0,0,0,0,0,0,0,0,0,0,0,0,0,0,0,0,0,0,0,0,0,0,0,0,0,0,0,0,0,0,0,0,0,0,0,0,0,0,0,0,0,0,0,0,0,0,0,0,0,0,0,0,0,0,0,0,0,0,0,0,0,0,0,0,0,0,0,0,0,0,0,0,114,115,0,0,0,0,0,0,0,0,0,0,0,0,0,0,0,0,0,0,0,0,0,0,0,0,114,115,0,0,0,0,0,0,0,0,0,0,0,0,0,0,0,0,0,0,0,0,0,0,0,0,0,0,0,0,0,0,0,0,0,0,0,0,178,179,0,0,0,0,0,0,0,0,0,0,0,0,0,0,0,0,0,0,0,0,0,0,0,0,178,179,0,0,0,0,0,0,0,0,0,0,0,0,0,0,0,0,0,0,0,0,0,0,0,0,0,0,0,0,0,0,0,0,0,0,0,0,0,0,0,0,0,0,0,0,0,0,0,0,0,0,0,0,0,114,115,0,0,0,0,0,0,0,0,0,0,0,0,0,0,0,0,0,0,0,0,0,0,0,0,0,0,0,0,0,0,0,0,0,0,0,0,0,0,0,0,0,0,0,0,0,0,0,0,0,0,0,0,0,0,0,0,0,0,0,0,0,0,178,179,0,0,0,0,0,0,0,0,0,0,0,0,0,0,0,0,0,0,0,0,0,0,0,0,0,0,0,0,0,0,0,0,0,0,0,224,0,0,0,0,0,0,0,0,0,0,0,0,0,0,0,0,0,0,0,0,0,0,0,0,0,0,0,0,0,0,0,0,0,0,0,0,0,0,0,0,0,0,0,0,0,0,0,0,0,0,0,0,0,0,0,0,0,0,0,0,0,0,0,0,0,0,0,0,0,0,0,0,0,0,224,0,0,0,0,0,0,0,0,0,0,0,0,0,0,0,0,0,0,0,0,0,0,0,0,0,0,0,0,0,0,0,0,0,0,0,0,0,0,0,0,0,0,0,0,0,0,0,0,0,0,0,0,0,0,0,0,0,0,0,0,0,0,224,0,0,0,0,0,0,0,0,0,0,0,224,0,0,0,0,0,0,0,0,0,0,0,0,0,0,0,0,0,0,0,0,0,0,0,0,0,0,0,0,0,0,0,0,0,0,0,0,0,0,224,224,0,0,0,0,0,0,0,0,0,0,0,0,0,0,0,0,0,0,0,0,0,0,0,0,0,224,0,114,115,0,0,0,114,115,0,0,0,0,0,0,0,0,0,0,0,0,0,0,0,0,0,0,0,0,0,0,0,0,0,114,115,0,0,242,243,0,0,0,0,0,0,0,0,0,0,0,0,0,0,0,0,0,0,0,0,0,0,224,0,0,0,178,179,0,0,0,178,179,0,0,0,0,0,0,0,0,0,0,0,0,0,0,0,0,0,0,0,0,224,0,0,0,224,178,179,0,0,306,307,0,114,115,0,0,0,0,0,0,0,0,0,0,0,224,0,0,0,0,0,0,0,0,0,0,0,0,0,0,0,0,0,0,224,0,0,0,0,0,0,0,0,0,0,0,0,0,0,0,0,0,0,0,114,115,0,0,0,0,0,0,0,0,0,0,178,179,0,0,0,0,0,0,0,0,0,0,0,0,0,0,0,0,0,0,0,0,0,0,0,0,0,0,0,0,0,0,0,0,0,0,0,0,224,0,0,0,0,0,0,0,0,0,0,0,0,0,178,179,0,0,0,0,0,0,0,0,0,0,0,0,0,0,0,0,0,0,0,0,0,0,0,0,0,0,0,0,0,0,0,0,0,0,0,0,0,0,0,0,0,0,0,0,0,0,0,822,0,822,822,0,0,0,0,0,0,0,0,0,0,0,0,0,0,0,0,0,0,0,0,0,0,0,0,0,0,0,0,0,0,0,0,0,0,0,0,0,0,0,0,0,0,0,0,0,0,0,0,0,0,0,0,0,0,0,0,0,0,224,0,820,0,0,822,0,0,0,0,0,0,0,0,0,0,0,0,0,0,0,0,0,0,0,0,0,0,0,0,0,0,0,0,0,0,0,0,0,0,0,0,0,0,0,0,0,0,0,0,0,0,0,0,0,0,0,0,0,0,0,0,0,0,0,0,821,0,0,694,0,0,0,0,0,0,0,0,0,0,0,0,0,0,0,0,0,0,0,0,0,0,0,0,0,0,0,0,0,0,0,0,0,0,0,0,0,0,0,0,0,0,0,0,0,0,0,0,0,0,0,0,0,0,0,0,0,0,0,0,0,0,0,0,0,0,0,0,0,0,0,0,0,0,0,0,0,0,0,0,0,0,0,0,0,0,0,0,0,0,0,0,0,0,0,0,0,0,0,0,0,0,0,0,0,0,0,0,0,0,0,0,0,0,0,0,0,0,0,0,0,0,0,0,0,0,0,0,0,0,0,0,0,0,0,0,0,0,0,0,0,0,0,0,0,0,0,0,0,0,0,0,0,0,0,0,0,0,0,0,0,0,0,0,0,0,0,0,0,0,0,0,0,0,0,0,0,0,0,0,0,0,0,0,224,0,0,0,0,0,0,0,0,0,0,0,0,0,0,0,0,0,0,0,0,0,0,0,0,0,0,0,0,0,0,0,0,0,0,0,0,0,0,0,0,0,0,0,0,0,0,0,0,0,0,242,243,0,0,0,0,0,0,0,0,0,0,0,0,0,242,243,0,0,0,0,0,0,0,0,0,0,0,0,0,0,0,0,0,0,0,224,0,822,822,821,820,0,0,0,0,224,0,0,0,0,0,0,0,0,0,0,0,0,0,0,0,114,115,306,307,0,0,0,0,0,0,0,0,0,0,0,0,0,306,307,0,0,0,0,0,0,0,0,0,0,0,0,0,0,0,0,0,0,0,0,0,820,0,822,822,0,0,0,0,0,0,0,0,0,0,0,0,0,0,0,0,0,0,0,224,178,179,0,0,0,0,0,0,0,0,0,0,0,0,0,0,0,0,0,0,0,0,0,0,0,0,0,0,0,0,0,0,0,0,0,0,0,242,243,0,694,822,0,820,0,0,224,0,0,0,0,0,0,0,0,0,0,0,0,0,0,0,0,0,0,822,694,820,820,0,0,0,0,0,0,0,0,0,0,0,0,0,0,0,0,0,0,0,0,0,0,0,0,0,0,0,0,0,0,0,0,306,307,0,0,0,0,0,0,0,224,0,0,0,0,0,0,0,0,0,0,0,0,0,0,0,0,0,0,822,821,820,821,0,0,0,0,0,0,0,0,0,0,0,0,0,0,0,0,0,0,0,0,0,0,0,0,0,0,0,0,0,0,0,0,0,0,0,0,0,0,0,0,0,0,0,0,0,0,0,0,0,0,0,0,0,0,0,0,0,0,0,0,820,820,0,0,0,0,0,0,0,0,0,0,0,0,0,0,0,0,0,0,0,0,0,0,0,0,0,0,0,0,0,0,0,0,0,0,0,0,0,0,0,0,0,0,0,0,0,0,0,0,0,0,0,0,0,0,0,0,0,0,0,0,0,0,0,0,0,0,0,0,0,0,0,0,0,0,0,0,0,0,0,0,114,115,0,0,0,0,0,0,0,0,0,0,0,0,0,0,0,0,0,0,0,0,0,0,0,0,0,0,0,0,0,0,0,0,0,0,0,0,0,0,0,0,0,0,0,0,0,0,0,0,0,0,0,0,0,0,0,0,0,0,0,0,0,0,178,179,0,0,0,0,0,0,0,0,0,0,0,0,0,0,0,0,0,0,0,0,0,0,0,0,0,0,0,0,0,0,0,0,0,0,0,0,0,0,0,0,0,0,0,0,0,0,0,0,0,0,0,0,0,0,0,0,0,0,0,0,0,0,0,0,0,0,0,0,0,0,0,0,0,0,0,0,0,0,0,0,0,0,0,0,0,0,0,0,0,0,0,0,0,0,0,0,0,0,0,0,0,0,0,0,0,0,242,243,0,0,0,0,0,0,0,0,0,0,0,0,0,0,0,0,0,0,0,0,0,0,0,0,0,0,0,0,0,0,0,0,0,0,0,0,0,0,0,0,0,0,0,0,0,0,0,0,0,0,0,0,0,0,0,0,0,0,0,0,0,0,306,307,0,0,0,0,0,0,0,0,0,0,0,0,0,0,0,0,0,0,0,0,0,0,0,0,0,0,0,0,0,0,0,0,0,0,0,0,0,0,0,0,0,0,0,0,0,0,0,0,0,0,114,115,0,0,0,0,0,0,0,0,0,0,0,0,0,0,0,0,0,0,0,0,0,0,0,0,0,0,0,0,0,0,0,0,0,0,0,0,0,0,0,0,0,0,0,0,0,0,0,0,0,0,0,0,0,0,0,0,0,0,0,0,0,0,178,179,0,0,0,0,0,0,0,0,0,0,0,0,0,0,0,0,0,0,0,0,0,0,0,0,0,0,0,0,0,0,0,0,0,0,0,0,0,0,0,0,0,0,0,0,0,0,0,0,0,0,0,0,0,0,0,0,0,0,0,0,0,0,0,0,0,0,0,0,0,0,0,0,0,0,0,0,0,0,0,0,0,0,0,0,0,0,0,0,0,0,0,0,0,0,0,0,0,0,0,0,0,0,0,0,0,0,0,0,0,0,0,0,0,0,0,0,0,0,0,0,0,0,0,0,0,0,0,0,0,0,0,0,0,0,0,0,0,0,0,0,0,0,0,0,0,0,0,0,0,0,0,0,0,0,0,0,0,0,0,0,0,0,0,0,0,0,0,0,0,0,0,0,0,0,0,0,0,0,0,0,0,0,0,0,0,0,0,0,0,0,0,0,242,243,0,0,0,0,0,0,0,0,114,115,0,0,0,0,0,0,0,0,0,0,0,0,0,0,0,0,0,0,0,0,0,0,0,0,0,0,0,0,0,0,0,0,0,0,0,0,0,0,0,0,0,0,0,0,0,0,0,0,0,0,0,0,306,307,0,0,0,0,0,0,0,0,178,179,0,0,0,0,0,0,0,0,0,0,0,0,0,0,0,0,0,0,0,0,0,0,0,0,0,0,0,0,0,0,0,0,0,0,0,0,0,0,0,0,0,0,0,0,0,0,0,0,0,0,0,0,0,0,0,0,0,0,0,0,0,0,0,0,0,0,0,0,0,0,0,0,0,0,0,0,0,0,0,0,0,0,0,0,0,0,0,0,0,0,0,0,0,0,0,0,0,0,0,0,0,0,0,0,0,0,0,0,0,0,0,0,0,0,0,0,0,0,0,0,0,0,0,0,0,0,0,0,0,0,0,0,0,0,0,0,0,0,0,0,0,0,0,0,0,0,0,0,0,0,0,0,0,0,0,0,0,0,0,0,0,0,0,0,0,0,0,0,0,0,0,0,0,0,0,0,0,0,0,0,0,0,0,0,0,0,0,0,0,0,0,0,0,0,0,0,0,0,0,0,0,0,0,0,0,0,0,0,0,0,0,0,0,0,0,0,0,0,0,0,0,0,0,0,0,0,0,0,0,0,0,0,0,0,0,0,0,0,0,0,0,0,0,0,0,0,0,0,0,0,0,0,0,0,0,0,0,0,0,0,0,0,0,0,0,0,0,0,0,0,0,0,0,0,0,0,0,0,0,0,0,0,0,0,0,0,0,0,0,0,0,0,0,0,0,0,0,0,0,0,0,0,0,0,0,0,0,0,0,0,0,0,0,0,0,0,0,0,0,0,0,0,0,0,0,0,0,0,0,0,0,0,0,0,0,0,0,0,0,0,0,0,0,0,0,0,0,0,0,0,0,0,0,0,0,0,0,0,0,0,0,0,0,0,0,0,0,0,0,0,0,0,0,0,0,0,0,0,0,0,0,0,0,0,0,0,0,0,0,0,0,0,0,0,0,0,0,0,0,0,0,0,0,0,0,0,0,0,0,0,0,0,0,0,0,0,0,0,0,0,0,0,0,0,0,0,0,0,0,0,0,0,0,0,0,0,0,0,0,0,0,0,0,0,0,0,0,0,0,0,0,0,0,0,0,0,0,0,0,0,0,0,0,0,0,0,0,0,0,0,0,0,0,0,0,0,0,0,0,0,0,0,0,0,0,0,0,0,0,0,0,0,0,0,0,0,0,0,0,0,0,0,0,0,0,0,0,0,0,0,0,0,0,0,0,0,0,0,0,0,0,0,0,0,0,0,0,0,0,0,0,0,0,0,0,0,0,0,0,0,0,0,0,0,0,0,0,0,0,0,0,0,0,0,0,0,0,0,0,0,0,0,0,0,0,0,0,0,0,0,0,0,0,0,0,0,0,0,0,0,0,0,0,0,0,0,0,0,0,0,0,0,0,0,0,0,0,0,0,0,0,0,0,0,0,0,0,0,0,0,0,0,0,0,0,0,0,0,0,0,0,0,0,0,0,0,0,0,0,0,0,0,0,0,0,0,0,0,0,0,0,0,0,0,0,0,0,0,0,0,0,0,0,0,0,0,0,0,0,0,0,0,0,0,0,0,0,0,0,0,0,0,0,0,0,0,0,0,0,0,0,0,0,0,0,0,0,0,0,0,0,0,0,0,0,0,0,0,0,0,0,224,0,0,0,0,0,0,0,0,0,0,0,0,0,0,0,0,0,0,0,0,0,0,0,0,0,0,0,0,0,0,0,0,0,0,0,0,0,0,0,0,0,0,0,0,0,0,0,0,0,0,0,114,115,0,0,0,0,0,242,243,0,0,0,0,0,0,0,0,0,0,0,0,0,0,0,0,0,0,0,0,0,0,0,0,0,0,0,0,0,0,0,0,0,0,0,0,0,0,0,0,0,0,0,0,0,0,0,0,0,0,0,0,0,0,224,178,179,0,0,0,0,0,306,307,0,0,0,0,0,0,0,0,0,0,0,0,0,0,0,0,0,0,0,0,0,0,0,0,0,0,0,0,0,0,0,0,0,0,0,0,0,0,0,0,0,0,0,0,0,0,0,0,0,0,0,0,224,0,0,0,0,0,0,0,0,0,0,0,0,0,0,0,0,0,0,0,0,0,0,0,0,0,0,0,0,0,0,0,0,0,0,0,0,0,0,0,0,0,0,0,0,0,0,0,0,0,0,0,0,0,0,0,0,0,0,0,0,0,0,0,224,0,0,0,0,0,0,0,224,0,0,0,0,0,0,0,242,243,0,0,0,0,0,0,0,0,0,0,0,0,0,0,0,0,0,0,0,0,0,0,0,0,0,0,0,0,0,0,0,0,0,0,0,0,0,0,0,0,0,0,0,0,0,0,0,0,0,820,0,0,0,0,0,0,0,0,0,0,0,0,306,307,0,0,114,115,0,0,0,0,0,0,242,243,0,0,0,0,0,0,0,0,0,0,0,0,0,0,0,0,0,0,0,0,0,0,0,0,0,0,0,0,0,0,0,0,0,0,224,0,0,822,821,0,0,0,0,0,0,0,0,0,0,0,0,0,0,0,178,179,0,0,0,224,0,0,306,307,0,0,0,0,0,0,0,0,0,0,0,0,0,0,0,0,0,0,0,0,0,0,0,0,0,0,0,0,0,0,0,0,0,0,0,822,0,821,821,0,0,0,0,0,0,0,0,0,0,0,0,0,0,0,0,0,0,0,0,0,0,0,0,0,0,0,0,0,0,0,0,0,0,0,0,0,0,0,0,0,0,0,0,0,0,0,0,0,0,0,0,0,0,0,0,0,0,0,0,0,0,0,0,0,0,0,0,0,0,0,0,0,0,0,0,0,0,0,0,0,0,0,0,0,0,0,0,0,0,0,0,0,0,0,0,0,0,0,0,0,0,0,0,0,0,0,0,0,0,0,0,0,0,0,224,0,0,0,0,0,0,0,0,0,0,0,0,0,0,0,0,0,0,0,0,0,0,0,0,0,0,0,0,0,0,0,0,0,0,0,0,0,114,115,820,0,822,821,0,0,0,0,0,0,0,0,0,0,0,0,0,0,0,0,0,0,0,0,0,0,0,0,0,0,0,0,0,0,0,0,0,0,0,0,0,0,0,0,0,0,0,0,0,0,0,0,0,0,0,0,0,0,0,0,0,0,178,179,822,822,821,0,0,0,0,0,0,0,0,0,0,0,0,0,0,0,0,0,0,0,0,0,0,0,0,820,822,0,0,0,0,0,0,0,224,0,0,0,0,0,0,0,0,0,0,0,0,0,0,0,0,0,0,0,0,0,0,0,0,0,0,0,820,820,820,820,0,0,0,0,0,0,0,0,0,0,0,0,0,0,0,0,0,0,0,0,0,0,820,821,821,0,0,0,0,0,224,0,0,0,0,0,0,0,0,0,0,0,0,0,0,0,0,0,0,0,224,0,0,0,0,0,0,0,0,114,115,0,0,0,0,0,0,0,0,0,0,0,0,0,0,0,0,0,0,0,0,0,0,0,0,0,820,822,0,0,224,0,0,0,114,115,0,0,0,0,0,0,0,0,0,0,0,0,0,0,0,0,0,0,0,0,0,0,0,0,0,0,0,178,179,224,0,0,0,0,0,0,0,0,0,0,0,0,0,0,0,0,0,0,0,0,0,0,0,0,0,0,0,0,0,0,0,0,178,179,0,0,0,0,0,0,0,0,0,0,0,0,0,0,0,0,0,0,0,0,0,0,0,0,0,0,114,115,0,0,0,0,0,0,0,0,0,0,0,0,0,0,0,0,0,0,0,0,0,0,0,0,0,0,0,0,0,0,0,0,0,0,0,0,0,0,0,0,0,0,0,0,0,0,0,0,0,0,0,0,0,0,0,0,0,0,0,0,0,0,178,179,0,0,0,0,0,0,0,0,0,0,0,0,0,0,0,0,0,0,0,0,0,0,0,0,0,0,0,0,0,0,0,0,0,0,0,0,0,0,0,0,0,0,0,0,0,0,0,0,0,0,0,0,0,0,0,0,0,0,0,0,0,0,0,0,0,0,0,0,0,0,0,0,0,0,0,0,0,0,0,0,0,0,0,0,114,115,0,0,0,0,0,0,0,0,0,0,0,0,0,0,0,0,0,0,0,0,0,0,0,0,0,0,0,0,0,0,0,0,0,0,0,0,0,0,0,0,0,0,0,0,0,0,0,0,0,0,0,0,0,0,0,0,0,0,0,0,0,0,178,179,0,0,0,0,0,0,0,0,0,0,0,224,0,0,0,0,0,0,0,0,0,0,0,0,0,0,0,0,0,0,0,0,0,0,0,0,0,0,0,0,0,0,0,0,0,0,0,0,0,0,0,0,0,0,0,0,0,0,0,0,0,0,0,0,0,0,0,0,0,0,0,0,0,0,0,0,0,0,0,0,0,0,0,0,0,0,0,224,0,0,0,0,0,0,0,0,0,0,0,0,0,0,0,0,0,0,0,0,0,0,0,0,0,0,0,0,0,0,0,0,0,0,0,0,0,0,0,114,115,0,0,0,0,0,0,0,0,114,115,0,0,0,0,0,0,0,0,0,0,0,0,0,0,0,0,0,0,0,0,0,0,0,0,0,0,0,0,0,0,0,0,0,0,0,0,0,0,0,0,0,0,0,0,0,0,0,0,0,0,0,0,178,179,0,0,0,0,0,0,0,0,178,179,114,115,0,0,0,0,0,0,0,0,0,0,0,0,0,0,0,0,0,0,0,0,0,0,0,0,0,0,0,0,0,0,0,0,0,0,0,821,822,820,821,0,0,0,0,0,0,0,0,0,0,0,0,0,0,0,0,0,0,0,0,0,0,0,178,179,224,0,0,0,0,0,0,0,0,0,0,0,0,0,0,0,0,0,0,0,0,0,0,0,0,0,0,0,0,0,0,0,0,0,0,822,821,821,822,0,0,0,0,0,0,0,0,0,0,0,0,0,0,0,0,0,0,0,0,0,0,0,0,0,0,0,0,0,0,0,0,0,0,0,0,0,0,0,0,0,0,0,0,0,0,0,0,0,0,0,0,0,0,0,0,0,0,0,0,0,0,820,694,0,0,0,0,0,0,0,0,0,0,0,0,0,0,0,0,0,0,0,0,0,0,0,0,0,0,0,0,0,0,0,0,0,0,0,0,0,0,0,0,0,0,0,0,0,0,0,0,0,0,0,0,0,0,0,0,0,0,0,0,0,0,0,0,0,0,0,0,0,0,0,0,0,0,0,0,0,0,0,0,0,0,0,0,0,0,0,0,0,0,0,0,0,0,0,0,0,0,0,0,0,0,0,0,0,0,0,0,0,0,0,0,0,0,0,0,0,0,0,0,0,0,0,0,0,0,0,0,0,0,0,0,0,0,0,0,0,0,0,0,0,0,224,0,0,224,0,0,0,0,224,0,0,0,0,0,0,0,0,0,0,0,224,0,0,0,0,0,0,0,0,0,0,0,0,0,0,0,0,0,0,0,0,0,0,0,0,0,0,0,0,0,0,0,0,0,0,0,0,0,0,224,0,0,0,0,0,0,0,0,0,0,0,0,0,0,0,0,0,0,0,0,0,0,0,0,114,115,0,0,0,0,0,0,0,0,0,0,0,0,0,0,0,0,0,114,115,0,0,0,0,0,0,0,0,0,0,0,0,0,0,0,0,0,0,0,0,0,224,0,0,0,0,0,0,0,0,0,0,0,0,0,0,0,0,0,0,0,0,0,178,179,0,0,0,0,0,0,0,0,0,0,0,0,0,0,0,0,0,178,179,0,0,0,0,0,0,0,0,0,0,0,0,0,0,0,0,0,0,0,0,0,0,0,0,0,0,0,0,0,0,0,0,0,0,0,0,0,0,0,0,0,0,0,0,0,0,0,0,0,0,0,0,0,0,0,0,0,0,0,0,0,0,0,0,0,0,0,0,0,0,0,0,0,0,0,0,0,0,0,0,0,0,0,0,0,0,0,0,0,114,115,0,0,0,0,0,0,0,0,0,0,0,0,0,0,0,0,0,0,0,0,0,0,0,0,0,0,0,0,0,0,0,0,0,0,224,0,0,0,0,0,0,0,0,0,0,0,0,0,0,0,0,0,0,0,0,0,0,0,0,0,0,0,178,179,0,0,0,0,0,0,0,0,0,0,0,0,0,0,0,0,0,0,0,0,0,224,0,0,0,0,0,0,0,0,0,0,0,0,0,0,0,0,0,0,0,0,0,0,0,0,0,0,0,0,0,0,0,0,0,0,0,0,0,0,0,0,114,115,0,0,0,0,0,0,0,0,0,0,0,0,0,0,0,0,0,0,0,0,0,0,0,0,0,0,0,0,0,0,0,0,0,0,0,242,243,0,0,0,0,0,0,0,0,0,0,0,0,0,0,0,0,0,0,0,0,0,0,0,0,0,178,179,114,115,0,0,0,0,0,0,0,0,0,0,0,0,0,0,0,0,0,0,0,0,0,0,0,822,694,820,0,0,0,0,0,0,0,306,307,0,0,0,0,0,0,0,0,0,0,0,0,0,0,0,0,0,0,0,0,0,0,0,0,0,0,0,178,179,0,0,0,0,0,0,0,0,0,0,0,0,0,0,0,0,0,0,0,0,0,0,0,0,0,0,0,0,0,0,0,0,0,0,0,0,0,0,0,0,0,0,0,0,0,0,0,0,0,0,0,0,0,0,0,0,0,0,0,0,0,0,0,0,0,0,0,0,0,0,0,0,0,0,0,0,0,0,0,0,0,0,0,0,0,0,0,0,0,0,0,0,0,0,0,0,0,0,0,0,0,0,0,0,0,0,0,0,0,0,0,0,0,0,0,0,0,0,0,0,0,0,0,0,0,0,0,0,0,0,0,0,0,0,0,0,0,0,0,0,0,0,0,0,0,0,0,0,0,0,0,0,0,0,0,0,0,0,0,0,0,0,0,0,0,0,0,0,0,0,0,0,0,0,0,0,0,0,0,0,0,0,0,0,0,0,0,0,0,0,0,0,0,0,0,0,0,0,0,0,0,0,0,0,0,114,115,0,0,0,0,0,0,0,0,0,0,0,0,0,0,0,0,0,0,0,0,0,0,0,0,0,0,0,0,0,0,0,0,0,0,0,0,0,0,0,0,0,0,0,0,0,0,0,0,0,0,0,0,0,0,224,0,0,0,0,0,224,0,178,179,0,0,0,0,0,0,0,0,0,0,0,0,0,0,0,0,0,0,0,0,0,0,0,0,0,0,0,0,0,0,0,0,0,0,0,0,0,0,0,0,0,0,0,0,0,0,0,0,0,0,0,0,0,0,0,0,0,0,0,0,0,0,0,0,0,0,0,0,0,0,0,0,224,0,0,0,0,0,0,0,0,0,0,0,0,0,0,0,0,0,0,0,0,0,0,0,0,0,0,0,0,0,0,0,0,0,0,0,0,0,0,0,0,0,0,0,0,0,0,0,0,0,0,0,0,0,0,0,0,0,0,0,0,0,0,0,0,0,0,0,0,0,0,0,0,0,0,0,0,0,0,0,0,0,0,0,0,0,0,0,0,0,0,0,0,0,0,0,0,0,0,0,0,0,0,0,0,0,0,0,0,0,0,0,0,0,0,0,0,0,0,0,0,0,0,0,0,0,0,0,0,0,0,0,0,0,0,0,0,0,0,0,0,0,0,0,0,0,0,0,0,0,0,0,0,0,0,0,0,0,0,0,0,0,0,0,0,0,0,0,0,0,0,0,0,0,0,0,0,0,0,0,0,0,0,0,0,0,0,0,0,0,0,0,0,0,0,0,0,0,0,0,0,0,0,0,0,0,0,0,0,0,0,0,0,0,0,0,0,0,0,0,0,0,0,0,0,0,0,0,0,0,0,0,0,0,0,0,0,0,0,0,0,0,0,0,0,0,0,0,0,0,0,0,0,0,0,0,0,0,0,0,0,0,0,0,0,0,0,0,0,0,0,0,0,0,0,0,0,0,0,0,0,0,0,0,0,0,0,0,0,0,0,0,0,0,0,0,0,0,0,0,0,0,0,0,0,0,0,0,0,0,0,0,0,0,0,0,0,0,0,0,0,0,0,0,0,0,0,0,0,0,0,0,0,0,0,0,0,0,0,0,0,0,0,0,0,0,0,0,0,0,0,0,0,0,0,0,0,0,0,0,0,0,0,0,0,0,0,0,0,0,0,0,0,0,0,0,0,0,0,0,0,0,0,0,0,0,0,0,0,0,0,0,0,0,0,0,0,0,0,0,0,0,0,0,0,0,0,0,0,0,0,0,0,0,0,0,0,0,0,0,0,0,0,0,0,0,0,0,0,0,0,0,0,0,0,0,0,0,0,0,0,0,0,0,0,0,0,0,0,0,0,0,0,0,0,0,0,0,0,0,0,0,0,0,0,0,0,0,0,0,0,0,0,0,0,0,0,0,0,0,0,0,0,0,0,0,0,0,0,0,0,0,0,0,0,0,0,0,0,0,0,0,0,0,0,0,0,0,0,0,0,0,0,0,0,0,0,0,0,0,0,0,0,0,0,0,0,0,0,0,0,0,0,0,0,0,0,0,0,0,0,0,0,0,0,0,0,0,0,0,0,0,0,0,0,0,0,0,0,0,0,0,0,0,0,0,0,0,0,0,0,0,224,0,0,0,0,0,0,0,0,0,0,0,0,0,0,0,0,0,0,0,0,0,0,0,0,0,0,0,0,0,0,0,0,0,0,0,0,0,0,0,0,0,0,0,0,0,0,0,0,0,0,0,0,0,0,0,224,0,0,0,0,0,114,115,0,0,0,0,0,0,0,0,0,0,0,0,0,0,0,0,0,0,0,0,0,0,0,0,0,0,0,0,0,0,0,0,0,0,0,0,0,0,0,0,0,0,0,0,0,0,0,0,0,0,0,0,0,0,0,0,0,0,0,0,0,0,178,179,0,0,0,0,0,0,0,0,0,0,0,0,0,0,0,0,0,0,0,0,0,0,0,0,0,0,0,0,0,0,0,0,0,0,0,0,0,0,0,0,0,0,0,0,0,0,0,0,0,0,0,0,0,0,0,0,0,0,0,0,0,0,0,0,0,0,0,0,0,0,0,0,0,0,0,0,0,0,0,0,0,0,0,0,0,0,0,0,0,0,0,0,0,0,0,0,0,0,0,0,0,0,0,0,0,0,0,0,0,0,0,0,0,0,0,0,0,224,0,0,0,0,0,0,0,0,0,0,0,0,0,0,0,0,0,0,0,0,0,0,0,0,0,0,0,0,0,0,0,0,0,0,0,0,0,0,0,0,0,0,0,0,0,0,0,0,0,0,0,0,0,0,0,0,0,0,0,0,0,0,0,0,0,0,0,0,0,0,0,0,0,0,0,0,0,0,0,0,821,821,821,0,114,115,0,0,0,0,0,0,0,0,0,0,0,0,0,0,0,0,0,0,0,0,0,0,0,0,0,0,0,0,0,0,0,0,694,0,0,821,0,0,0,0,0,0,0,0,0,0,0,0,0,0,0,0,0,0,0,0,0,0,0,820,820,0,178,179,0,0,0,0,0,0,0,0,0,0,0,0,0,0,0,0,0,0,0,0,0,0,0,0,0,0,0,0,0,0,0,0,821,821,822,0,0,0,0,0,0,0,0,0,0,0,0,0,0,0,0,0,0,0,0,0,0,820,820,0,0,0,0,0,0,0,0,0,0,0,0,0,0,0,0,0,0,0,0,0,0,0,0,0,0,0,0,0,0,0,0,0,0,0,0,0,820,821,822,820,0,0,0,0,0,0,0,0,0,0,0,0,0,0,0,0,0,0,0,0,0,0,0,0,0,114,115,0,0,0,0,224,0,0,0,0,0,0,0,0,0,0,0,0,0,0,0,0,0,0,0,0,0,0,0,0,0,0,0,0,0,0,0,0,0,0,0,0,0,0,0,0,0,0,0,0,0,0,0,0,0,0,0,0,0,0,0,0,0,178,179,0,0,0,0,0,0,0,0,0,0,0,0,0,0,0,0,0,0,0,0,0,0,0,0,0,0,0,0,0,0,0,0,0,0,0,0,0,0,0,0,0,0,0,0,0,0,0,0,0,0,0,0,0,0,0,0,0,0,0,0,0,0,0,0,0,0,0,0,0,0,0,0,0,0,0,0,0,0,0,0,0,0,0,0,0,0,0,0,0,0,0,0,0,0,0,0,0,0,0,0,0,0,0,0,0,0,0,0,0,0,0,0,0,0,0,0,0,0,0,0,114,115,0,0,0,0,0,0,0,0,821,821,821,0,0,0,0,0,0,0,0,0,0,0,0,0,0,0,0,0,0,0,0,0,0,0,0,0,0,0,0,0,0,0,0,0,0,0,0,0,0,0,0,0,0,0,0,0,0,0,0,0,0,0,178,179,0,0,0,0,0,0,0,0,694,0,820,820,224,224,0,0,0,0,0,0,0,0,0,0,0,0,0,0,0,0,0,0,0,0,0,0,224,0,0,0,0,0,0,0,0,0,0,0,0,0,0,0,0,0,0,0,0,0,0,0,0,0,0,0,0,0,0,0,0,0,0,0,820,0,694,820,0,114,115,0,0,0,0,0,0,0,0,0,0,0,0,0,0,0,0,0,0,0,0,0,0,0,0,0,0,0,0,0,0,0,0,0,0,0,0,0,0,0,0,0,0,0,0,0,0,0,0,0,0,0,0,0,0,0,0,0,0,0,0,0,0,178,179,0,0,0,0,0,0,0,0,0,0,0,0,0,0,0,0,0,0,0,0,0,821,821,821,0,0,0,0,0,0,0,0,0,0,0,0,0,0,0,0,0,0,0,0,0,0,0,0,0,0,0,0,0,0,0,0,0,0,0,0,0,0,0,224,0,0,0,0,0,0,0,0,0,0,0,0,0,0,0,0,0,0,0,0,0,0,0,822,0,0,0,0,0,0,0,0,0,0,0,0,114,115,0,0,0,0,0,114,115,0,0,0,0,0,0,0,0,0,0,0,0,0,0,0,0,0,0,0,0,0,0,0,0,0,0,0,0,0,0,0,0,0,0,0,0,0,0,0,820,0,0,822,0,224,0,0,0,0,0,0,0,0,0,0,178,179,0,0,0,0,0,178,179,0,0,0,0,0,0,0,0,0,0,224,0,224,0,0,0,0,0,0,0,0,114,115,0,0,0,0,0,0,0,0,0,0,0,0,0,0,0,224,0,0,0,0,0,0,0,0,0,0,0,0,0,0,0,0,0,0,0,0,0,0,0,0,0,0,0,0,0,0,0,0,0,0,0,0,0,0,0,0,0,0,0,0,0,0,178,179,0,0,0,0,0,0,0,0,0,0,0,0,0,0,0,0,0,0,0,0,0,0,0,0,0,114,115,0,0,0,0,0,0,0,0,0,0,0,0,0,0,0,0,0,0,0,0,0,0,0,0,0,0,0,0,0,0,0,0,0,0,0,0,0,0,0,0,0,0,0,0,0,0,0,0,0,0,0,0,0,0,0,0,0,0,0,0,0,0,178,179,0,0,0,0,0,0,0,0,0,0,0,0,0,0,0,0,0,0,0,0,0,0,0,0,0,0,0,0,0,0,0,0,0,0,0,0,0,0,0,0,0,0,0,0,0,0,0,0,0,0,0,0,0,0,0,0,0,0,0,0,0,0,0,0,0,0,0,0,0,0,0,0,0,0,0,0,0,0,0,0,0,0,0,0,0,0,0,0,0,0,0,0,0,0,0,0,0,0,0,0,0,0,0,0,0,0,0,0,0,0,0,0,0,0,0,0,0,0,0,0,0,0,0,0,0,0,0,0,0,0,0,0,0,0,0,0,0,0,0,0,0,0,0,0,0,0,0,0,0,0,0,0,0,0,0,0,0,0,0,0,0,0,0,0,0,0,0,0,0,0,0,0,0,0,0,0,0,0,0,0,0,0,0,0,0,0,0,0,0,0,0,0,0,0,0,0,0,0,0,0,0,0,0,0,0,0,0,0,0,0,0,0,0,0,0,0,0,0,0,0,0,0,0,0,0,0,0,0,0,0,0,0,0,0,0,0,0,0,0,0,0,0,0,0,0,0,0,0,0,0,0,0,0,0,0,0,0,0,0,0,0,0,0,0,0,0,0,0,0,0,0,0,0,0,0,0,0,0,0,0,0,0,0,0,0,0,0,0,0,0,0,0,0,0,0,0,0,0,0,0,0,0,0,0,0,0,0,0,0,0,0,0,0,0,0,0,0,0,0,0,0,0,0,0,0,0,0,0,0,0,0,0,0,0,0,0,0,0,0,0,0,0,0,0,0,0,0,0,0,0,0,0,0,0,0,0,0,0,0,0,0,0,0,0,0,0,0,0,0,0,0,0,0,0,0,0,0,0,0,0,0,0,0,0,0,0,0,0,0,0,0,0,0,0,0,0,0,0,0,0,0,0,0,0,0,0,0,0,0,0,0,0,0,0,0,0,0,0,0,0,0,0,0,0,0,0,0,0,0,0,0,0,0,0,0,0,0,0,0,0,0,0,0,0,0,0,0,0,0,0,0,0,0,0,0,0,0,0,0,0,0,0,0,0,0,0,0,0,0,0,0,0,0,0,0,0,0,0,0,0,0,0,0,0,0,0,0,0,0,0,0,0,0,0,0,0,0,0,0,224,0,0,0,0,0,0,0,0,0,0,0,0,0,0,0,0,0,0,0,0,0,0,0,0,0,224,0,0,0,0,0,0,0,0,0,0,0,0,0,0,0,0,0,0,0,0,0,0,0,0,0,0,0,0,0,0,0,0,0,0,0,0,0,0,0,0,0,0,0,0,0,0,0,0,0,0,0,0,0,0,0,0,0,0,0,0,0,0,0,0,0,0,0,0,0,0,0,0,0,0,0,0,0,0,0,0,0,0,0,0,0,0,0,0,0,0,0,0,0,0,0,0,0,0,0,0,0,0,0,0,0,0,0,0,0,0,0,0,0,0,0,0,0,224,0,0,0,0,0,0,0,0,0,0,0,0,0,0,0,0,0,0,0,0,0,820,821,820,0,0,0,0,0,0,0,0,0,0,0,0,0,0,0,0,0,0,0,0,0,0,0,242,243,0,0,0,0,0,0,0,0,0,0,0,0,242,243,0,0,0,0,0,0,0,0,0,0,224,0,0,0,0,0,0,0,0,0,0,0,0,0,822,0,0,0,0,0,0,0,0,0,0,0,0,0,0,0,0,0,0,0,0,0,0,0,306,307,0,0,0,0,0,0,0,0,0,0,0,0,306,307,0,0,0,0,0,0,0,0,0,0,821,820,820,822,0,0,0,0,0,0,0,822,821,822,820,0,0,0,0,0,0,0,0,0,0,0,0,0,0,0,0,0,0,0,0,0,0,0,0,0,0,0,0,0,0,0,0,0,0,0,0,0,0,0,0,0,0,0,0,0,0,0,0,0,0,821,0,0,0,0,0,0,0,0,0,0,0,0,0,224,0,0,0,0,0,0,0,0,0,0,0,0,0,0,0,0,0,0,0,0,0,0,0,0,0,0,0,0,0,0,0,0,0,0,0,0,0,0,0,0,0,0,0,0,0,0,0,0,822,822,0,822,0,0,0,0,0,0,0,0,0,0,0,0,0,0,0,0,0,0,0,0,0,0,0,0,0,0,0,0,0,0,0,0,0,0,0,0,0,0,0,0,0,0,0,0,0,0,0,0,224,0,0,0,0,0,0,0,0,0,0,0,0,0,0,0,0,0,0,0,0,0,0,0,0,0,0,0,0,0,0,0,0,0,0,0,0,0,0,0,0,0,0,0,0,0,0,0,0,0,0,0,0,0,0,0,0,0,0,0,0,0,0,0,0,0,0,0,0,0,0,0,0,0,0,0,0,0,0,0,0,0,0,0,0,0,224,0,0,0,0,0,0,0,0,0,0,0,0,0,0,0,0,0,0,0,0,0,0,0,0,0,0,0,0,0,0,0,0,0,0,0,0,0,0,0,0,0,0,0,0,0,0,0,224,0,0,0,0,0,0,0,0,0,0,0,0,0,0,0,0,0,0,0,0,0,0,0,0,0,0,0,0,0,0,0,0,0,0,0,0,0,0,0,0,0,0,0,0,0,0,0,0,0,0,0,0,0,0,0,0,0,0,0,0,0,0,0,114,115,0,0,0,224,0,0,0,0,0,0,0,0,0,0,0,0,0,0,0,0,0,0,0,0,0,0,0,0,0,0,0,0,0,0,0,0,0,0,0,0,0,0,0,0,0,0,0,0,0,0,0,0,0,0,0,0,0,0,0,0,0,0,178,179,0,0,0,0,0,0,0,0,0,0,0,0,0,0,0,0,0,0,0,0,0,0,0,0,0,0,0,0,0,0,0,0,0,0,0,0,0,0,0,0,0,0,0,0,0,0,0,0,0,0,0,0,0,0,0,0,0,0,0,0,0,0,0,0,0,0,0,0,0,0,0,0,0,0,0,0,0,0,0,0,0,0,0,0,0,0,0,0,0,0,0,0,0,0,0,0,0,0,0,0,0,0,0,0,0,0,0,0,0,0,0,0,0,0,0,0,0,0,0,0,0,0,0,0,0,0,0,0,0,0,0,0,0,0,0,0,0,0,0,0,0,0,0,0,0,0,0,0,0,0,0,0,0,0,0,0,0,0,0,0,0,0,0,0,0,0,0,0,0,0,0,0,0,0,0,0,0,0,0,0,0,0,0,0,0,0,0,0,0,0,0,0,0,0,0,0,0,0,0,0,0,0,0,0,0,0,0,0,0,0,0,0,0,0,0,0,0,0,0,0,0,0,0,0,0,0,0,0,0,0,0,0,0,0,0,0,0,0,0,0,0,0,0,0,0,0,0,0,0,0,0,0,0,0,0,0,0,0,0,0,0,0,0,0,0,0,0,0,0,0,0,0,0,0,0,0,0,0,0,0,0,0,0,0,0,0,0,0,0,0,0,0,0,0,0,0,0,0,0,0,0,0,0,0,0,0,0,0,0,0,0,0,0,0,0,0,0,0,0,0,0,0,0,0,0,0,0,0,0,0,0,0,0,0,0,0,0,0,0,0,0,0,0,0,0,0,0,0,0,0,0,0,0,0,0,0,0,0,0,0,0,0,0,0,0,0,0,0,0,0,0,0,0,0,0,0,0,0,0,0,0,0,0,0,0,0,0,0,0,0,0,0,0,0,0,0,0,0,0,0,0,0,0,0,0,0,0,0,0,0,0,0,0,0,0,0,0]},{"id":5,"name":"build","type":"tilelayer","width":64,"height":150,"x":0,"y":0,"opacity":1,"visible":true,"data":[0,0,0,0,0,0,0,0,0,0,0,0,0,0,0,0,0,0,0,0,0,0,0,0,0,0,0,0,0,0,0,0,0,0,0,0,0,0,0,0,0,0,0,0,0,0,0,0,0,0,0,0,0,0,0,0,0,0,0,0,0,0,0,0,0,0,0,0,0,0,0,0,0,0,0,0,0,0,0,0,0,0,0,0,0,0,0,0,0,0,0,0,0,0,0,0,0,0,0,0,0,0,0,0,0,0,0,0,0,0,0,0,0,0,0,0,0,0,0,0,0,0,0,0,0,0,0,0,0,0,0,0,0,0,0,0,0,0,0,0,0,0,0,0,0,0,0,0,0,0,0,0,0,0,0,0,0,0,0,0,0,0,0,0,0,0,0,0,0,0,0,0,0,0,0,0,0,0,0,0,0,0,0,0,0,0,0,0,0,0,0,0,0,0,0,0,0,0,0,0,0,0,0,0,0,0,0,0,0,0,0,0,0,0,0,0,0,0,0,0,0,0,0,0,0,0,0,0,0,0,0,0,0,0,0,0,0,0,0,0,0,0,0,0,0,0,0,0,0,0,0,0,0,0,0,0,0,0,0,0,0,0,0,0,0,0,0,0,0,0,0,0,0,0,0,0,0,0,0,0,0,0,0,0,0,0,0,0,0,0,0,0,0,0,0,0,0,0,0,0,0,0,0,0,0,0,0,0,0,0,0,0,0,0,0,0,0,0,0,0,0,0,0,0,0,0,0,0,0,0,0,0,0,0,0,0,0,0,0,0,0,0,0,0,0,0,0,0,0,0,0,0,0,0,0,0,0,0,0,0,0,0,0,0,0,0,0,0,0,0,0,0,0,0,0,0,0,0,0,0,0,0,0,0,0,0,0,0,0,0,0,0,0,0,0,0,0,0,0,0,0,0,0,0,0,0,0,0,0,0,0,0,0,0,0,0,0,0,0,0,0,0,0,0,0,0,0,0,0,0,0,0,0,0,0,0,0,0,0,0,0,0,0,0,0,0,0,0,0,0,0,0,0,0,0,0,0,0,0,0,0,0,0,0,0,0,0,0,0,0,0,0,0,0,0,436,437,0,0,0,0,0,0,0,0,0,0,0,0,0,0,0,0,0,0,0,0,0,0,0,0,0,0,0,0,0,0,0,0,0,0,0,0,0,0,0,0,0,0,0,0,0,0,0,0,0,0,0,0,0,0,0,0,0,0,0,0,0,0,500,501,0,0,0,0,0,0,0,436,437,0,0,0,0,0,0,0,0,0,0,0,0,0,0,0,0,0,0,0,0,0,0,0,0,0,0,0,0,0,0,0,0,0,0,0,0,0,0,0,0,0,0,0,0,0,0,1912,0,436,437,0,0,0,564,565,0,0,0,0,0,0,0,500,501,0,0,0,0,0,0,0,0,0,0,0,0,0,0,0,0,0,0,0,0,0,0,0,0,0,0,0,0,0,0,0,0,0,0,0,0,0,0,0,0,0,0,0,0,0,0,1976,0,500,501,0,0,0,0,0,0,0,0,0,0,0,0,564,565,0,0,436,437,0,0,436,437,0,0,0,0,0,0,0,0,0,0,0,0,0,0,0,0,0,0,0,0,0,0,0,0,0,0,0,0,0,0,0,0,0,0,0,0,0,0,0,0,564,565,0,0,0,0,0,0,0,0,0,0,0,0,0,0,0,0,500,501,0,0,500,501,0,0,0,0,0,0,0,0,0,0,0,0,0,0,0,0,0,0,0,0,0,0,0,0,0,0,0,0,0,0,0,0,0,0,0,0,0,0,0,0,0,0,0,0,0,0,0,0,0,0,0,0,1109,1110,1110,1110,1109,0,564,565,0,0,564,565,0,0,0,0,0,0,0,0,0,0,0,0,0,0,0,0,0,0,0,0,0,0,0,0,0,0,0,0,0,0,0,0,0,0,0,0,0,0,0,1109,1110,1110,1110,1109,0,0,114,115,0,0,0,0,1238,1238,1238,1238,1238,0,0,0,0,0,0,0,0,0,0,0,436,437,0,0,0,0,0,0,0,0,0,0,0,0,0,0,0,0,0,0,0,0,0,0,0,0,0,0,436,437,0,436,437,0,0,1238,1238,1238,1238,1238,0,0,178,179,0,0,0,0,1238,1238,1238,1238,1238,0,0,0,0,0,0,0,0,1398,1399,0,500,501,0,0,0,0,0,0,0,0,0,0,0,0,0,0,0,0,0,0,0,0,0,0,0,0,0,0,500,501,0,500,501,0,0,1238,1238,1238,1238,1238,0,0,0,0,0,0,0,0,1304,1304,1304,1304,1304,0,1912,0,0,0,0,0,0,1462,1463,0,564,565,0,0,0,0,0,0,0,0,0,0,0,0,0,0,0,0,0,0,0,0,0,0,0,0,0,0,564,565,0,564,565,0,0,1304,1304,1304,1304,1304,0,0,1912,0,0,0,0,0,1369,1369,1366,1369,1369,0,1976,0,0,0,0,0,0,0,0,0,0,0,0,0,0,0,0,0,0,0,0,0,0,0,0,0,0,0,0,0,0,0,0,0,0,0,0,0,0,0,0,0,0,0,0,1369,1369,1366,1369,1369,0,0,1976,0,0,0,0,0,1502,1503,1503,1503,1504,0,0,0,0,0,0,0,0,0,114,115,0,0,0,0,0,0,0,0,0,0,0,0,0,0,0,0,0,0,0,0,0,0,0,0,0,0,0,0,0,0,0,0,0,0,0,1502,1503,1503,1503,1504,0,0,0,0,0,0,0,0,0,0,0,0,0,0,0,0,0,0,0,0,0,0,178,179,0,114,115,0,0,0,0,0,0,0,0,0,0,0,0,0,0,0,0,0,0,0,0,0,0,0,0,0,0,0,0,0,0,114,115,436,437,0,0,0,0,0,0,0,0,0,0,0,0,0,0,0,0,0,0,0,0,0,0,0,0,0,0,0,0,178,179,0,0,0,0,0,0,0,0,0,0,0,0,0,0,0,0,0,0,0,0,0,0,0,0,0,0,0,0,0,0,178,179,500,501,0,114,115,0,0,0,0,0,0,0,0,0,0,0,0,0,0,0,0,0,0,0,0,0,0,0,0,0,0,0,0,0,0,0,0,0,0,0,0,0,0,0,0,0,0,0,0,0,0,0,0,0,0,0,0,0,0,0,0,0,0,0,564,565,0,178,179,436,437,0,0,0,0,0,0,0,0,0,1621,1622,1622,1622,1621,0,0,0,0,0,0,0,0,0,0,0,0,0,0,0,0,0,0,0,0,0,0,0,0,0,0,0,0,0,0,436,437,0,0,2645,2646,2646,2646,2645,0,0,114,115,436,437,0,0,0,500,501,0,0,0,0,0,0,0,0,0,1750,1750,1750,1750,1750,0,1908,1909,0,2133,2134,2134,2134,2133,0,0,0,0,0,0,0,0,0,0,0,0,0,0,0,0,0,0,0,0,0,500,501,0,0,2774,2774,2774,2774,2774,0,0,178,179,500,501,436,437,0,564,565,0,0,0,0,0,0,0,0,0,1750,1750,1750,1750,1750,0,1972,1973,0,2262,2262,2262,2262,2262,0,0,0,0,0,0,0,0,0,0,0,0,0,0,0,0,0,0,0,0,0,564,565,0,0,2774,2774,2774,2774,2774,0,0,114,115,564,565,500,501,597,598,598,598,597,0,0,0,0,0,0,0,1816,1816,1816,1816,1816,0,0,0,0,2262,2262,2262,2262,2262,0,0,0,0,0,0,0,0,0,0,0,0,0,0,0,0,0,0,0,0,0,0,0,0,0,2840,2840,2840,2840,2840,0,0,178,179,114,115,564,565,726,726,726,726,726,0,0,0,0,0,0,0,1881,1881,1878,1881,1881,0,0,0,0,2328,2328,2328,2328,2328,0,0,0,0,0,0,0,0,0,0,0,0,0,0,0,0,0,0,0,0,0,0,0,0,0,2905,2905,2902,2905,2905,0,0,0,0,178,179,0,0,726,726,726,726,726,0,0,0,0,0,0,0,2014,2015,2015,2015,2016,0,0,0,0,2393,2393,2390,2393,2393,0,0,0,0,0,0,0,0,0,0,0,0,0,0,0,0,0,0,0,0,0,0,0,0,0,3038,3039,3039,3039,3040,0,0,0,0,0,0,0,0,792,792,792,792,792,0,0,0,0,0,0,0,0,0,0,0,0,0,0,0,0,2526,2527,2527,2527,2528,0,0,0,0,0,0,0,0,0,0,0,0,0,0,0,0,0,0,0,0,0,0,0,0,0,0,0,0,0,0,0,0,0,0,0,0,0,0,857,857,854,857,857,0,0,0,0,0,0,0,0,0,0,0,0,0,0,0,0,0,0,0,0,0,0,0,0,0,0,0,0,0,0,0,0,0,0,0,0,0,0,0,0,0,0,0,0,0,0,0,0,0,0,0,0,0,0,0,0,0,0,0,990,991,991,991,992,0,0,0,0,0,0,0,0,0,0,0,0,0,0,0,0,0,0,0,0,0,0,0,0,1908,1909,0,0,0,0,0,0,0,0,0,0,0,0,0,0,0,0,0,0,0,0,0,0,0,0,1912,0,0,0,0,114,115,0,0,0,0,0,0,0,0,0,0,0,0,0,0,0,0,0,0,0,0,0,0,0,0,0,0,0,114,115,0,0,1972,1973,0,0,0,0,0,0,0,0,0,0,0,0,0,0,0,0,0,0,0,0,0,0,0,0,1976,0,0,0,0,178,179,0,114,115,0,0,0,0,0,0,0,0,0,0,0,0,0,0,0,1621,1622,1622,1622,1621,0,0,0,0,178,179,0,0,0,0,0,0,0,0,0,0,0,0,0,0,0,0,0,0,0,0,0,0,0,0,0,0,0,0,0,0,0,0,0,0,0,0,178,179,0,0,0,0,0,0,0,0,0,0,0,0,0,0,0,1750,1750,1750,1750,1750,0,114,115,0,0,0,0,0,0,0,0,0,0,0,0,0,0,0,0,0,0,0,0,0,0,0,0,0,0,0,0,0,0,0,0,0,2133,2134,2134,2134,2133,0,0,0,0,1906,1907,0,0,0,0,0,0,0,0,0,0,0,0,1750,1750,1750,1750,1750,0,178,179,0,0,0,0,0,0,0,0,0,0,0,0,0,0,0,0,0,0,0,0,0,0,0,0,114,115,0,0,0,0,0,0,0,2262,2262,2262,2262,2262,0,0,0,0,1970,1971,0,0,0,0,0,0,0,0,0,0,0,0,1816,1816,1816,1816,1816,0,0,0,0,1912,0,114,115,0,0,0,0,0,0,0,0,0,0,0,0,0,0,0,0,0,0,0,178,179,0,436,437,0,436,437,0,2262,2262,2262,2262,2262,0,0,0,0,0,0,0,0,0,0,0,0,0,0,0,0,0,0,1881,1881,1878,1881,1881,0,114,115,0,1976,0,178,179,0,0,0,0,0,0,0,0,0,0,0,0,0,0,0,0,0,0,0,0,114,115,500,501,0,500,501,0,2328,2328,2328,2328,2328,0,0,114,115,0,0,597,598,598,598,597,0,0,0,0,0,0,0,2014,2015,2015,2015,2016,0,178,179,0,0,0,0,0,0,0,0,0,0,0,0,0,0,0,0,0,0,0,0,0,0,0,0,0,178,179,564,565,0,564,565,0,2393,2393,2390,2393,2393,0,0,178,179,0,0,726,726,726,726,726,0,0,0,0,0,0,0,0,0,0,0,0,0,0,0,0,0,0,0,0,0,0,0,0,0,0,0,0,0,0,0,0,0,0,0,0,0,0,0,0,0,0,0,0,0,0,0,0,2526,2527,2527,2527,2528,0,0,0,0,0,0,726,726,726,726,726,0,0,0,0,0,0,0,0,0,0,0,0,0,0,0,0,0,0,0,0,0,0,0,0,0,0,0,0,0,0,0,0,0,0,0,0,0,0,0,0,0,0,0,0,0,0,0,0,0,0,0,0,0,0,0,0,0,0,0,792,792,792,792,792,0,0,0,0,0,0,0,0,0,0,0,0,0,0,0,0,0,0,0,0,0,0,0,0,0,0,0,0,0,0,0,0,0,0,0,0,0,0,0,0,0,0,0,0,0,0,0,0,0,0,0,0,0,0,0,0,0,0,0,857,857,425,425,857,0,0,0,0,0,0,0,0,0,0,0,0,0,0,0,0,0,0,0,0,0,0,0,0,0,0,0,0,0,0,0,0,0,0,0,0,0,0,0,0,0,0,0,0,0,0,0,0,0,0,0,0,0,0,0,1908,1909,0,0,990,991,425,425,992,0,0,114,115,0,0,114,115,0,0,0,1912,0,0,0,0,0,0,0,0,0,0,0,0,0,0,0,0,0,0,0,0,0,0,0,0,0,0,0,0,0,0,0,0,0,0,0,0,0,0,0,0,0,0,0,1972,1973,0,0,0,0,425,425,0,0,0,178,179,0,0,178,179,0,0,0,1976,0,0,0,0,0,0,0,0,0,0,0,0,0,0,0,0,0,0,0,0,0,0,0,0,0,0,0,0,0,0,0,0,0,0,0,0,0,0,0,0,0,0,0,0,0,0,0,0,0,425,425,0,0,0,0,0,0,0,0,0,0,0,0,0,0,0,0,0,0,0,0,0,0,0,0,0,0,0,0,0,0,0,0,0,0,0,0,0,0,0,0,0,0,0,0,0,0,0,0,0,0,0,0,0,0,0,0,0,0,0,0,0,0,425,425,0,0,0,0,0,0,0,0,0,0,0,0,0,0,0,0,0,0,0,0,0,0,0,0,0,0,0,0,0,0,0,0,0,0,0,0,0,0,0,0,0,0,0,0,0,0,0,0,0,0,0,0,0,0,0,0,0,0,0,0,0,0,425,425,0,0,0,0,0,0,0,0,0,0,0,0,0,0,0,0,0,0,0,0,0,0,0,0,0,0,0,0,0,0,0,0,0,0,0,0,0,0,0,0,0,0,0,0,0,0,0,0,0,0,0,0,0,0,0,0,0,0,0,0,0,423,425,425,0,0,0,0,0,0,0,0,0,0,0,0,0,0,0,0,0,0,0,0,0,0,0,0,0,0,0,0,0,0,0,0,0,0,0,0,0,0,0,0,0,0,0,0,0,0,0,0,0,0,0,0,0,0,0,0,0,0,0,0,0,0,425,425,0,0,0,0,0,0,0,0,0,0,0,0,0,0,0,0,0,0,0,0,0,0,0,0,0,0,0,0,0,0,0,0,0,0,0,0,0,0,0,0,0,0,0,0,0,0,0,0,0,0,0,0,0,0,0,0,0,0,0,0,0,423,425,425,0,0,0,0,0,0,0,0,0,0,0,0,0,0,0,0,0,0,0,0,0,0,0,0,0,0,0,0,0,0,0,0,0,0,0,0,0,0,0,0,0,0,0,0,0,0,0,0,0,0,0,0,0,0,0,0,0,0,0,0,0,0,425,425,0,0,0,0,0,0,0,0,0,0,0,0,0,0,0,0,0,0,0,0,0,0,0,0,0,0,0,0,0,0,0,0,0,0,0,0,0,0,0,0,0,0,0,0,0,0,0,0,0,0,0,0,0,0,0,0,0,0,0,0,0,423,425,425,423,0,0,0,0,0,0,0,0,0,0,0,0,0,0,0,0,0,0,0,0,0,0,0,0,0,0,0,0,0,0,0,0,0,0,0,0,0,0,0,0,0,0,0,0,0,0,0,0,0,0,0,0,0,0,0,0,0,0,0,0,0,425,425,0,0,0,0,0,0,0,0,0,0,0,0,0,0,0,0,0,0,0,0,0,0,0,0,0,0,0,0,0,0,0,0,0,0,0,0,0,0,0,0,0,0,0,0,0,0,0,0,0,0,0,0,0,0,0,0,0,0,0,0,0,423,425,425,423,0,0,0,0,0,0,0,0,0,0,0,0,0,0,0,0,0,0,0,0,0,0,0,0,0,0,0,0,0,0,0,0,0,0,0,0,0,0,0,0,0,0,0,0,0,0,0,0,0,0,0,0,0,0,0,0,0,0,0,0,0,425,425,0,0,0,0,0,0,0,0,0,0,0,0,0,0,0,0,0,0,0,0,0,0,0,0,0,0,0,0,0,0,0,0,0,0,0,0,0,0,0,0,0,0,0,0,0,0,0,0,0,0,0,0,0,0,0,0,0,0,0,0,0,423,425,425,423,0,0,0,0,0,0,0,0,0,0,0,0,0,0,0,0,0,0,0,0,0,0,0,0,0,0,0,0,0,0,0,0,0,0,0,0,0,0,0,0,0,0,0,0,0,0,0,0,0,0,0,0,0,0,0,0,0,0,0,0,0,425,425,0,0,0,0,0,0,0,0,0,0,0,0,0,0,0,0,0,0,0,0,0,0,0,0,0,0,0,0,0,0,0,0,0,0,0,0,0,0,0,0,0,0,0,0,0,0,0,0,0,0,0,0,0,0,0,0,0,0,0,0,0,0,425,425,0,0,0,0,0,0,0,0,0,0,0,0,0,0,0,0,0,0,0,0,0,0,0,0,0,0,0,0,0,0,0,0,0,0,0,0,0,0,0,0,0,0,0,0,0,0,0,0,0,0,0,0,0,0,0,0,0,0,0,0,0,0,425,425,0,0,0,0,0,0,0,0,0,0,0,0,0,0,0,0,0,0,0,0,0,0,0,0,0,0,0,0,0,0,0,0,0,0,0,0,0,0,0,0,0,0,0,0,0,0,0,0,0,0,0,0,0,0,0,114,115,0,0,0,0,0,425,425,0,0,0,0,0,0,436,437,0,0,0,0,0,0,0,0,0,0,0,0,0,0,0,0,0,0,0,0,0,0,0,0,0,0,0,0,0,0,0,0,0,0,0,0,0,0,0,0,0,0,0,0,0,0,0,178,179,0,114,115,0,0,425,425,0,0,0,1908,1909,0,500,501,0,0,0,0,0,0,0,0,0,0,0,0,0,0,0,0,0,0,0,0,0,0,0,0,0,0,0,0,0,0,0,0,0,0,0,0,0,0,0,0,0,0,0,0,0,0,0,0,0,0,178,179,0,0,425,425,0,0,0,1972,1973,0,564,565,0,0,0,0,0,0,0,0,0,0,0,0,0,0,0,0,0,0,0,0,0,0,0,0,0,0,0,0,0,0,0,0,0,0,0,0,0,0,0,0,0,0,0,0,0,0,0,0,0,0,0,0,0,0,0,0,0,0,0,0,0,0,0,0,0,0,0,0,0,0,0,0,0,0,0,0,0,0,0,0,0,0,0,0,0,0,0,0,0,0,0,0,0,0,0,0,0,0,0,0,0,0,0,0,0,0,0,0,0,0,0,597,598,598,598,597,0,0,0,0,0,0,0,0,0,0,0,0,0,0,0,0,0,0,0,0,0,0,0,0,0,0,0,0,0,0,0,0,0,0,0,0,0,0,0,0,0,0,0,0,0,0,0,0,0,0,0,0,0,0,0,0,0,0,0,726,726,726,726,726,0,0,0,0,0,597,598,598,598,597,0,0,0,0,2133,2134,2134,2134,2133,0,0,0,0,0,0,0,0,0,0,0,0,0,0,0,0,0,0,0,0,0,0,0,0,0,0,0,0,114,115,0,0,0,0,0,0,0,0,0,0,726,726,726,726,726,0,0,0,0,0,726,726,726,726,726,0,0,0,0,2262,2262,2262,2262,2262,0,0,0,0,0,0,0,0,0,0,0,0,0,0,0,0,0,0,0,0,0,0,0,0,0,0,0,0,178,179,0,0,0,0,0,0,0,0,0,0,792,792,792,792,792,0,0,0,0,0,726,726,726,726,726,0,0,0,0,2262,2262,2262,2262,2262,0,0,0,0,0,0,0,0,0,0,0,0,0,0,0,0,0,0,0,0,0,0,0,0,0,0,0,0,0,0,0,0,0,0,0,0,0,0,0,0,857,857,854,857,857,0,0,0,0,0,792,792,792,792,792,0,1398,1399,0,2328,2328,2328,2328,2328,0,0,0,0,0,0,0,0,0,0,0,0,0,0,0,0,0,0,0,0,0,0,0,0,0,0,0,0,0,0,0,0,0,0,0,0,0,0,0,0,990,991,991,991,992,0,0,0,0,0,857,857,854,857,857,0,1462,1463,0,2393,2393,2390,2393,2393,0,0,0,0,0,0,0,0,0,0,0,0,0,0,0,0,0,0,0,0,0,0,0,0,0,0,0,0,0,0,0,0,0,0,0,0,0,0,0,0,0,0,0,0,0,0,0,0,0,0,990,991,991,991,992,0,0,0,0,2526,2527,2527,2527,2528,0,0,0,0,0,0,0,0,0,0,0,0,0,0,0,0,0,0,0,0,0,0,0,0,0,0,0,0,0,0,0,0,0,0,1908,1909,0,0,0,0,0,0,0,0,0,0,0,0,0,0,0,0,0,0,0,0,0,0,0,0,0,0,0,0,0,0,0,0,0,0,0,0,0,0,0,0,0,0,0,0,0,0,0,0,0,0,0,0,0,0,0,0,0,0,0,0,0,0,1972,1973,0,0,0,0,0,0,0,0,0,0,0,0,0,0,0,0,0,0,0,0,0,0,0,0,0,0,0,0,0,0,0,0,0,114,115,0,0,0,0,0,0,0,0,0,0,0,0,0,0,0,0,0,0,0,0,0,0,0,0,0,0,0,0,0,0,0,0,0,1621,1622,1622,1622,1621,0,0,0,0,0,0,0,0,0,0,0,0,0,0,0,0,0,0,0,0,0,436,437,0,178,179,0,0,0,0,0,0,0,0,0,0,0,0,0,0,0,0,0,0,0,0,0,0,0,0,0,0,0,0,0,114,115,0,0,1750,1750,1750,1750,1750,0,0,0,0,0,0,0,0,0,0,0,0,0,0,0,0,0,0,0,0,0,500,501,0,0,0,0,0,0,0,0,0,0,0,0,0,0,0,0,0,0,0,0,0,0,1109,1110,1110,1110,1109,0,0,0,0,0,178,179,0,0,1750,1750,1750,1750,1750,0,0,0,0,0,0,0,0,0,0,0,0,0,0,0,0,0,0,0,0,0,564,565,0,0,0,0,0,0,0,0,0,0,0,0,0,0,0,0,0,0,0,0,0,0,1238,1238,1238,1238,1238,0,1906,1907,0,0,0,0,0,0,1816,1816,1816,1816,1816,0,0,0,0,0,0,0,0,0,0,0,0,0,0,0,0,0,0,0,0,0,0,0,0,1908,1909,0,0,0,0,0,0,0,0,0,0,0,0,0,0,0,0,0,0,0,1238,1238,1238,1238,1238,0,1970,1971,0,0,114,115,0,0,1881,1881,1878,1881,1881,0,0,0,0,0,0,0,0,0,0,0,0,0,0,0,0,0,0,0,0,0,0,0,0,1972,1973,0,0,0,0,0,0,0,0,0,0,0,0,0,0,0,0,0,0,0,1304,1304,1304,1304,1304,0,0,0,0,0,178,179,0,0,2014,2015,2015,2015,2016,0,0,0,0,0,0,0,0,0,0,0,0,0,0,0,0,0,0,0,0,0,0,0,0,0,0,0,0,0,0,0,0,0,0,0,0,0,0,0,0,0,0,0,0,0,1369,1369,1366,1369,1369,0,0,0,0,0,0,0,0,0,0,0,0,0,0,0,0,0,0,0,0,0,0,0,0,0,0,0,0,0,0,0,0,0,0,0,0,0,0,0,0,0,0,0,0,0,0,0,0,0,0,0,0,0,0,0,0,0,0,0,1502,1503,1503,1503,1504,0,0,0,0,0,0,0,0,0,0,0,0,0,0,0,0,0,0,0,0,0,0,0,0,0,0,0,0,0,0,0,0,0,0,0,0,0,0,0,0,0,0,0,0,0,0,0,0,0,0,0,0,0,0,0,0,0,0,0,0,0,0,0,0,0,0,0,0,0,0,0,0,0,0,0,0,0,0,0,0,0,0,0,0,0,0,0,0,0,0,0,0,0,0,0,0,0,0,0,0,0,1908,1909,0,0,0,0,0,0,0,0,0,0,0,0,0,0,0,0,0,0,0,0,0,0,0,0,0,0,0,0,0,0,0,0,2645,2646,2646,2646,2645,0,0,0,0,0,0,0,0,0,0,0,0,0,0,0,0,0,0,0,0,0,0,0,0,0,1972,1973,0,0,0,0,0,0,0,0,0,0,0,0,0,0,0,0,0,0,436,437,0,0,0,0,0,0,0,0,0,0,0,0,2774,2774,2774,2774,2774,0,114,115,0,0,0,0,0,0,0,0,0,0,0,0,0,0,0,0,0,0,0,0,0,0,0,0,0,0,0,0,0,0,0,0,0,0,0,0,0,0,0,0,0,0,500,501,0,0,0,0,0,0,0,0,0,0,0,0,2774,2774,2774,2774,2774,0,178,179,0,0,0,0,0,0,0,0,0,0,0,0,0,0,0,0,0,0,0,0,0,436,437,0,0,0,0,0,0,0,0,0,0,0,0,0,0,0,0,0,0,0,564,565,0,0,0,0,1109,1110,1110,1110,1109,0,0,0,2840,2840,2840,2840,2840,0,0,0,0,0,0,0,0,0,0,0,0,0,0,0,0,0,0,0,0,0,0,0,0,500,501,0,0,0,0,0,0,0,0,0,0,0,0,0,0,0,0,0,0,0,0,0,0,0,0,0,1238,1238,1238,1238,1238,0,0,0,2905,2905,2902,2905,2905,0,0,0,0,0,0,0,0,0,0,0,0,0,0,0,0,0,0,0,0,0,1912,0,0,564,565,0,0,0,0,0,0,0,0,0,0,0,0,0,0,0,0,0,0,0,0,0,0,0,0,0,1238,1238,1238,1238,1238,0,1912,0,3038,3039,3039,3039,3040,0,0,0,0,0,0,0,0,0,114,115,0,0,0,0,0,0,0,0,0,0,1976,0,0,0,0,0,0,0,0,0,0,0,0,0,0,0,0,0,0,0,0,0,0,0,0,0,0,0,0,0,1304,1304,1304,1304,1304,0,1976,0,0,0,0,0,0,0,0,0,1621,1622,1622,1622,1621,0,178,179,0,0,0,0,0,0,0,0,0,0,0,0,114,115,0,0,0,0,0,0,0,0,0,0,0,0,0,0,0,0,0,0,0,0,0,0,0,0,0,0,1369,1369,1366,1369,1369,0,0,0,0,0,0,0,0,0,0,0,1750,1750,1750,1750,1750,0,436,437,0,0,0,0,0,436,437,0,436,437,0,0,178,179,0,0,0,0,0,0,0,0,0,0,0,0,0,0,0,0,0,0,0,0,0,0,0,0,0,0,1502,1503,1503,1503,1504,0,0,0,0,0,0,0,0,0,0,0,1750,1750,1750,1750,1750,0,500,501,0,0,0,0,0,500,501,0,500,501,0,0,0,0,0,0,0,0,0,0,0,0,0,0,0,0,0,0,0,0,0,0,0,0,0,0,0,0,0,0,0,0,0,0,0,0,0,0,0,0,0,0,0,0,0,0,1816,1816,1816,1816,1816,0,564,565,0,0,0,0,0,564,565,0,564,565,0,0,0,0,0,0,0,0,0,0,0,0,0,0,0,0,0,0,0,0,0,0,0,0,0,0,0,0,0,0,0,0,0,0,0,0,0,0,0,0,0,0,0,0,0,0,1881,425,425,1881,1881,0,0,0,114,115,436,437,114,115,436,437,0,0,0,0,0,0,0,0,0,0,0,0,0,0,0,0,0,0,0,0,0,0,0,0,0,0,0,0,0,0,0,0,0,0,0,0,0,0,0,0,0,1398,1399,0,0,0,0,0,2014,425,425,2015,2016,0,0,0,178,179,500,501,178,179,500,501,436,437,0,0,0,0,0,0,0,0,0,0,0,0,0,0,0,0,0,0,0,0,0,0,0,0,0,0,0,0,0,0,0,0,0,0,0,0,0,0,0,1462,1463,0,0,0,1912,0,0,425,425,0,0,0,114,115,0,0,564,565,114,115,564,565,500,501,0,0,0,0,0,0,0,0,0,0,0,0,0,0,0,0,0,0,0,0,0,0,0,0,0,0,0,0,0,0,0,0,0,0,0,0,0,0,0,0,0,0,0,0,1976,0,0,425,425,0,114,115,178,179,114,115,436,437,178,179,436,437,564,565,0,0,0,0,0,0,0,0,0,0,0,0,0,0,0,0,0,0,0,0,0,0,0,0,0,0,0,0,0,0,0,0,0,0,0,0,0,0,0,0,0,0,0,0,0,0,0,425,425,0,178,179,0,0,178,179,500,501,0,0,500,501,114,115,0,0,0,0,0,0,0,0,0,0,0,0,0,0,0,0,0,0,0,0,0,0,0,0,0,0,0,0,0,0,0,0,0,0,0,0,0,0,0,0,0,0,0,0,0,0,0,425,425,0,0,0,0,0,0,0,564,565,0,0,564,565,178,179,0,0,0,0,0,0,0,0,0,0,0,0,0,0,0,0,0,0,0,0,0,0,0,0,0,0,0,0,0,0,0,0,0,0,0,0,0,0,0,0,0,0,0,0,0,0,0,425,425,423,0,0,0,0,0,0,0,0,0,0,0,0,0,0,0,0,0,0,0,0,0,0,0,0,0,0,0,0,0,0,0,0,0,0,0,0,0,0,0,0,0,0,0,0,0,0,0,0,0,0,0,0,0,0,0,0,0,0,0,0,0,425,425,0,0,0,0,0,0,0,0,0,0,0,0,0,0,0,0,0,0,0,0,0,0,0,0,0,0,0,0,0,0,0,0,0,0,0,0,0,0,0,0,0,0,0,0,0,0,0,0,0,0,0,0,0,0,0,0,0,0,0,0,0,423,425,425,423,0,0,0,0,0,0,0,0,0,0,0,0,0,0,0,0,0,0,0,0,0,0,0,0,0,0,0,0,0,0,0,0,0,0,0,0,0,0,0,0,0,0,0,0,0,0,0,0,0,0,0,0,0,0,0,0,0,0,0,0,0,425,425,0,0,0,0,0,0,0,0,0,0,0,0,0,0,0,0,0,0,0,0,0,0,0,0,0,0,0,0,0,0,0,0,0,0,0,0,0,0,0,0,0,0,0,0,0,0,0,0,0,0,0,0,0,0,0,0,0,0,0,0,0,423,425,425,423,0,0,0,0,0,0,0,0,0,0,0,0,0,0,0,0,0,0,0,0,0,0,0,0,0,0,0,0,0,0,0,0,0,0,0,0,0,0,0,0,0,0,0,0,0,0,0,0,0,0,0,0,0,0,0,0,0,0,0,0,0,425,425,0,0,0,0,0,0,0,0,0,0,0,0,0,0,0,0,0,0,0,0,0,0,0,0,0,0,0,0,0,0,0,0,0,0,0,0,0,0,0,0,0,0,0,0,0,0,0,0,0,0,0,0,0,0,0,0,0,0,0,0,0,423,425,425,423,0,0,0,0,0,0,0,0,0,0,0,0,0,0,0,0,0,0,0,0,0,0,0,0,0,0,0,0,0,0,0,0,0,0,0,0,0,0,0,0,0,0,0,0,0,0,0,0,0,0,0,0,0,0,0,0,0,0,0,0,0,425,425,0,0,0,0,0,0,0,0,0,0,0,0,0,0,0,0,0,0,0,0,0,0,0,0,0,0,0,0,0,0,0,0,0,0,0,0,0,0,0,0,0,0,0,0,0,0,0,0,0,0,0,0,0,0,0,0,0,0,0,0,0,0,425,425,0,0,0,0,0,0,0,0,0,0,0,0,0,0,0,0,0,0,0,0,0,0,0,0,0,0,0,0,0,0,0,0,0,0,0,0,0,0,0,0,0,0,0,0,0,0,0,0,0,0,0,0,0,0,0,0,0,0,0,1912,0,0,425,425,0,0,0,436,437,0,0,0,0,0,0,0,0,0,0,0,0,0,0,0,0,0,0,0,0,0,0,0,0,0,0,0,0,0,0,0,0,0,0,0,0,0,0,0,0,0,0,0,0,0,0,0,0,0,0,0,0,0,0,1976,0,0,425,425,0,0,0,500,501,0,0,0,0,0,1398,1399,0,0,0,0,0,0,0,0,0,0,0,0,0,0,0,0,0,0,0,0,0,0,0,0,0,0,0,0,0,0,0,0,0,0,0,436,437,0,0,0,0,0,0,0,0,0,0,0,0,0,425,425,0,0,0,564,565,0,0,0,0,0,1462,1463,0,0,0,0,0,0,0,0,0,0,0,0,0,0,0,0,0,0,0,0,0,0,0,0,0,0,0,0,0,0,0,0,0,0,0,500,501,114,115,0,0,0,0,0,436,437,0,0,0,0,425,425,0,0,0,0,0,0,0,0,0,0,0,0,0,0,0,0,0,0,0,0,0,0,0,0,0,0,0,0,0,0,0,0,0,0,0,0,0,0,0,0,0,0,0,0,0,0,0,564,565,178,179,0,0,1398,1399,0,500,501,0,0,0,0,425,425,0,0,0,0,114,115,0,0,0,0,0,0,0,0,0,0,0,0,0,0,0,0,0,0,0,0,0,0,0,0,0,0,0,0,0,0,0,0,0,0,0,0,0,0,0,0,0,0,0,0,114,115,0,1462,1463,0,564,565,0,0,0,0,425,425,0,0,0,0,178,179,0,0,0,0,0,0,0,0,436,437,0,0,0,0,0,0,0,0,0,0,0,0,0,0,0,0,0,0,0,0,0,0,0,0,0,0,0,0,0,0,0,0,0,0,178,179,0,0,0,0,0,0,0,0,114,115,0,0,0,0,0,0,0,0,0,0,0,0,0,0,0,0,500,501,0,0,0,0,0,0,0,0,0,0,0,0,0,0,0,0,0,0,0,0,0,0,0,0,0,0,0,0,0,0,0,0,0,0,0,0,0,0,2133,2134,2134,2134,2133,0,178,179,0,0,0,0,0,0,0,0,0,0,0,0,0,0,0,0,564,565,0,0,0,0,0,0,0,0,0,0,0,0,0,0,0,0,0,0,0,0,0,0,0,0,0,0,0,0,0,0,0,0,0,0,0,0,0,0,2262,2262,2262,2262,2262,0,0,0,0,0,0,0,0,0,0,114,115,0,0,0,0,0,0,0,0,0,0,0,0,0,0,0,0,0,0,0,0,0,0,0,0,0,0,0,0,0,0,0,0,0,0,0,0,0,0,0,0,0,114,115,0,0,0,0,2262,2262,2262,2262,2262,0,0,0,0,0,0,0,0,0,0,178,179,0,0,0,0,0,0,0,0,0,0,0,0,0,0,0,0,0,0,0,0,0,0,0,0,0,0,0,0,0,0,0,0,0,0,0,0,0,0,0,0,0,178,179,0,0,0,0,2328,2328,2328,2328,2328,0,114,115,0,0,0,0,0,0,0,0,0,0,0,0,0,0,0,0,0,0,0,0,0,0,0,0,0,0,0,0,0,0,0,0,0,0,0,0,0,0,0,0,0,0,0,0,0,0,0,0,0,0,0,0,0,0,0,0,2393,2393,2390,2393,2393,0,178,179,0,0,0,0,0,0,0,0,0,0,1621,1622,1622,1622,1621,0,0,0,0,0,0,0,0,0,0,0,0,0,0,0,0,0,0,0,0,0,0,0,0,0,0,1398,1399,0,0,0,0,0,0,114,115,0,0,0,0,0,2526,2527,2527,2527,2528,0,0,0,0,0,0,0,0,0,0,0,0,0,1750,1750,1750,1750,1750,0,0,0,0,0,0,0,0,0,0,0,0,0,0,0,0,0,0,0,0,0,0,0,0,0,0,1462,1463,0,0,0,0,0,0,178,179,0,0,0,0,0,0,0,0,0,0,0,0,0,0,0,0,0,0,1912,0,114,115,0,1750,1750,1750,1750,1750,0,0,0,0,0,0,0,0,0,436,437,0,0,0,0,0,0,0,0,0,0,0,0,0,0,0,0,0,0,0,0,0,0,0,0,0,0,114,115,0,0,0,0,0,0,0,0,0,0,0,0,0,0,0,1976,0,178,179,0,1816,1816,1816,1816,1816,0,0,0,0,0,1398,1399,0,0,500,501,0,0,0,0,0,0,0,0,0,0,0,0,0,0,0,0,0,0,0,0,0,0,0,0,0,0,178,179,0,1906,1907,0,0,0,0,0,114,115,0,0,0,0,0,0,0,0,0,0,1881,1881,1878,1881,1881,0,0,0,0,0,1462,1463,0,0,564,565,0,0,0,0,0,0,0,0,0,0,0,0,0,0,0,0,0,0,0,0,0,0,0,0,0,0,0,0,0,1970,1971,0,114,115,0,0,178,179,0,0,0,0,0,0,0,0,0,0,2014,2015,2015,2015,2016,0,0,0,0,0,0,0,0,0,0,0,0,0,0,0,0,0,0,0,0,0,0,0,0,0,0,0,0,0,0,0,0,0,0,0,0,0,0,0,0,0,0,0,178,179,0,0,0,0,0,0,0,0,0,0,0,0,0,0,0,0,0,0,0,0,0,114,115,0,0,0,1912,0,0,0,0,0,0,0,0,0,0,0,0,0,0,0,0,0,0,0,0,0,0,0,0,0,0,0,0,0,0,0,0,0,0,0,0,0,0,0,0,0,0,0,0,0,436,437,436,437,0,0,0,0,0,0,0,0,0,178,179,0,0,0,1976,0,0,0,0,0,0,0,0,0,0,0,0,0,0,0,0,0,0,0,0,0,0,0,0,0,0,0,0,0,0,0,0,0,1109,1110,1110,1110,1109,0,0,0,0,0,0,0,500,501,500,501,114,115,0,0,114,115,0,0,0,0,0,0,0,0,0,0,114,115,0,0,0,0,0,0,0,0,0,0,0,0,0,0,0,0,0,436,437,0,0,597,598,598,598,597,0,0,0,0,1238,1238,1238,1238,1238,0,114,115,0,0,0,0,564,565,564,565,178,179,0,0,178,179,0,597,598,598,598,597,0,114,115,0,178,179,0,0,0,0,0,0,0,0,0,0,0,0,0,0,0,0,0,500,501,0,0,726,726,726,726,726,0,1398,1399,0,1238,1238,1238,1238,1238,0,178,179,0,0,0,0,436,437,0,0,0,0,0,0,0,0,0,726,726,726,726,726,0,178,179,0,0,0,0,0,0,0,0,0,0,0,0,0,0,0,0,0,0,0,0,564,565,0,0,726,726,726,726,726,0,1462,1463,0,1304,1304,1304,1304,1304,0,0,0,0,0,0,0,500,501,114,115,114,115,0,0,1906,1907,0,726,726,726,726,726,0,0,0,0,0,0,0,0,0,0,0,0,0,0,0,0,0,0,0,0,0,0,0,0,0,0,0,792,792,792,792,792,0,0,0,0,1369,1369,1366,1369,1369,0,0,0,0,0,436,437,564,565,178,179,178,179,0,0,1970,1971,0,792,792,792,792,792,0,0,0,0,0,1912,0,0,0,0,0,0,0,0,0,0,0,0,0,0,0,0,0,0,0,0,0,857,857,854,857,857,0,0,0,0,1502,1503,1503,1503,1504,0,0,0,0,0,500,501,0,0,114,115,0,114,115,0,0,0,0,857,857,854,857,857,0,0,1906,1907,0,1976,0,0,0,0,0,0,0,0,0,0,0,0,0,0,0,0,0,0,0,0,0,990,991,991,991,992,0,0,0,0,0,0,0,0,0,0,0,0,0,0,564,565,0,0,178,179,0,178,179,0,0,0,0,990,991,991,991,992,0,0,1970,1971,0,0,0,0,0,0,0,0,0,0,0,0,0,0,0,0,0,0,0,0,436,437,0,0,0,0,0,0,0,0,0,0,0,0,0,0,0,0,0,0,0,0,0,0,0,0,0,0,0,0,0,0,0,0,0,0,0,0,0,0,0,0,0,0,0,0,0,0,0,0,0,0,0,0,0,0,0,0,0,0,0,0,0,0,500,501,0,0,0,0,0,0,0,0,0,0,0,0,0,0,0,0,0,0,0,0,0,0,0,0,0,0,0,0,0,0,0,0,0,0,0,0,0,0,0,1906,1907,0,0,0,0,0,0,0,0,0,0,0,0,0,0,0,0,0,0,0,0,0,564,565,0,0,0,0,114,115,0,1906,1907,0,114,115,0,0,0,0,0,0,0,0,0,0,0,0,0,1906,1907,0,0,0,0,0,0,0,0,0,0,0,0,1970,1971,0,0,0,0,0,0,0,0,0,0,0,0,0,0,0,0,0,0,0,0,0,0,0,0,0,0,0,178,179,0,1970,1971,0,178,179,0,1908,1909,0,2645,2646,2646,2646,2645,0,0,0,0,1970,1971,0,0,0,0,0,0,0,0,0,0,0,0,0,0,0,0,0,0,0,0,0,0,0,0,0,0,0,0,0,0,0,0,0,0,0,0,0,0,0,0,0,0,0,0,0,0,0,0,0,0,1972,1973,0,2774,2774,2774,2774,2774,0,0,0,0,0,0,0,0,114,115,0,0,0,0,0,0,0,0,0,0,0,0,0,0,0,0,0,0,0,0,0,0,0,0,0,0,0,0,0,0,0,0,0,0,0,0,0,0,0,0,0,114,115,0,0,0,0,0,0,2774,2774,2774,2774,2774,0,0,0,0,0,0,0,0,178,179,0,0,0,0,0,0,0,114,115,0,0,0,0,0,0,0,0,0,0,0,0,0,0,0,0,0,0,0,0,0,0,0,0,0,0,0,0,0,0,0,0,178,179,0,0,0,0,0,0,2840,2840,2840,2840,2840,0,0,0,0,0,0,0,0,0,0,0,0,0,0,0,0,0,178,179,0,0,0,0,0,0,0,0,0,0,0,0,0,0,0,0,0,0,0,0,0,0,0,0,0,0,0,436,437,0,0,0,0,0,0,0,0,0,0,0,2905,2905,2902,2905,2905,0,0,0,0,0,0,0,0,0,0,0,0,0,0,0,0,0,0,0,0,0,0,0,0,0,0,0,0,0,0,0,0,0,0,0,0,0,0,0,0,0,0,0,0,0,0,500,501,0,0,1912,0,0,0,0,0,0,0,0,3038,3039,3039,3039,3040,0,0,0,0,0,0,114,115,0,0,0,0,0,0,0,0,0,0,0,0,0,0,0,0,0,0,0,0,0,0,0,0,0,0,0,0,0,0,0,0,0,0,0,0,0,0,564,565,0,0,1976,0,0,0,0,0,0,0,0,0,0,0,0,0,0,0,0,0,0,0,178,179,0,0,0,0,0,0,0,0,0,0,0,0,0,0,0,0,0,0,0,0,0,0,0,0,0,0,0,0,0,0,0,0,0,0,0,0,0,0,0,0,0,0,0,0,0,0,0,0,114,115,0,0,0,0,0,0,0,0,0,0,0,0,0,0,0,0,0,0,0,0,0,0,0,0,0,0,0,0,0,0,0,0,0,0,0,0,0,0,0,0,0,0,0,0,0,0,0,0,0,0,0,0,0,0,0,0,0,0,0,0,0,0,178,179,0,0,0,0,0,0,0,0,0,0,0,0,0,0,0,0,0,0,0,0,0,0,0,0,0,0,0,0,0,0,0,0,0,0,0,0,0,0,0,0,0,0,0,0,0,0,0,0,0,0,0,0,0,0,0,0,0,0,0,0,0,0,0,0,0,0,0,0,0,0,0,0,0,0,0,0,0,0,0,0,0,0,0,0,0,0,0,0,0,0,0,0,0,0,0,0,0,0,0,0,0,0,0,0,0,0,0,0,0,0,0,0,0,0,0,0,0,0,0,0,0,0,0,0,0,0,0,0,0,0,0,0,0,0,0,0,0,0,0,0,0,0,0,0,0,0,0,0,0,0,0,0,0,0,0,0,0,0,0,0,0,0,0,0,0,0,0,0,0,0,0,0,0,0,0,0,0,0,0,0,0,0,0,0,0,0,0,0,0,0,0,0,0,0,0,0,0,0,0,0,0,0,0,0,0,0,0,0,0,0,0,0,0,0,0,0,0,0,0,0,0,0,0,0,0,0,0,0,0,0,0,0,0,0,0,0,0,0,0,0,0,0,0,0,0,0,0,0,0,0,0,0,0,0,0,0,0,0,0,0,0,0,0,0,0,0,0,0,0,0,0,0,0,0,0,0,0,0,0,0,0,0,0,0,0,0,0,0,0,0,0,0,0,0,0,0,0,0,0,0,0,0,0,0,0,0,0,0,0,0,0,0,0,0,0,0,0,0,0,0,0,0,0,0,0,0,0,0,0,0,0,0,0,0,0,0,0,0,0,0,0,0,0,0,0,0,0,0,0,0,0,0,0,0,0,0,0,0,0,0,0,0,0,0,0,0,0,0,0,0,0,0,0,0,0,0,0,0,0,0,0,0,0,0,0,0,0,0,0,0,0,0,0,0,0,0,0,0,0,0,0,0,0,0,0,0,0,0,0,0,0,0,0,0,0,0,0,0,0,0,0,0,0,0,0,0,0,0,0,0,0,0,0,0,0,0,0,0,0,0,0,0,0,0,0,0,0,0,0,0,0,0,0,0,0,0,0,0,0,0,0,0,0,0,0,0,0,0,0,0,0,0,0,0,0,0,0,0,0,0,0,0,0,0]},{"id":6,"name":"walls","type":"tilelayer","width":64,"height":150,"x":0,"y":0,"opacity":1,"visible":false,"data":[1164,1164,1164,1164,1164,1164,1164,1164,1164,1164,1164,1164,1164,1164,1164,1164,1164,1164,1164,1164,1164,1164,1164,1164,1164,1164,1164,1164,1164,1164,1164,1164,1164,1164,1164,1164,1164,1164,1164,1164,1164,1164,1164,1164,1164,1164,1164,1164,1164,1164,1164,1164,1164,1164,1164,1164,1164,1164,1164,1164,1164,1164,1164,1164,1164,1164,1164,1164,1164,1164,1164,1164,1164,1164,1164,1164,1164,1164,1164,1164,1164,1164,1164,1164,1164,1164,1164,1164,1164,1164,1164,1164,1164,1164,1164,1164,1164,1164,1164,1164,1164,1164,1164,1164,1164,1164,1164,1164,1164,1164,1164,1164,1164,1164,1164,1164,1164,1164,1164,1164,1164,1164,1164,1164,1164,1164,1164,1164,1164,1164,1164,1164,1164,1164,1164,1164,1164,1164,1164,1164,1164,1164,1164,1164,1164,1164,1164,1164,1164,1164,1164,1164,1164,1164,1164,1164,1164,1164,1164,1164,1164,1164,1164,1164,1164,1164,1164,1164,1164,1164,1164,1164,1164,1164,1164,1164,1164,1164,1164,1164,1164,1164,1164,1164,1164,1164,1164,1164,1164,1164,1164,1164,1164,1164,1164,1164,1164,1164,1164,1164,1164,1164,1164,1164,1164,1164,1164,1164,1164,1164,1164,1164,1164,1164,1164,1164,1164,1164,1164,1164,1164,1164,1164,1164,1164,1164,1164,1164,1164,1164,1164,1164,1164,1164,1164,1164,1164,1164,1164,1164,1164,1164,1164,1164,1164,1164,1164,1164,1164,1164,1164,1164,1164,1164,1164,1164,1164,1164,1164,1164,1164,1164,1164,1164,1164,1164,1164,1164,1164,1164,1164,1164,1164,1164,1164,1164,1164,1164,1164,1164,1164,1164,1164,1164,1164,1164,1164,1164,1164,1164,1164,1164,1164,1164,1164,1164,1164,1164,1164,1164,1164,1164,1164,1164,1164,1164,1164,1164,1164,1164,1164,1164,1164,1164,1164,1164,1164,1164,1164,1164,1164,1164,1164,1164,1164,1164,1164,1164,1164,1164,1164,1164,1164,1164,1164,1164,1164,1164,1164,0,0,1164,1164,1164,1164,1164,0,0,0,0,0,1164,1164,1164,1164,1164,1164,1164,1164,1164,1164,1164,1164,1164,1164,1164,1164,1164,1164,1164,1164,1164,1164,1164,1164,1164,1164,1164,1164,1164,1164,1164,1164,1164,1164,1164,1164,1164,1164,1164,1164,1164,1164,1164,1164,1164,1164,1164,1164,1164,1164,1164,0,0,0,0,1164,1164,0,0,0,0,0,0,0,0,0,0,0,0,0,0,0,1164,1164,1164,1164,1164,1164,1164,1164,1164,1164,1164,1164,1164,1164,1164,1164,1164,1164,1164,1164,1164,1164,1164,1164,1164,1164,1164,1164,1164,1164,1164,1164,1164,1164,1164,1164,1164,1164,1164,1164,1164,1164,1164,0,0,0,0,0,0,0,0,0,0,0,0,0,0,0,0,0,0,0,0,0,0,1164,1164,1164,1164,1164,1164,1164,1164,1164,1164,1164,1164,1164,1164,1164,1164,1164,1164,1164,1164,1164,1164,1164,1164,1164,1164,1164,1164,1164,1164,1164,1164,1164,1164,1164,1164,1164,1164,1164,1164,1164,1164,0,0,0,0,0,0,0,0,0,0,0,0,0,0,0,0,0,0,0,0,0,0,0,0,0,0,0,0,0,1164,1164,1164,1164,1164,1164,1164,1164,1164,1164,1164,1164,1164,1164,1164,1164,1164,1164,1164,1164,1164,1164,1164,1164,1164,1164,1164,1164,1164,1164,1164,1164,1164,1164,0,0,0,0,0,0,0,0,0,0,1164,1164,0,0,0,0,0,0,0,0,0,0,0,0,0,0,0,0,0,0,0,1164,1164,1164,1164,1164,1164,1164,1164,1164,1164,1164,1164,1164,1164,1164,1164,1164,1164,1164,1164,1164,1164,1164,1164,1164,1164,1164,1164,1164,1164,1164,1164,0,0,0,0,1164,0,0,0,0,0,0,0,0,0,0,0,0,0,0,0,1164,1164,0,0,0,0,0,0,0,0,0,0,0,1164,1164,1164,1164,1164,1164,1164,1164,1164,1164,1164,1164,1164,1164,1164,1164,1164,1164,1164,1164,1164,1164,1164,1164,1164,1164,1164,1164,1164,1164,0,0,0,0,0,0,0,1164,1164,0,0,0,0,0,0,0,0,0,0,0,0,0,0,0,0,0,0,0,0,0,0,0,0,0,0,0,0,0,0,1164,1164,1164,1164,1164,1164,1164,1164,1164,1164,1164,1164,1164,1164,1164,1164,1164,1164,1164,0,1164,1164,1164,0,0,0,0,0,0,0,0,0,0,0,0,0,0,0,0,0,0,0,0,0,0,0,0,0,0,0,1164,1164,0,0,1164,1164,0,0,0,0,0,0,0,0,0,1164,1164,1164,1164,1164,1164,1164,1164,1164,1164,1164,1164,1164,1164,1164,1164,1164,0,0,0,0,0,0,0,0,0,0,0,0,0,0,0,0,0,0,0,0,0,0,0,0,0,0,0,0,0,0,0,0,0,0,0,0,0,0,0,0,0,0,0,0,0,0,0,1164,1164,1164,1164,1164,1164,1164,1164,1164,1164,1164,1164,1164,1164,1164,1164,1164,0,0,0,0,0,0,0,0,0,0,0,0,0,0,0,0,0,0,0,0,1164,1164,0,0,0,0,1164,1164,1164,1164,1164,0,0,0,0,0,0,0,0,0,0,0,0,0,0,0,0,0,1164,1164,1164,1164,1164,1164,1164,1164,1164,1164,1164,1164,1164,1164,1164,1164,0,0,0,0,0,0,0,0,0,0,0,0,0,1164,1164,1164,1164,1164,0,0,0,0,0,0,0,0,1164,1164,1164,1164,1164,0,0,0,0,0,0,0,0,1164,1164,0,1164,1164,0,0,0,0,1164,1164,1164,1164,1164,1164,1164,1164,1164,1164,1164,1164,1164,1164,1164,1164,1164,1164,1164,0,0,0,1164,1164,0,1164,1164,0,0,1164,1164,1164,1164,1164,0,0,0,0,0,0,0,0,1164,1164,1164,1164,1164,0,1164,0,0,0,0,0,0,0,0,0,0,0,0,0,0,1164,1164,1164,1164,1164,1164,1164,1164,1164,1164,1164,1164,1164,1164,1164,1164,1164,1164,1164,1164,0,0,0,0,0,0,0,0,0,0,1164,1164,1164,1164,1164,0,0,1164,0,0,0,0,0,1164,1164,1164,1164,1164,0,0,0,0,1164,1164,1164,1164,0,0,0,0,0,0,0,0,1164,1164,1164,1164,1164,1164,1164,1164,1164,1164,1164,1164,1164,1164,1164,1164,1164,1164,1164,1164,0,0,0,0,0,0,0,0,0,0,1164,1164,1164,1164,1164,0,0,0,0,0,0,0,0,0,0,0,0,0,0,0,0,0,1164,1164,1164,1164,0,1164,1164,0,0,0,0,0,1164,1164,1164,1164,1164,1164,1164,1164,1164,1164,1164,1164,1164,1164,1164,0,0,0,1164,0,0,0,0,0,0,0,0,0,0,0,0,0,0,0,0,0,0,0,0,0,0,0,0,0,0,0,0,0,0,0,0,0,0,0,0,0,0,0,0,0,1164,1164,0,0,1164,1164,1164,1164,1164,1164,1164,1164,1164,1164,1164,1164,1164,1164,0,0,0,0,0,0,0,0,0,0,0,0,0,0,1164,1164,0,0,0,0,0,0,0,0,0,0,0,0,0,0,0,0,0,0,0,0,0,0,0,0,0,0,0,0,0,0,0,0,0,0,1164,1164,1164,1164,1164,1164,1164,1164,1164,1164,1164,1164,1164,0,0,0,0,0,0,0,0,0,0,0,0,0,0,0,0,0,1164,1164,0,1164,1164,0,0,0,0,0,0,0,0,0,0,0,0,0,0,0,0,0,0,0,0,0,0,0,0,0,0,0,0,0,0,0,0,0,1164,1164,1164,1164,1164,1164,1164,1164,1164,0,0,0,0,0,0,0,0,0,0,0,0,0,0,0,0,0,0,0,0,0,0,0,0,0,0,0,0,0,0,0,0,0,0,0,0,0,0,0,0,0,0,0,0,0,0,0,0,0,0,0,0,0,0,0,0,1164,1164,1164,1164,1164,1164,1164,1164,0,0,0,0,0,0,0,0,0,0,0,0,0,0,0,1164,1164,0,0,0,0,0,1164,1164,0,0,0,0,0,0,0,0,0,1164,1164,1164,1164,1164,0,1164,1164,0,0,0,0,0,0,0,0,0,0,0,0,0,0,0,1164,1164,1164,1164,1164,1164,1164,1164,0,0,0,0,1164,1164,0,0,1164,1164,1164,1164,1164,0,0,0,0,1164,1164,0,0,0,0,0,0,0,0,0,0,0,0,0,0,1164,1164,1164,1164,1164,0,0,0,0,1164,1164,1164,1164,1164,0,0,0,0,0,0,0,0,0,0,1164,1164,1164,1164,1164,1164,1164,0,0,0,0,0,0,0,0,1164,1164,1164,1164,1164,0,0,1164,1164,0,0,1164,1164,0,0,0,0,0,0,0,0,0,0,0,0,1164,1164,1164,1164,1164,0,0,0,0,1164,1164,1164,1164,1164,0,0,0,0,0,0,0,0,0,0,1164,1164,1164,1164,1164,1164,1164,1164,0,0,0,0,0,0,0,1164,1164,1164,1164,1164,0,0,0,0,1164,1164,0,0,1164,1164,1164,1164,1164,0,0,0,0,0,0,0,1164,1164,1164,1164,1164,0,0,0,0,1164,1164,1164,1164,1164,0,0,0,0,0,0,0,0,0,0,1164,1164,1164,1164,1164,1164,1164,1164,1164,1164,1164,1164,0,0,0,1164,1164,1164,1164,1164,0,0,0,0,0,0,0,0,1164,1164,1164,1164,1164,0,0,0,0,0,0,0,0,0,0,0,0,0,0,0,0,1164,1164,1164,1164,1164,0,0,0,0,0,0,0,0,0,1164,1164,1164,1164,1164,1164,1164,1164,1164,1164,1164,1164,1164,0,0,0,0,0,0,0,0,0,0,0,0,0,0,0,0,1164,1164,1164,1164,1164,0,0,0,0,0,0,0,0,0,0,0,0,0,0,0,0,0,0,0,0,0,0,0,0,0,0,0,0,0,0,1164,1164,1164,1164,1164,1164,1164,1164,1164,1164,1164,1164,1164,0,0,0,0,0,0,0,0,0,0,0,0,0,0,0,0,1164,1164,1164,1164,1164,0,0,0,0,0,0,0,0,0,0,0,0,0,0,0,0,0,0,0,0,0,0,0,0,0,0,0,0,0,1164,1164,1164,1164,1164,1164,1164,1164,1164,1164,1164,1164,1164,0,0,0,0,0,0,0,0,0,0,0,0,0,0,0,0,0,0,0,0,0,0,0,0,0,0,0,0,0,0,0,0,0,0,0,0,0,0,0,0,0,0,0,0,0,0,1164,1164,0,0,1164,1164,1164,1164,1164,1164,1164,1164,1164,1164,1164,1164,1164,1164,0,0,0,0,0,0,0,0,1164,0,0,0,0,1164,1164,0,0,0,0,0,0,0,0,0,0,0,0,0,0,0,0,0,0,0,0,0,0,0,0,0,0,0,1164,1164,0,0,0,0,0,0,1164,1164,1164,1164,1164,1164,1164,1164,1164,1164,1164,1164,1164,0,0,0,0,0,0,0,0,0,0,0,0,0,0,0,0,0,1164,1164,0,0,0,0,0,0,0,0,0,0,0,0,0,0,0,0,0,0,0,0,0,0,0,0,0,0,0,0,0,0,0,0,1164,1164,1164,1164,1164,1164,1164,1164,1164,1164,1164,1164,1164,0,0,0,0,0,0,0,0,0,0,0,0,0,0,0,0,0,0,0,0,0,0,0,0,0,0,0,0,0,0,0,0,0,0,1164,1164,1164,1164,1164,0,1164,1164,0,0,0,0,0,0,0,0,0,1164,1164,1164,1164,1164,1164,1164,1164,1164,1164,1164,1164,1164,0,0,0,0,0,0,0,0,0,0,0,0,0,0,0,0,0,0,0,0,1164,1164,0,0,0,0,0,0,0,0,0,0,0,0,1164,1164,1164,1164,1164,0,0,0,0,0,0,0,0,0,0,0,0,1164,1164,1164,1164,1164,1164,1164,1164,1164,1164,1164,1164,1164,1164,0,1164,1164,0,0,0,0,0,0,0,1164,1164,1164,1164,1164,0,0,0,0,0,0,0,0,0,0,0,0,0,0,0,0,0,0,1164,1164,1164,1164,1164,0,0,0,0,1164,0,1164,1164,0,0,0,0,1164,1164,1164,1164,1164,1164,1164,1164,1164,1164,1164,1164,1164,1164,0,0,0,0,0,0,0,0,0,0,1164,1164,1164,1164,1164,0,0,0,0,0,0,0,0,0,0,0,0,0,0,0,0,0,0,1164,1164,1164,1164,1164,0,1164,1164,0,0,0,0,0,0,0,0,0,1164,1164,1164,1164,1164,1164,1164,1164,1164,1164,1164,1164,1164,1164,1164,0,1164,1164,1164,1164,0,1164,1164,0,1164,1164,1164,1164,1164,0,0,1164,1164,0,0,0,0,0,0,0,0,0,0,0,0,0,0,0,0,0,0,0,0,0,0,0,0,0,0,0,0,0,0,1164,1164,1164,1164,1164,1164,1164,1164,1164,1164,1164,1164,1164,1164,1164,1164,1164,0,0,0,0,0,0,0,0,1164,1164,1164,1164,1164,0,0,0,0,0,0,1164,1164,1164,1164,1164,0,0,0,0,0,0,0,0,0,0,0,0,0,0,0,0,0,0,0,0,0,0,1164,1164,1164,1164,1164,1164,1164,1164,1164,1164,1164,1164,1164,1164,1164,1164,1164,1164,1164,1164,1164,1164,1164,0,0,0,0,0,0,0,0,0,0,0,0,0,0,1164,1164,1164,1164,1164,0,0,0,0,0,0,0,0,0,0,0,0,0,0,0,1164,1164,1164,1164,1164,1164,1164,1164,1164,1164,1164,1164,1164,1164,1164,1164,1164,1164,1164,1164,1164,1164,1164,1164,1164,1164,1164,1164,1164,1164,0,0,0,0,0,0,0,0,0,0,0,0,0,0,1164,1164,0,0,1164,0,0,0,0,0,0,0,0,0,0,0,0,0,0,0,1164,1164,1164,1164,1164,1164,1164,1164,1164,1164,1164,1164,1164,1164,1164,1164,1164,1164,1164,1164,1164,1164,1164,1164,1164,1164,1164,1164,1164,1164,1164,0,0,0,0,0,0,0,0,0,0,0,0,0,1164,1164,0,0,1164,0,0,0,0,0,0,0,0,0,0,0,0,0,0,0,1164,1164,1164,1164,1164,1164,1164,1164,1164,1164,1164,1164,1164,1164,1164,1164,1164,1164,1164,1164,1164,1164,1164,1164,1164,1164,1164,1164,1164,1164,1164,0,0,0,0,0,0,0,0,0,1164,1164,0,0,0,0,0,0,0,0,0,1164,1164,0,0,1164,1164,0,0,0,1164,0,0,0,1164,1164,1164,1164,1164,1164,1164,1164,1164,1164,1164,1164,1164,1164,1164,1164,1164,1164,1164,1164,1164,1164,1164,1164,1164,1164,1164,1164,1164,1164,1164,0,0,0,0,1164,1164,1164,0,0,0,0,0,0,0,0,0,0,0,0,0,0,0,0,0,0,0,0,0,0,0,0,0,1164,1164,1164,1164,1164,1164,1164,1164,1164,1164,1164,1164,1164,1164,1164,1164,1164,1164,1164,1164,1164,1164,1164,1164,1164,1164,1164,1164,1164,1164,1164,1164,0,0,0,0,1164,1164,1164,0,0,0,0,0,0,0,0,0,0,0,0,0,0,0,0,0,0,0,0,0,0,0,0,1164,1164,1164,1164,1164,1164,1164,1164,1164,1164,1164,1164,1164,1164,1164,1164,1164,1164,1164,1164,1164,1164,1164,1164,1164,1164,1164,1164,1164,1164,1164,1164,1164,0,0,0,1164,1164,1164,1164,0,0,0,0,0,0,1164,1164,0,0,0,0,0,0,0,1164,1164,1164,0,0,0,0,0,1164,1164,1164,1164,1164,1164,1164,1164,1164,1164,1164,1164,1164,1164,1164,1164,1164,1164,1164,1164,1164,1164,1164,1164,1164,1164,1164,1164,1164,1164,1164,1164,1164,1164,1164,1164,1164,1164,1164,1164,1164,0,0,0,0,0,1164,1164,1164,0,0,0,0,0,1164,1164,1164,1164,1164,1164,1164,1164,1164,1164,1164,1164,1164,1164,1164,1164,1164,1164,1164,1164,1164,1164,1164,1164,1164,1164,1164,1164,1164,1164,1164,1164,1164,1164,1164,1164,1164,1164,1164,1164,1164,1164,1164,1164,1164,1164,1164,1164,1164,1164,1164,0,0,0,0,0,1164,1164,1164,0,0,0,0,1164,1164,1164,1164,1164,1164,1164,1164,1164,1164,1164,1164,1164,1164,1164,1164,1164,1164,1164,1164,1164,1164,1164,1164,1164,1164,1164,1164,1164,1164,1164,1164,1164,1164,1164,1164,1164,1164,1164,1164,1164,1164,1164,1164,1164,1164,1164,1164,1164,1164,1164,1164,1164,0,0,0,1164,1164,1164,1164,0,0,0,0,1164,1164,1164,1164,1164,1164,1164,1164,1164,1164,1164,1164,1164,1164,1164,1164,1164,1164,1164,1164,1164,1164,1164,1164,1164,1164,1164,1164,1164,1164,1164,1164,1164,1164,1164,1164,1164,1164,1164,1164,1164,1164,1164,1164,1164,1164,1164,1164,1164,1164,1164,1164,1164,1164,1164,1164,1164,1164,1164,1164,0,0,0,1164,1164,1164,1164,1164,1164,1164,1164,1164,1164,1164,1164,1164,1164,1164,1164,1164,1164,1164,1164,1164,1164,1164,1164,1164,1164,1164,1164,1164,1164,1164,1164,1164,1164,1164,1164,1164,1164,1164,1164,1164,1164,1164,1164,1164,1164,1164,1164,1164,1164,1164,1164,1164,1164,1164,1164,1164,1164,1164,1164,1164,0,0,1164,1164,1164,1164,1164,1164,1164,1164,1164,1164,1164,1164,1164,1164,1164,1164,1164,1164,1164,1164,1164,1164,1164,1164,1164,1164,1164,1164,1164,1164,1164,1164,1164,1164,1164,1164,1164,1164,1164,1164,1164,1164,1164,1164,1164,1164,1164,1164,1164,1164,1164,1164,1164,1164,1164,1164,1164,1164,1164,1164,1164,1164,0,0,1164,1164,1164,1164,1164,1164,1164,1164,1164,1164,1164,1164,1164,1164,1164,1164,1164,1164,1164,1164,1164,1164,1164,1164,1164,1164,1164,1164,1164,1164,1164,1164,1164,1164,1164,1164,1164,1164,1164,1164,1164,1164,1164,1164,1164,1164,1164,1164,1164,1164,1164,1164,1164,1164,1164,1164,1164,1164,1164,1164,1164,1164,0,0,1164,1164,1164,1164,1164,1164,1164,1164,1164,1164,1164,1164,1164,1164,1164,1164,1164,1164,1164,1164,1164,1164,1164,1164,1164,1164,1164,1164,1164,1164,1164,1164,1164,1164,1164,1164,1164,1164,1164,1164,1164,1164,1164,1164,1164,1164,1164,1164,1164,1164,1164,1164,1164,1164,1164,1164,1164,1164,1164,1164,1164,1164,0,0,1164,1164,1164,1164,1164,1164,1164,0,0,1164,1164,1164,1164,1164,1164,1164,1164,1164,1164,1164,1164,1164,1164,1164,1164,1164,1164,1164,1164,1164,1164,1164,1164,1164,1164,1164,1164,1164,1164,1164,1164,1164,1164,1164,1164,1164,1164,1164,1164,1164,1164,1164,1164,1164,1164,1164,1164,1164,1164,1164,1164,1164,0,0,1164,1164,1164,1164,1164,1164,0,0,0,0,1164,1164,1164,1164,1164,1164,1164,1164,1164,1164,1164,1164,1164,1164,1164,1164,1164,1164,1164,1164,1164,1164,1164,1164,1164,1164,1164,1164,1164,1164,1164,1164,1164,1164,1164,1164,1164,1164,1164,1164,1164,1164,1164,0,0,0,1164,1164,1164,1164,1164,0,0,0,0,1164,1164,1164,1164,1164,0,0,0,0,1164,1164,1164,1164,1164,1164,1164,1164,1164,1164,1164,1164,1164,1164,1164,1164,1164,1164,1164,1164,1164,1164,1164,1164,1164,1164,1164,1164,1164,1164,1164,1164,1164,1164,1164,1164,1164,1164,1164,1164,1164,0,0,0,0,0,0,0,1164,0,0,0,0,0,0,0,1164,1164,1164,0,0,0,0,0,1164,1164,1164,1164,1164,1164,1164,1164,1164,1164,1164,1164,1164,1164,1164,1164,1164,1164,1164,1164,1164,1164,1164,1164,1164,1164,1164,1164,1164,1164,1164,1164,1164,1164,1164,1164,1164,1164,1164,0,0,0,0,0,0,0,0,0,0,0,0,0,0,0,0,0,0,0,0,0,0,0,0,0,1164,1164,1164,1164,1164,1164,1164,1164,1164,1164,1164,1164,1164,1164,1164,1164,1164,1164,1164,1164,1164,1164,1164,1164,1164,1164,1164,1164,1164,1164,1164,1164,1164,1164,1164,1164,1164,1164,0,0,0,0,0,0,0,0,0,0,0,0,0,0,0,0,0,0,0,0,0,0,0,0,0,0,1164,1164,1164,1164,1164,0,1164,1164,1164,1164,1164,1164,1164,1164,1164,1164,1164,1164,1164,1164,1164,1164,1164,1164,1164,1164,1164,1164,1164,1164,1164,1164,1164,1164,1164,1164,1164,1164,0,0,0,0,0,0,0,1164,1164,0,0,0,0,0,0,0,0,0,0,0,0,0,0,0,0,0,0,1164,0,0,0,0,0,1164,1164,1164,1164,1164,1164,1164,1164,1164,1164,1164,1164,1164,1164,1164,1164,1164,1164,1164,1164,1164,1164,1164,1164,1164,1164,1164,1164,1164,1164,1164,0,0,0,0,0,0,0,0,0,0,1164,1164,0,0,0,0,0,0,0,1164,1164,0,1164,1164,0,0,0,0,0,0,0,0,0,1164,1164,1164,1164,1164,1164,1164,1164,1164,1164,1164,1164,1164,1164,1164,1164,1164,1164,1164,1164,1164,1164,1164,1164,1164,1164,0,0,0,1164,1164,0,0,0,0,0,0,0,0,0,0,0,0,0,0,0,0,0,0,0,0,0,0,0,0,0,0,0,0,0,0,0,0,0,0,1164,1164,1164,1164,1164,1164,1164,1164,1164,1164,1164,1164,1164,1164,1164,1164,1164,1164,1164,1164,1164,1164,1164,1164,0,0,0,0,0,0,0,0,0,0,0,0,0,0,0,0,0,0,0,0,0,0,0,0,0,0,0,0,0,0,0,0,0,0,0,0,0,0,0,0,0,1164,1164,1164,1164,1164,1164,1164,1164,1164,1164,1164,1164,1164,1164,1164,1164,1164,1164,1164,1164,1164,0,0,0,0,0,0,0,0,0,0,0,0,0,0,0,0,0,0,0,0,0,0,0,0,0,0,0,0,0,0,0,0,0,0,0,0,0,0,0,0,0,0,0,0,0,0,0,1164,1164,1164,1164,1164,1164,1164,1164,1164,1164,1164,1164,1164,1164,1164,1164,0,0,0,0,0,0,0,0,0,0,0,0,0,0,0,0,1164,1164,1164,1164,1164,0,0,0,0,0,0,0,0,0,0,0,0,0,0,0,0,0,0,0,0,0,0,0,0,0,0,0,0,1164,1164,1164,1164,1164,1164,1164,1164,1164,1164,1164,1164,1164,1164,1164,0,0,0,0,1164,1164,0,0,0,0,0,0,0,0,0,0,1164,1164,1164,1164,1164,0,0,0,0,0,1164,1164,1164,1164,1164,0,0,0,0,1164,1164,1164,1164,1164,0,0,0,0,0,0,0,0,0,0,1164,1164,1164,1164,1164,1164,1164,1164,1164,1164,1164,1164,1164,1164,0,0,0,0,0,0,0,0,0,1164,1164,1164,1164,0,0,0,1164,1164,1164,1164,1164,0,0,0,0,0,1164,1164,1164,1164,1164,0,0,0,0,1164,1164,1164,1164,1164,0,0,0,0,0,0,0,0,0,0,1164,1164,1164,1164,1164,1164,1164,1164,1164,1164,1164,1164,1164,1164,0,0,0,0,0,0,0,0,0,1164,1164,1164,1164,0,0,0,1164,1164,1164,1164,1164,0,0,0,0,0,1164,1164,1164,1164,1164,0,1164,1164,0,1164,1164,1164,1164,1164,0,0,0,0,0,0,0,0,0,0,0,1164,1164,1164,1164,1164,1164,1164,1164,1164,1164,1164,1164,1164,0,0,0,0,0,0,0,0,0,0,0,0,0,0,0,0,0,0,0,0,0,0,0,0,0,0,1164,1164,1164,1164,1164,0,0,0,0,1164,1164,1164,1164,1164,0,0,0,0,0,0,0,0,0,0,0,1164,1164,1164,1164,1164,1164,1164,1164,1164,1164,1164,1164,1164,0,0,0,0,0,0,0,0,0,0,0,0,0,0,0,0,0,0,0,0,0,0,0,0,0,0,0,0,0,0,0,0,0,0,0,0,0,0,0,0,0,0,0,0,0,0,0,0,0,0,1164,1164,1164,1164,1164,1164,1164,1164,1164,1164,1164,1164,1164,0,0,0,0,0,0,0,0,0,0,0,1164,1164,0,0,0,0,0,0,0,0,0,0,0,0,0,0,0,0,0,0,0,0,0,0,0,0,0,0,0,0,0,0,0,0,0,0,0,0,0,0,1164,1164,1164,1164,1164,1164,1164,1164,1164,1164,1164,1164,1164,0,0,0,0,0,0,0,0,0,0,0,0,0,0,0,0,0,0,0,0,0,0,0,0,0,0,0,0,0,0,0,0,0,0,0,0,0,0,0,0,0,0,0,0,0,0,1164,1164,0,0,1164,1164,1164,1164,1164,1164,1164,1164,1164,1164,1164,1164,1164,0,0,0,0,0,0,0,0,0,0,0,0,0,0,0,0,0,0,0,0,0,0,0,0,0,0,0,0,0,0,0,0,0,0,0,1164,1164,1164,1164,0,0,0,0,0,0,0,0,0,0,0,0,1164,1164,1164,1164,1164,1164,1164,1164,1164,1164,1164,1164,0,0,0,0,0,0,0,0,0,0,0,0,0,0,0,1164,1164,0,0,1164,1164,1164,1164,1164,0,0,0,0,0,0,0,1164,1164,1164,1164,1164,1164,1164,1164,1164,1164,1164,0,0,0,1164,1164,0,0,0,0,0,1164,1164,1164,1164,1164,1164,1164,1164,1164,1164,1164,1164,0,0,0,0,0,0,0,0,0,0,0,0,0,0,0,0,0,0,0,1164,1164,1164,1164,1164,0,0,0,0,0,0,1164,1164,1164,1164,1164,1164,1164,1164,1164,1164,1164,1164,1164,0,0,0,0,0,0,0,0,0,0,1164,1164,1164,1164,1164,1164,1164,1164,1164,1164,0,0,0,0,0,0,1164,1164,1164,1164,1164,0,1164,1164,0,0,0,0,0,0,1164,1164,1164,1164,1164,0,0,0,0,0,1164,1164,1164,1164,1164,1164,1164,1164,1164,1164,1164,1164,1164,1164,0,0,0,0,0,1164,1164,0,0,0,0,0,0,0,1164,1164,1164,1164,1164,1164,1164,0,0,0,0,0,1164,1164,1164,1164,1164,0,0,0,0,0,1164,1164,0,0,1164,1164,1164,1164,1164,0,0,0,0,0,1164,1164,1164,1164,1164,1164,1164,1164,1164,1164,1164,1164,1164,1164,1164,0,0,0,0,0,0,0,0,0,0,0,0,0,1164,1164,1164,1164,1164,1164,1164,0,0,0,0,0,1164,1164,1164,1164,1164,0,0,0,0,0,0,0,0,0,0,0,0,0,0,0,0,0,0,0,1164,1164,1164,1164,1164,1164,1164,1164,1164,1164,1164,1164,1164,1164,1164,0,0,0,0,0,0,0,0,0,0,0,0,0,0,1164,1164,1164,1164,1164,1164,0,0,0,0,0,1164,1164,1164,1164,1164,0,0,0,0,0,0,0,0,0,0,0,0,0,0,0,0,0,0,1164,1164,1164,1164,1164,1164,1164,1164,1164,1164,1164,1164,1164,1164,1164,1164,0,0,0,0,0,0,0,0,0,0,0,0,0,0,1164,1164,1164,1164,1164,1164,1164,0,0,0,0,0,0,0,0,0,0,0,0,0,0,0,0,0,0,0,0,0,0,0,0,0,0,0,1164,1164,1164,1164,1164,1164,1164,1164,1164,1164,1164,1164,1164,1164,1164,1164,0,0,0,0,0,0,0,0,0,0,0,0,0,0,1164,1164,1164,1164,1164,1164,1164,0,0,0,0,0,0,0,0,0,0,0,0,0,0,0,0,0,0,0,0,0,0,0,0,0,0,0,1164,1164,1164,1164,1164,1164,1164,1164,1164,1164,1164,1164,1164,1164,1164,0,0,0,0,1164,1164,0,0,0,0,0,0,0,0,1164,1164,1164,1164,1164,1164,1164,0,0,0,0,0,0,0,0,0,0,0,0,0,0,0,0,0,0,0,0,0,0,0,0,0,0,0,0,0,1164,1164,1164,1164,1164,1164,1164,1164,1164,1164,1164,1164,1164,0,0,0,0,0,0,0,0,0,0,0,0,0,0,1164,1164,1164,1164,1164,1164,1164,1164,0,0,0,0,0,0,0,0,0,0,0,0,0,0,0,0,0,1164,1164,1164,1164,1164,0,1164,1164,0,0,0,0,0,1164,1164,1164,1164,1164,1164,1164,1164,1164,1164,1164,1164,0,0,0,0,0,0,0,0,0,1164,1164,0,1164,1164,1164,1164,1164,1164,1164,1164,1164,0,0,0,0,1164,1164,0,0,0,0,0,0,0,0,0,0,0,0,1164,1164,1164,1164,1164,0,0,0,0,0,0,0,0,0,0,1164,1164,1164,1164,1164,1164,1164,1164,1164,0,0,0,0,0,0,0,0,0,0,1164,1164,1164,1164,1164,1164,1164,1164,1164,1164,1164,1164,0,0,0,0,0,0,0,0,0,0,0,0,0,0,0,0,0,0,1164,1164,1164,1164,1164,0,0,0,0,0,0,0,0,0,0,0,0,1164,1164,1164,1164,1164,0,0,0,0,0,0,0,1164,1164,0,0,0,0,0,0,1164,1164,1164,1164,1164,1164,1164,1164,1164,0,0,0,0,0,0,0,0,0,0,1164,1164,1164,1164,1164,0,0,0,1164,1164,1164,1164,1164,0,0,0,0,0,0,0,0,0,0,0,0,1164,1164,1164,1164,0,0,0,0,0,1164,0,0,0,0,0,0,0,0,0,0,1164,1164,1164,1164,1164,1164,1164,1164,1164,1164,0,0,0,0,0,0,0,0,0,1164,1164,1164,1164,1164,0,1164,0,0,0,0,0,0,0,0,0,0,0,0,0,0,0,1164,1164,0,1164,1164,1164,1164,0,0,0,0,0,0,0,0,0,0,0,0,0,0,0,0,0,1164,1164,1164,1164,1164,1164,1164,1164,1164,1164,1164,1164,0,0,0,0,0,0,1164,1164,1164,1164,1164,0,0,0,0,0,0,0,0,0,0,0,0,0,0,0,0,0,0,0,0,1164,1164,1164,1164,0,0,0,0,0,0,0,1164,1164,0,0,0,0,0,0,0,0,1164,1164,1164,1164,1164,1164,1164,1164,1164,1164,1164,1164,1164,1164,0,0,0,0,1164,1164,1164,1164,1164,0,0,0,0,0,0,0,0,0,0,0,1164,1164,1164,1164,1164,0,0,0,0,1164,1164,1164,1164,0,0,0,0,0,0,0,0,0,0,0,0,0,0,0,0,1164,1164,1164,1164,1164,1164,1164,1164,1164,1164,1164,1164,1164,1164,1164,1164,0,0,0,0,0,0,0,0,0,0,0,0,0,0,0,0,0,0,0,1164,1164,1164,1164,1164,0,1164,1164,0,0,0,0,0,1164,1164,0,1164,1164,0,0,0,0,0,1164,1164,1164,0,0,1164,1164,1164,1164,1164,1164,1164,1164,1164,1164,1164,1164,1164,1164,1164,1164,1164,0,0,0,0,0,0,0,0,0,0,0,0,0,0,0,0,0,0,0,1164,0,0,1164,1164,0,0,0,0,0,0,0,0,0,0,0,0,0,0,0,0,0,1164,1164,1164,1164,1164,1164,1164,1164,1164,1164,1164,1164,1164,1164,1164,1164,1164,1164,1164,1164,1164,1164,1164,1164,0,0,0,0,0,0,0,0,0,0,0,0,0,0,0,0,0,0,1164,0,0,1164,1164,0,0,0,1164,1164,0,0,1164,1164,0,0,0,0,0,0,0,1164,1164,1164,1164,1164,1164,1164,1164,1164,1164,1164,1164,1164,1164,1164,1164,1164,1164,1164,1164,1164,1164,1164,1164,1164,1164,1164,1164,1164,1164,1164,0,0,0,0,0,1164,1164,0,0,0,0,0,0,0,0,0,0,0,0,0,0,0,1164,1164,0,0,1164,1164,0,0,0,0,1164,1164,1164,1164,1164,1164,1164,1164,1164,1164,1164,1164,1164,1164,1164,1164,1164,1164,1164,1164,1164,1164,1164,1164,1164,1164,1164,1164,1164,1164,1164,1164,0,0,0,0,0,0,0,0,0,0,1164,0,0,0,0,0,0,0,1164,1164,0,0,0,0,1164,1164,0,0,1164,1164,0,0,1164,1164,1164,1164,1164,1164,1164,1164,1164,1164,1164,1164,1164,1164,1164,1164,1164,1164,1164,1164,1164,1164,1164,1164,1164,1164,1164,1164,1164,1164,1164,1164,1164,0,0,0,0,0,0,0,0,0,0,0,0,0,0,0,1164,1164,0,0,1164,1164,0,0,0,0,0,0,0,0,0,0,1164,1164,1164,1164,1164,1164,1164,1164,1164,1164,1164,1164,1164,1164,1164,1164,1164,1164,1164,1164,1164,1164,1164,1164,1164,1164,1164,1164,1164,1164,1164,1164,1164,0,0,0,0,1164,1164,1164,0,0,0,0,0,0,0,0,0,0,0,0,0,0,1164,1164,0,0,1164,1164,1164,1164,0,1164,1164,1164,1164,1164,1164,1164,1164,1164,1164,1164,1164,1164,1164,1164,1164,1164,1164,1164,1164,1164,1164,1164,1164,1164,1164,1164,1164,1164,1164,1164,1164,1164,1164,0,0,0,1164,1164,1164,1164,1164,0,0,0,0,0,0,1164,1164,0,0,0,0,0,0,0,1164,1164,0,0,0,0,0,1164,1164,1164,1164,1164,1164,1164,1164,1164,1164,1164,1164,1164,1164,1164,1164,1164,1164,1164,1164,1164,1164,1164,1164,1164,1164,1164,1164,1164,1164,1164,1164,1164,1164,0,0,1164,1164,1164,1164,1164,1164,0,0,0,0,0,0,1164,1164,1164,0,0,0,0,1164,1164,1164,1164,1164,1164,0,1164,1164,1164,1164,1164,1164,1164,1164,1164,1164,1164,1164,1164,1164,1164,1164,1164,1164,1164,1164,1164,1164,1164,1164,1164,1164,1164,1164,1164,1164,1164,1164,1164,1164,1164,1164,0,0,1164,1164,1164,1164,1164,1164,0,0,0,1164,0,0,1164,1164,1164,1164,1164,1164,1164,1164,1164,1164,1164,1164,1164,1164,1164,1164,1164,1164,1164,1164,1164,1164,1164,1164,1164,1164,1164,1164,1164,1164,1164,1164,1164,1164,1164,1164,1164,1164,1164,1164,1164,1164,1164,1164,1164,1164,1164,1164,1164,1164,1164,1164,1164,1164,1164,1164,1164,1164,0,0,1164,1164,0,0,1164,1164,1164,1164,1164,1164,1164,1164,1164,1164,1164,1164,1164,1164,1164,1164,1164,1164,1164,1164,1164,1164,1164,1164,1164,1164,1164,1164,1164,1164,1164,1164,1164,1164,1164,1164,1164,1164,1164,1164,1164,1164,1164,1164,1164,1164,1164,1164,1164,1164,1164,1164,1164,1164,1164,1164,1164,1164,1164,1164,1164,1164,0,0,1164,1164,1164,1164,1164,1164,1164,1164,1164,1164,1164,1164,1164,1164,1164,1164,1164,1164,1164,1164,1164,1164,1164,1164,1164,1164,1164,1164,1164,1164,1164,1164,1164,1164,1164,1164,1164,1164,1164,1164,1164,1164,1164,1164,1164,1164,1164,1164,1164,1164,1164,1164,1164,1164,1164,1164,1164,1164,0,0,1164,1164,0,0,1164,1164,1164,1164,1164,1164,1164,1164,1164,1164,1164,1164,1164,1164,1164,1164,1164,1164,1164,1164,1164,1164,1164,1164,1164,1164,1164,1164,1164,1164,1164,1164,1164,1164,1164,1164,1164,1164,1164,1164,1164,1164,1164,1164,1164,1164,1164,1164,1164,1164,1164,1164,1164,1164,1164,1164,1164,0,0,0,0,1164,0,0,1164,0,0,0,0,1164,1164,1164,1164,1164,1164,1164,1164,1164,1164,1164,1164,1164,1164,1164,1164,1164,1164,1164,1164,1164,1164,1164,1164,1164,1164,1164,1164,1164,1164,1164,1164,1164,1164,1164,1164,1164,1164,1164,1164,1164,1164,1164,1164,1164,1164,1164,1164,1164,1164,1164,1164,0,0,0,0,1164,0,0,0,0,0,0,0,0,1164,1164,1164,1164,1164,1164,1164,1164,1164,1164,1164,1164,1164,1164,1164,1164,1164,1164,1164,1164,1164,1164,1164,1164,1164,1164,1164,1164,1164,1164,1164,1164,1164,1164,1164,1164,1164,1164,1164,1164,1164,1164,1164,1164,1164,1164,1164,1164,1164,1164,0,0,0,0,0,0,0,0,0,0,0,0,0,0,0,0,0,0,0,0,0,1164,1164,1164,1164,1164,1164,1164,1164,1164,1164,1164,1164,1164,1164,1164,1164,1164,1164,1164,1164,1164,1164,1164,1164,1164,1164,1164,1164,1164,1164,1164,1164,1164,1164,1164,1164,1164,1164,1164,1164,1164,1164,1164,0,0,0,0,0,0,0,0,0,0,0,0,0,0,0,0,0,0,0,0,0,0,1164,1164,1164,1164,1164,1164,1164,1164,1164,1164,1164,1164,1164,1164,1164,1164,1164,1164,1164,1164,1164,1164,1164,1164,1164,1164,1164,1164,1164,1164,1164,1164,1164,0,0,0,1164,1164,1164,1164,0,0,0,0,0,1164,0,0,0,0,0,0,0,0,0,0,0,0,0,0,0,0,0,0,0,1164,1164,1164,1164,1164,1164,1164,1164,1164,1164,1164,1164,1164,1164,1164,1164,1164,1164,1164,1164,1164,1164,1164,1164,1164,1164,1164,1164,1164,1164,1164,0,0,0,0,0,0,0,0,0,0,0,0,0,0,0,0,0,0,0,0,0,1164,1164,0,0,0,0,0,1164,1164,0,0,0,1164,1164,0,0,0,1164,1164,1164,1164,1164,1164,1164,1164,1164,1164,1164,1164,1164,1164,1164,1164,1164,1164,1164,1164,1164,1164,1164,1164,1164,0,0,0,0,0,0,0,0,0,0,0,0,0,0,0,0,0,0,0,0,0,0,0,0,0,0,0,0,0,0,0,0,0,0,0,0,0,0,0,0,1164,1164,1164,1164,1164,1164,1164,1164,1164,1164,1164,1164,1164,1164,1164,1164,1164,1164,1164,1164,1164,1164,1164,0,0,0,1164,1164,1164,1164,0,0,0,0,0,0,0,0,0,0,0,0,0,0,0,0,0,0,0,0,0,0,0,0,0,0,0,0,0,0,0,0,0,0,1164,1164,1164,1164,1164,1164,1164,1164,1164,1164,1164,1164,1164,1164,1164,1164,1164,1164,1164,1164,1164,1164,1164,0,0,0,0,0,0,0,0,0,1164,1164,0,1164,1164,0,0,0,0,0,0,0,0,0,0,1164,1164,0,0,0,0,0,0,0,0,0,0,0,0,0,0,0,1164,1164,1164,1164,1164,1164,1164,1164,1164,1164,1164,1164,1164,1164,1164,1164,1164,1164,1164,1164,1164,1164,1164,0,0,0,0,0,0,1164,1164,0,0,0,0,0,0,0,0,0,0,0,0,0,0,0,0,0,0,0,0,0,0,0,0,0,0,0,0,0,0,0,0,1164,1164,1164,1164,1164,1164,1164,1164,1164,1164,1164,1164,1164,1164,1164,1164,1164,1164,1164,1164,1164,1164,1164,1164,0,0,0,0,0,0,0,0,0,0,0,0,0,0,0,0,1164,1164,0,0,0,0,0,0,0,0,0,0,0,0,0,0,0,0,1164,1164,0,0,0,0,1164,1164,1164,1164,1164,1164,1164,1164,1164,1164,1164,1164,1164,1164,1164,1164,1164,1164,1164,1164,1164,1164,1164,0,0,0,0,0,0,0,0,0,0,0,0,0,0,0,0,0,0,0,0,0,0,0,0,0,0,0,0,0,0,0,0,0,0,0,0,0,0,0,0,0,0,1164,1164,1164,1164,1164,1164,1164,1164,1164,1164,1164,1164,1164,1164,1164,1164,1164,1164,1164,1164,1164,1164,0,0,0,0,0,0,0,0,0,0,0,1164,1164,1164,1164,1164,0,0,0,0,0,0,0,0,0,0,1164,1164,0,0,0,0,0,0,0,0,0,0,0,0,0,0,1164,1164,1164,1164,1164,1164,1164,1164,1164,1164,1164,1164,1164,1164,1164,0,0,0,0,0,0,0,0,0,0,0,0,1164,1164,0,0,0,0,1164,1164,1164,1164,1164,0,0,0,0,0,0,0,0,0,0,0,0,0,0,0,0,0,0,0,0,0,0,0,0,0,0,0,1164,1164,1164,1164,1164,1164,1164,1164,1164,1164,1164,1164,1164,1164,0,0,0,0,0,0,0,0,0,0,0,0,0,0,0,0,0,0,1164,1164,1164,1164,1164,0,1164,1164,0,0,0,0,0,0,0,0,0,0,0,0,0,0,0,0,0,0,0,0,0,0,0,0,0,0,0,1164,1164,1164,1164,1164,1164,1164,1164,1164,1164,0,0,0,0,0,0,0,0,0,0,0,0,0,0,0,0,0,0,0,1164,1164,1164,1164,1164,0,0,0,0,0,0,0,0,0,0,0,0,0,0,0,0,0,0,0,0,0,0,0,0,0,0,0,0,0,0,0,0,1164,1164,1164,1164,1164,1164,1164,1164,0,0,0,0,1164,1164,0,0,0,0,0,0,1164,1164,0,0,0,0,0,0,0,0,0,0,0,0,0,0,0,0,0,0,0,0,0,0,0,1164,1164,1164,1164,1164,0,0,0,0,0,0,0,0,0,0,0,0,0,0,1164,1164,1164,1164,1164,1164,1164,1164,1164,0,0,0,0,0,0,0,0,0,0,0,0,0,0,0,0,0,0,0,0,0,0,0,0,0,0,0,0,0,0,0,1164,0,1164,1164,0,1164,1164,1164,1164,1164,0,0,0,0,0,0,0,0,0,0,0,0,0,0,1164,1164,1164,1164,1164,1164,1164,1164,1164,1164,1164,0,0,0,0,0,0,0,0,0,0,0,0,1164,1164,0,0,0,0,0,0,0,0,0,0,0,0,0,0,0,0,0,0,0,0,1164,1164,1164,1164,1164,0,0,0,0,0,1164,1164,0,0,1164,1164,0,0,0,0,1164,1164,1164,1164,1164,1164,1164,1164,1164,1164,1164,1164,0,0,0,0,0,0,0,0,0,0,0,0,0,1164,1164,0,0,0,0,0,1164,1164,0,0,0,0,0,0,0,0,0,0,1164,1164,1164,1164,1164,0,0,0,0,0,0,0,0,0,0,0,0,0,0,1164,1164,1164,1164,1164,1164,1164,1164,1164,1164,1164,1164,1164,0,0,0,0,0,0,0,0,0,0,0,0,0,0,0,0,1164,1164,0,0,0,0,0,0,0,0,0,0,0,0,0,0,0,0,0,0,0,0,0,0,0,0,0,0,0,0,0,0,0,0,0,1164,1164,1164,1164,1164,1164,1164,1164,1164,1164,1164,1164,1164,0,0,0,0,0,0,0,0,0,0,0,0,0,0,0,0,0,0,0,0,0,0,0,0,0,0,0,0,0,0,0,0,0,0,0,0,0,0,0,1164,1164,0,0,0,1164,0,0,0,0,0,1164,1164,1164,1164,1164,1164,1164,1164,1164,1164,1164,1164,1164,0,0,0,0,0,0,0,0,0,0,0,0,0,0,0,0,0,0,0,0,0,0,0,0,0,0,0,0,0,0,0,0,0,0,0,0,0,0,0,0,0,0,0,0,0,0,0,0,0,0,0,1164,1164,1164,1164,1164,1164,1164,1164,0,0,0,0,0,0,0,0,0,0,0,0,0,0,0,0,0,0,0,0,0,0,0,0,0,0,0,0,0,0,0,0,1164,1164,1164,1164,1164,1164,0,0,1164,1164,0,0,0,0,0,0,0,0,0,0,1164,1164,0,0,1164,1164,1164,1164,1164,1164,1164,1164,0,0,0,0,0,0,0,0,0,0,0,0,0,0,0,0,0,0,0,0,1164,1164,1164,1164,1164,0,1164,1164,0,0,0,0,0,0,0,0,0,0,0,0,0,0,0,0,0,0,0,0,0,1164,1164,0,0,0,0,0,1164,1164,1164,1164,1164,1164,1164,1164,0,0,0,0,0,0,0,1164,1164,0,0,1164,1164,1164,1164,1164,0,1164,1164,0,1164,1164,1164,1164,1164,0,0,0,0,0,0,0,0,0,0,0,0,0,0,0,0,0,0,1164,1164,1164,1164,1164,0,0,0,0,0,0,0,0,1164,1164,1164,1164,1164,1164,1164,1164,1164,1164,1164,0,0,0,0,0,0,0,0,1164,1164,1164,1164,1164,0,0,0,0,1164,1164,1164,1164,1164,0,0,0,0,0,0,0,1164,1164,1164,1164,1164,1164,0,0,1164,1164,0,1164,1164,1164,1164,1164,0,0,0,0,0,0,0,0,1164,1164,1164,1164,1164,1164,1164,1164,1164,1164,1164,1164,0,0,0,0,0,0,0,1164,1164,1164,1164,1164,0,0,0,0,1164,1164,1164,1164,1164,0,0,0,0,0,0,0,0,0,0,0,0,0,0,0,0,0,0,1164,1164,1164,1164,1164,0,0,0,0,0,1164,0,0,1164,1164,1164,1164,1164,1164,1164,1164,1164,1164,1164,1164,0,0,0,0,0,0,0,1164,1164,1164,1164,1164,0,0,0,0,0,0,0,0,0,0,0,0,0,0,1164,1164,0,0,1164,1164,0,1164,1164,0,0,0,0,1164,1164,1164,1164,1164,0,0,1164,1164,0,0,0,0,1164,1164,1164,1164,1164,1164,1164,1164,1164,1164,1164,1164,1164,0,0,0,0,0,0,0,0,0,0,0,0,0,0,0,0,0,0,0,0,0,0,0,0,0,0,0,0,0,0,0,0,0,0,0,0,0,0,0,0,0,0,0,0,0,0,0,0,0,0,1164,1164,1164,1164,1164,1164,1164,1164,1164,1164,1164,1164,1164,1164,0,0,0,0,0,0,0,0,0,0,0,0,0,0,0,0,0,0,0,0,0,0,0,0,0,0,0,0,0,0,0,0,0,0,0,0,0,0,0,0,0,0,0,0,0,0,0,0,0,1164,1164,1164,1164,1164,1164,1164,1164,1164,1164,1164,1164,1164,1164,1164,1164,0,0,1164,1164,0,0,0,0,0,0,0,0,0,0,0,0,0,0,0,0,0,0,0,0,0,0,0,0,0,0,0,0,0,0,0,0,0,0,0,0,0,0,0,1164,1164,0,0,1164,1164,1164,1164,1164,1164,1164,1164,1164,1164,1164,1164,1164,1164,1164,1164,1164,0,0,0,0,0,0,0,0,1164,1164,0,1164,1164,0,1164,1164,0,0,0,0,0,0,0,0,0,0,0,0,0,1164,1164,0,0,0,0,0,0,0,0,0,0,0,0,0,0,0,0,1164,1164,1164,1164,1164,1164,1164,1164,1164,1164,1164,1164,1164,1164,1164,1164,0,0,0,0,0,0,0,0,0,0,0,0,0,0,0,0,0,0,1164,1164,0,0,0,0,0,0,0,0,0,0,0,0,0,0,0,0,0,0,0,0,0,0,0,0,0,0,0,1164,1164,1164,1164,1164,1164,1164,1164,1164,1164,1164,1164,1164,1164,1164,1164,1164,0,0,0,0,0,0,0,0,0,0,0,0,0,0,0,0,0,0,0,0,0,1164,1164,1164,1164,1164,0,0,0,0,0,0,0,0,1164,1164,0,0,0,0,0,0,0,0,0,0,0,1164,1164,1164,1164,1164,1164,1164,1164,1164,1164,1164,1164,1164,1164,1164,1164,1164,0,0,0,0,1164,0,0,0,0,0,0,0,0,1164,1164,0,0,0,0,0,0,1164,1164,1164,1164,1164,0,0,0,0,0,0,0,0,0,0,0,0,0,0,0,0,0,1164,1164,0,0,1164,1164,1164,1164,1164,1164,1164,1164,1164,1164,1164,1164,1164,1164,1164,1164,1164,0,0,1164,1164,1164,0,0,0,0,0,0,0,0,0,0,0,1164,1164,1164,1164,0,1164,1164,1164,1164,1164,0,0,0,0,0,0,0,0,0,0,0,0,0,0,0,0,0,0,0,0,0,1164,1164,1164,1164,1164,1164,1164,1164,1164,1164,1164,1164,1164,1164,1164,1164,1164,1164,1164,1164,1164,1164,0,0,0,0,0,0,0,0,0,0,0,1164,1164,1164,1164,0,1164,1164,1164,1164,1164,0,0,0,0,0,0,0,0,0,0,0,0,0,0,0,0,0,0,0,0,1164,1164,1164,1164,1164,1164,1164,1164,1164,1164,1164,1164,1164,1164,1164,1164,1164,1164,1164,1164,1164,1164,1164,1164,0,0,1164,1164,0,0,1164,0,0,0,0,0,0,0,0,0,0,0,0,0,0,0,0,0,0,0,1164,1164,0,0,0,0,0,0,1164,1164,0,0,0,0,1164,1164,1164,1164,1164,1164,1164,1164,1164,1164,1164,1164,1164,1164,1164,1164,1164,1164,1164,1164,1164,1164,1164,1164,0,0,0,0,0,0,0,0,0,0,0,0,0,0,0,0,0,0,0,0,0,0,0,0,0,0,0,0,0,0,0,0,1164,1164,1164,1164,1164,1164,1164,1164,1164,1164,1164,1164,1164,1164,1164,1164,1164,1164,1164,1164,1164,1164,1164,1164,1164,1164,1164,1164,1164,1164,1164,1164,1164,0,0,0,0,0,0,0,0,0,0,0,1164,1164,0,0,0,0,0,0,0,0,0,0,0,0,0,0,0,0,0,1164,1164,1164,1164,1164,1164,1164,1164,1164,1164,1164,1164,1164,1164,1164,1164,1164,1164,1164,1164,1164,1164,1164,1164,1164,1164,1164,1164,1164,1164,1164,1164,1164,1164,1164,1164,1164,1164,1164,1164,0,0,0,0,0,0,0,0,0,0,0,0,0,0,0,0,0,0,0,0,0,0,0,1164,1164,1164,1164,1164,1164,1164,1164,1164,1164,1164,1164,1164,1164,1164,1164,1164,1164,1164,1164,1164,1164,1164,1164,1164,1164,1164,1164,1164,1164,1164,1164,1164,1164,1164,1164,1164,1164,1164,1164,1164,1164,1164,0,0,0,0,0,0,0,0,0,0,0,0,0,0,0,0,0,0,0,0,1164,1164,1164,1164,1164,1164,1164,1164,1164,1164,1164,1164,1164,1164,1164,1164,1164,1164,1164,1164,1164,1164,1164,1164,1164,1164,1164,1164,1164,1164,1164,1164,1164,1164,1164,1164,1164,1164,1164,1164,1164,1164,1164,1164,1164,0,0,1164,1164,1164,1164,0,0,0,0,0,0,0,1164,1164,0,0,0,0,1164,1164,1164,1164,1164,1164,1164,1164,1164,1164,1164,1164,1164,1164,1164,1164,1164,1164,1164,1164,1164,1164,1164,1164,1164,1164,1164,1164,1164,1164,1164,1164,1164,1164,1164,1164,1164,1164,1164,1164,1164,1164,1164,1164,1164,1164,1164,1164,1164,1164,1164,1164,0,0,0,0,1164,1164,1164,1164,1164,0,0,1164,1164,1164,1164,1164,1164,1164,1164,1164,1164,1164,1164,1164,1164,1164,1164,1164,1164,1164,1164,1164,1164,1164,1164,1164,1164,1164,1164,1164,1164,1164,1164,1164,1164,1164,1164,1164,1164,1164,1164,1164,1164,1164,1164,1164,1164,1164,1164,1164,1164,1164,1164,1164,1164,1164,1164,1164,1164,1164,1164,1164,1164,1164,1164,1164,1164,1164,1164,1164,1164,1164,1164,1164,1164,1164,1164,1164,1164,1164,1164,1164,1164,1164,1164,1164,1164,1164,1164,1164,1164,1164,1164,1164,1164,1164,1164,1164,1164,1164,1164,1164,1164,1164,1164,1164,1164,1164,1164,1164,1164,1164,1164,1164,1164,1164,1164,1164,1164,1164,1164,1164,1164,1164,1164,1164,1164,1164,1164,1164,1164,1164,1164,1164,1164,1164,1164,1164,1164,1164,1164,1164,1164,1164,1164,1164,1164,1164,1164,1164,1164,1164,1164,1164,1164,1164,1164,1164,1164,1164,1164,1164,1164,1164,1164,1164,1164,1164,1164,1164,1164,1164,1164,1164,1164,1164,1164,1164,1164,1164,1164,1164,1164,1164,1164,1164,1164,1164,1164,1164,1164,1164,1164,1164,1164,1164,1164,1164,1164,1164,1164,1164,1164,1164,1164,1164,1164,1164,1164,1164,1164,1164,1164,1164,1164]},{"id":7,"name":"meta","type":"objectgroup","x":0,"y":0,"opacity":1,"visible":true,"draworder":"topdown","objects":[{"id":1,"name":"","type":"station","point":true,"visible":true,"rotation":0,"x":504,"y":672,"properties":[{"name":"region","type":"string","value":"public"},{"name":"slot","type":"int","value":0}]},{"id":2,"name":"","type":"station","point":true,"visible":true,"rotation":0,"x":584,"y":288,"properties":[{"name":"region","type":"string","value":"public"},{"name":"slot","type":"int","value":1}]},{"id":3,"name":"","type":"station","point":true,"visible":true,"rotation":0,"x":696,"y":592,"properties":[{"name":"region","type":"string","value":"public"},{"name":"slot","type":"int","value":2}]},{"id":4,"name":"","type":"station","point":true,"visible":true,"rotation":0,"x":776,"y":448,"properties":[{"name":"region","type":"string","value":"public"},{"name":"slot","type":"int","value":3}]},{"id":5,"name":"","type":"station","point":true,"visible":true,"rotation":0,"x":232,"y":448,"properties":[{"name":"region","type":"string","value":"public"},{"name":"slot","type":"int","value":4}]},{"id":6,"name":"","type":"station","point":true,"visible":true,"rotation":0,"x":440,"y":480,"properties":[{"name":"region","type":"string","value":"public"},{"name":"slot","type":"int","value":5}]},{"id":7,"name":"","type":"station","point":true,"visible":true,"rotation":0,"x":376,"y":304,"properties":[{"name":"region","type":"string","value":"public"},{"name":"slot","type":"int","value":6}]},{"id":8,"name":"","type":"station","point":true,"visible":true,"rotation":0,"x":632,"y":432,"properties":[{"name":"region","type":"string","value":"public"},{"name":"slot","type":"int","value":7}]},{"id":9,"name":"","type":"station","point":true,"visible":true,"rotation":0,"x":328,"y":624,"properties":[{"name":"region","type":"string","value":"public"},{"name":"slot","type":"int","value":8}]},{"id":10,"name":"","type":"station","point":true,"visible":true,"rotation":0,"x":424,"y":1088,"properties":[{"name":"region","type":"string","value":"system"},{"name":"slot","type":"int","value":0}]},{"id":11,"name":"","type":"station","point":true,"visible":true,"rotation":0,"x":200,"y":1264,"properties":[{"name":"region","type":"string","value":"system"},{"name":"slot","type":"int","value":1}]},{"id":12,"name":"","type":"station","point":true,"visible":true,"rotation":0,"x":424,"y":1232,"properties":[{"name":"region","type":"string","value":"system"},{"name":"slot","type":"int","value":2}]},{"id":13,"name":"","type":"station","point":true,"visible":true,"rotation":0,"x":728,"y":1104,"properties":[{"name":"region","type":"string","value":"system"},{"name":"slot","type":"int","value":3}]},{"id":14,"name":"","type":"station","point":true,"visible":true,"rotation":0,"x":392,"y":1376,"properties":[{"name":"region","type":"string","value":"system"},{"name":"slot","type":"int","value":4}]},{"id":15,"name":"","type":"station","point":true,"visible":true,"rotation":0,"x":584,"y":1104,"properties":[{"name":"region","type":"string","value":"system"},{"name":"slot","type":"int","value":5}]},{"id":16,"name":"","type":"station","point":true,"visible":true,"rotation":0,"x":264,"y":1424,"properties":[{"name":"region","type":"string","value":"system"},{"name":"slot","type":"int","value":6}]},{"id":17,"name":"","type":"station","point":true,"visible":true,"rotation":0,"x":520,"y":1472,"properties":[{"name":"region","type":"string","value":"system"},{"name":"slot","type":"int","value":7}]},{"id":18,"name":"","type":"station","point":true,"visible":true,"rotation":0,"x":264,"y":2096,"properties":[{"name":"region","type":"string","value":"feature"},{"name":"slot","type":"int","value":0}]},{"id":19,"name":"","type":"station","point":true,"visible":true,"rotation":0,"x":408,"y":2080,"properties":[{"name":"region","type":"string","value":"feature"},{"name":"slot","type":"int","value":1}]},{"id":20,"name":"","type":"station","point":true,"visible":true,"rotation":0,"x":696,"y":1952,"properties":[{"name":"region","type":"string","value":"feature"},{"name":"slot","type":"int","value":2}]},{"id":21,"name":"","type":"station","point":true,"visible":true,"rotation":0,"x":408,"y":1888,"properties":[{"name":"region","type":"string","value":"feature"},{"name":"slot","type":"int","value":3}]},{"id":22,"name":"","type":"station","point":true,"visible":true,"rotation":0,"x":504,"y":2240,"properties":[{"name":"region","type":"string","value":"feature"},{"name":"slot","type":"int","value":4}]},{"id":23,"name":"","type":"station","point":true,"visible":true,"rotation":0,"x":776,"y":2096,"properties":[{"name":"region","type":"string","value":"feature"},{"name":"slot","type":"int","value":5}]},{"id":24,"name":"","type":"windmill","point":true,"visible":true,"rotation":0,"x":720,"y":304,"properties":[]},{"id":25,"name":"","type":"windmill","point":true,"visible":true,"rotation":0,"x":304,"y":1088,"properties":[]},{"id":26,"name":"","type":"windmill","point":true,"visible":true,"rotation":0,"x":416,"y":2240,"properties":[]},{"id":27,"name":"","type":"spawn","point":true,"visible":true,"rotation":0,"x":512,"y":656,"properties":[]},{"id":28,"name":"","type":"door","point":true,"visible":true,"rotation":0,"x":512,"y":800,"properties":[]},{"id":29,"name":"","type":"door","point":true,"visible":true,"rotation":0,"x":512,"y":1600,"properties":[]},{"id":30,"name":"","type":"label","point":true,"visible":true,"rotation":0,"x":48,"y":112,"properties":[{"name":"text","type":"string","value":"MEADOW"},{"name":"theme","type":"string","value":"forest"}]},{"id":31,"name":"","type":"label","point":true,"visible":true,"rotation":0,"x":48,"y":896,"properties":[{"name":"text","type":"string","value":"LAKESIDE"},{"name":"theme","type":"string","value":"snow"}]},{"id":32,"name":"","type":"label","point":true,"visible":true,"rotation":0,"x":48,"y":1680,"properties":[{"name":"text","type":"string","value":"HIGHLAND"},{"name":"theme","type":"string","value":"desert"}]},{"id":33,"name":"","type":"animal","point":true,"visible":true,"rotation":0,"x":232,"y":544,"properties":[{"name":"kind","type":"string","value":"sheep"}]},{"id":34,"name":"","type":"animal","point":true,"visible":true,"rotation":0,"x":904,"y":480,"properties":[{"name":"kind","type":"string","value":"sheep"}]},{"id":35,"name":"","type":"animal","point":true,"visible":true,"rotation":0,"x":632,"y":624,"properties":[{"name":"kind","type":"string","value":"pig"}]},{"id":36,"name":"","type":"animal","point":true,"visible":true,"rotation":0,"x":88,"y":352,"properties":[{"name":"kind","type":"string","value":"sheep"}]},{"id":37,"name":"","type":"animal","point":true,"visible":true,"rotation":0,"x":568,"y":512,"properties":[{"name":"kind","type":"string","value":"chicken"}]},{"id":38,"name":"","type":"animal","point":true,"visible":true,"rotation":0,"x":808,"y":592,"properties":[{"name":"kind","type":"string","value":"chicken"}]},{"id":39,"name":"","type":"animal","point":true,"visible":true,"rotation":0,"x":840,"y":1184,"properties":[{"name":"kind","type":"string","value":"sheep"}]},{"id":40,"name":"","type":"animal","point":true,"visible":true,"rotation":0,"x":152,"y":1280,"properties":[{"name":"kind","type":"string","value":"sheep"}]},{"id":41,"name":"","type":"animal","point":true,"visible":true,"rotation":0,"x":664,"y":944,"properties":[{"name":"kind","type":"string","value":"chicken"}]},{"id":42,"name":"","type":"animal","point":true,"visible":true,"rotation":0,"x":664,"y":992,"properties":[{"name":"kind","type":"string","value":"chicken"}]},{"id":43,"name":"","type":"animal","point":true,"visible":true,"rotation":0,"x":88,"y":1344,"properties":[{"name":"kind","type":"string","value":"sheep"}]},{"id":44,"name":"","type":"animal","point":true,"visible":true,"rotation":0,"x":88,"y":1344,"properties":[{"name":"kind","type":"string","value":"chicken"}]},{"id":45,"name":"","type":"animal","point":true,"visible":true,"rotation":0,"x":328,"y":1984,"properties":[{"name":"kind","type":"string","value":"sheep"}]},{"id":46,"name":"","type":"animal","point":true,"visible":true,"rotation":0,"x":232,"y":2192,"properties":[{"name":"kind","type":"string","value":"sheep"}]},{"id":47,"name":"","type":"animal","point":true,"visible":true,"rotation":0,"x":712,"y":2080,"properties":[{"name":"kind","type":"string","value":"chicken"}]},{"id":48,"name":"","type":"animal","point":true,"visible":true,"rotation":0,"x":264,"y":1968,"properties":[{"name":"kind","type":"string","value":"chicken"}]},{"id":49,"name":"","type":"animal","point":true,"visible":true,"rotation":0,"x":216,"y":2192,"properties":[{"name":"kind","type":"string","value":"chicken"}]},{"id":50,"name":"","type":"animal","point":true,"visible":true,"rotation":0,"x":376,"y":1728,"properties":[{"name":"kind","type":"string","value":"sheep"}]}]}],"tilesets":[{"firstgid":1,"name":"sunnyside","image":"tileset-sunnyside.png","imagewidth":1024,"imageheight":1024,"columns":64,"tilecount":4096,"tilewidth":16,"tileheight":16,"margin":0,"spacing":0,"tiles":[{"id":1163,"properties":[{"name":"collides","type":"bool","value":true}]},{"id":1419,"animation":[{"tileid":1419,"duration":150},{"tileid":1420,"duration":170},{"tileid":1421,"duration":190},{"tileid":1422,"duration":210},{"tileid":3880,"duration":360}]},{"id":1420,"animation":[{"tileid":1420,"duration":150},{"tileid":1421,"duration":170},{"tileid":1422,"duration":190},{"tileid":1419,"duration":210},{"tileid":3880,"duration":560}]},{"id":1421,"animation":[{"tileid":1421,"duration":150},{"tileid":1422,"duration":170},{"tileid":1419,"duration":190},{"tileid":1420,"duration":210},{"tileid":3880,"duration":780}]},{"id":1422,"animation":[{"tileid":1422,"duration":150},{"tileid":1419,"duration":170},{"tileid":1420,"duration":190},{"tileid":1421,"duration":210},{"tileid":3880,"duration":1020}]},{"id":414,"animation":[{"tileid":414,"duration":180},{"tileid":415,"duration":180},{"tileid":416,"duration":180},{"tileid":417,"duration":180}]},{"id":478,"animation":[{"tileid":478,"duration":180},{"tileid":479,"duration":180},{"tileid":480,"duration":180},{"tileid":481,"duration":180}]},{"id":542,"animation":[{"tileid":542,"duration":180},{"tileid":543,"duration":180},{"tileid":544,"duration":180},{"tileid":545,"duration":180}]}]}]}